;Fusion CAM 2.0.20508
; Posts processor: MPCNC.cps
; Gcode generated: Friday, November 1, 2024 4:45:27 PM GMT
; Document: Main v2 v16
; Setup: Drill Plate
;When using Fusion for Personal Use, the feedrate of rapid
;moves is reduced to match the feedrate of cutting moves,
;which can increase machining time. Unrestricted rapid moves
;are available with a Fusion Subscription.
; 
; Ranges Table:
;   X: Min=18.413 Max=367.212 Size=348.8
;   Y: Min=8.413 Max=275.413 Size=267
;   Z: Min=-5.5 Max=15 Size=20.5
; 
; Tools Table:
;  T2 D=3.175 CR=0 - ZMIN=-5.5 - flat end mill 
; 
; Feedrate and Scaling Properties:
;   Feed: Travel speed X/Y = 2500
;   Feed: Travel Speed Z = 300
;   Feed: Enforce Feedrate = true
;   Feed: Scale Feedrate = false
;   Feed: Max XY Cut Speed = 1080
;   Feed: Max Z Cut Speed = 180
;   Feed: Max Toolpath Speed = 1080
; 
; G1->G0 Mapping Properties:
;   Map: First G1 -> G0 Rapid = false
;   Map: G1s -> G0 Rapids = false
;   Map: SafeZ Mode = Retract : default = 15
;   Map: Allow Rapid Z = false
; 
; *** START begin ***
;   Set Absolute Positioning
;   Units = mm
;   Disable stepper timeout
G90
G21
M84 S0
; COMMAND_TOOL_MEASURE
; Probe to Zero Z
;   Ask User to Attach the Z Probe
;   Do Probing
;   Set Z to probe thickness: Z14
;   Retract the tool to 20
;   Ask User to Remove the Z Probe
M0 Attach ZProbe
G28 Z
G92 Z14
G0 Z20 F300
M400
M0 Detach ZProbe
; *** START end ***
; 
; *** SECTION begin ***
;   X Min: 27.987 - X Max: 367.212
;   Y Min: 39.188 - Y Max: 275.413
;   Z Min: -5.5 - Z Max: 15
; Bore1 - Milling - Tool: 2 -  flat end mill
; COMMAND_START_SPINDLE
; COMMAND_SPINDLE_CLOCKWISE
; >>> Spindle Speed: Manual
M0 Turn ON 20000RPM
; COMMAND_COOLANT_ON
M117  Bore1
; MOVEMENT_CUTTING
G1 X367 Y67.475 Z15 F1080
G1 Z1.683 F1080
; MOVEMENT_LEAD_IN
G1 Z0 F1080
G1 X366.994 Y67.469 F1080
G1 X366.996 Y67.464 F1080
G1 X367 Y67.463 F1080
; MOVEMENT_CUTTING
G1 X367.009 Y67.466 Z-0.014 F1080
G1 X367.012 Y67.475 Z-0.028 F1080
G1 X367.009 Y67.484 Z-0.042 F1080
G1 X367 Y67.487 Z-0.056 F1080
G1 X366.991 Y67.484 Z-0.069 F1080
G1 X366.988 Y67.475 Z-0.083 F1080
G1 X366.991 Y67.466 Z-0.097 F1080
G1 X367 Y67.463 Z-0.111 F1080
G1 X367.008 Y67.466 Z-0.125 F1080
G1 X367.012 Y67.474 Z-0.139 F1080
G1 X367.009 Y67.483 Z-0.153 F1080
G1 X367.001 Y67.487 Z-0.167 F1080
G1 X366.992 Y67.484 Z-0.181 F1080
G1 X366.988 Y67.476 Z-0.194 F1080
G1 X366.991 Y67.467 Z-0.208 F1080
G1 X366.999 Y67.463 Z-0.222 F1080
G1 X367.008 Y67.466 Z-0.236 F1080
G1 X367.012 Y67.474 Z-0.25 F1080
G1 X367.01 Y67.483 Z-0.264 F1080
G1 X367.001 Y67.487 Z-0.278 F1080
G1 X366.992 Y67.485 Z-0.292 F1080
G1 X366.988 Y67.476 Z-0.306 F1080
G1 X366.99 Y67.467 Z-0.319 F1080
G1 X366.999 Y67.463 Z-0.333 F1080
G1 X367.008 Y67.465 Z-0.347 F1080
G1 X367.012 Y67.474 Z-0.361 F1080
G1 X367.01 Y67.483 Z-0.375 F1080
G1 X367.002 Y67.487 Z-0.389 F1080
G1 X366.992 Y67.485 Z-0.403 F1080
G1 X366.988 Y67.477 Z-0.417 F1080
G1 X366.99 Y67.467 Z-0.431 F1080
G1 X366.998 Y67.463 Z-0.444 F1080
G1 X367.007 Y67.465 Z-0.458 F1080
G1 X367.012 Y67.473 Z-0.472 F1080
G1 X367.01 Y67.482 Z-0.486 F1080
G1 X367.002 Y67.487 Z-0.5 F1080
G1 X366.993 Y67.485 Z-0.514 F1080
G1 X366.988 Y67.477 Z-0.528 F1080
G1 X366.99 Y67.468 Z-0.542 F1080
G1 X366.998 Y67.463 Z-0.556 F1080
G1 X367.007 Y67.465 Z-0.569 F1080
G1 X367.012 Y67.473 Z-0.583 F1080
G1 X367.01 Y67.482 Z-0.597 F1080
G1 X367.002 Y67.487 Z-0.611 F1080
G1 X366.993 Y67.485 Z-0.625 F1080
G1 X366.988 Y67.478 Z-0.639 F1080
G1 X366.99 Y67.468 Z-0.653 F1080
G1 X366.997 Y67.463 Z-0.667 F1080
G1 X367.007 Y67.464 Z-0.681 F1080
G1 X367.012 Y67.472 Z-0.694 F1080
G1 X367.011 Y67.482 Z-0.708 F1080
G1 X367.003 Y67.487 Z-0.722 F1080
G1 X366.993 Y67.486 Z-0.736 F1080
G1 X366.988 Y67.478 Z-0.75 F1080
G1 X366.989 Y67.469 Z-0.764 F1080
G1 X366.997 Y67.463 Z-0.778 F1080
G1 X367.006 Y67.464 Z-0.792 F1080
G1 X367.012 Y67.472 Z-0.806 F1080
G1 X367.011 Y67.481 Z-0.819 F1080
G1 X367.003 Y67.487 Z-0.833 F1080
G1 X366.994 Y67.486 Z-0.847 F1080
G1 X366.988 Y67.478 Z-0.861 F1080
G1 X366.989 Y67.469 Z-0.875 F1080
G1 X366.996 Y67.463 Z-0.889 F1080
G1 X367.006 Y67.464 Z-0.903 F1080
G1 X367.012 Y67.471 Z-0.917 F1080
G1 X367.011 Y67.481 Z-0.931 F1080
G1 X367.004 Y67.487 Z-0.944 F1080
G1 X366.994 Y67.486 Z-0.958 F1080
G1 X366.988 Y67.479 Z-0.972 F1080
G1 X366.989 Y67.469 Z-0.986 F1080
G1 X366.996 Y67.463 Z-1 F1080
G1 X367.006 Y67.464 Z-1.014 F1080
G1 X367.012 Y67.471 Z-1.028 F1080
G1 X367.011 Y67.48 Z-1.042 F1080
G1 X367.004 Y67.487 Z-1.056 F1080
G1 X366.995 Y67.486 Z-1.069 F1080
G1 X366.988 Y67.479 Z-1.083 F1080
G1 X366.989 Y67.47 Z-1.097 F1080
G1 X366.996 Y67.463 Z-1.111 F1080
G1 X367.005 Y67.464 Z-1.125 F1080
G1 X367.012 Y67.471 Z-1.139 F1080
G1 X367.011 Y67.48 Z-1.153 F1080
G1 X367.005 Y67.487 Z-1.167 F1080
G1 X366.995 Y67.486 Z-1.181 F1080
G1 X366.988 Y67.48 Z-1.194 F1080
G1 Y67.47 Z-1.208 F1080
G1 X366.995 Y67.463 Z-1.222 F1080
G1 X367.005 Z-1.236 F1080
G1 X367.012 Y67.47 Z-1.25 F1080
G1 Y67.48 Z-1.264 F1080
G1 X367.005 Y67.486 Z-1.278 F1080
G1 X366.995 Y67.487 Z-1.292 F1080
G1 X366.989 Y67.48 Z-1.306 F1080
G1 X366.988 Y67.471 Z-1.319 F1080
G1 X366.995 Y67.464 Z-1.333 F1080
G1 X367.004 Y67.463 Z-1.347 F1080
G1 X367.011 Y67.47 Z-1.361 F1080
G1 X367.012 Y67.479 Z-1.375 F1080
G1 X367.005 Y67.486 Z-1.389 F1080
G1 X366.996 Y67.487 Z-1.403 F1080
G1 X366.989 Y67.48 Z-1.417 F1080
G1 X366.988 Y67.471 Z-1.431 F1080
G1 X366.994 Y67.464 Z-1.444 F1080
G1 X367.004 Y67.463 Z-1.458 F1080
G1 X367.011 Y67.469 Z-1.472 F1080
G1 X367.012 Y67.479 Z-1.486 F1080
G1 X367.006 Y67.486 Z-1.5 F1080
G1 X366.996 Y67.487 Z-1.514 F1080
G1 X366.989 Y67.481 Z-1.528 F1080
G1 X366.988 Y67.471 Z-1.542 F1080
G1 X366.994 Y67.464 Z-1.556 F1080
G1 X367.003 Y67.463 Z-1.569 F1080
G1 X367.011 Y67.469 Z-1.583 F1080
G1 X367.012 Y67.478 Z-1.597 F1080
G1 X367.006 Y67.486 Z-1.611 F1080
G1 X366.997 Y67.487 Z-1.625 F1080
G1 X366.989 Y67.481 Z-1.639 F1080
G1 X366.988 Y67.472 Z-1.653 F1080
G1 X366.994 Y67.464 Z-1.667 F1080
G1 X367.003 Y67.463 Z-1.681 F1080
G1 X367.011 Y67.469 Z-1.694 F1080
G1 X367.012 Y67.478 Z-1.708 F1080
G1 X367.007 Y67.486 Z-1.722 F1080
G1 X366.997 Y67.487 Z-1.736 F1080
G1 X366.989 Y67.482 Z-1.75 F1080
G1 X366.988 Y67.472 Z-1.764 F1080
G1 X366.993 Y67.464 Z-1.778 F1080
G1 X367.003 Y67.463 Z-1.792 F1080
G1 X367.01 Y67.468 Z-1.806 F1080
G1 X367.012 Y67.477 Z-1.819 F1080
G1 X367.007 Y67.485 Z-1.833 F1080
G1 X366.998 Y67.487 Z-1.847 F1080
G1 X366.99 Y67.482 Z-1.861 F1080
G1 X366.988 Y67.473 Z-1.875 F1080
G1 X366.993 Y67.465 Z-1.889 F1080
G1 X367.002 Y67.463 Z-1.903 F1080
G1 X367.01 Y67.468 Z-1.917 F1080
G1 X367.012 Y67.477 Z-1.931 F1080
G1 X367.007 Y67.485 Z-1.944 F1080
G1 X366.998 Y67.487 Z-1.958 F1080
G1 X366.99 Y67.482 Z-1.972 F1080
G1 X366.988 Y67.473 Z-1.986 F1080
G1 X366.992 Y67.465 Z-2 F1080
G1 X367.002 Y67.463 Z-2.014 F1080
G1 X367.01 Y67.467 Z-2.028 F1080
G1 X367.012 Y67.477 Z-2.042 F1080
G1 X367.008 Y67.485 Z-2.056 F1080
G1 X366.999 Y67.487 Z-2.069 F1080
G1 X366.99 Y67.483 Z-2.083 F1080
G1 X366.988 Y67.474 Z-2.097 F1080
G1 X366.992 Y67.465 Z-2.111 F1080
G1 X367.001 Y67.463 Z-2.125 F1080
G1 X367.01 Y67.467 Z-2.139 F1080
G1 X367.012 Y67.476 Z-2.153 F1080
G1 X367.008 Y67.485 Z-2.167 F1080
G1 X366.999 Y67.487 Z-2.181 F1080
G1 X366.99 Y67.483 Z-2.194 F1080
G1 X366.988 Y67.474 Z-2.208 F1080
G1 X366.992 Y67.466 Z-2.222 F1080
G1 X367.001 Y67.463 Z-2.236 F1080
G1 X367.009 Y67.467 Z-2.25 F1080
G1 X367.012 Y67.476 Z-2.264 F1080
G1 X367.008 Y67.484 Z-2.278 F1080
G1 X366.999 Y67.487 Z-2.292 F1080
G1 X366.991 Y67.483 Z-2.306 F1080
G1 X366.988 Y67.475 Z-2.319 F1080
G1 X366.991 Y67.466 Z-2.333 F1080
G1 X367 Y67.463 Z-2.347 F1080
G1 X367.009 Y67.466 Z-2.361 F1080
G1 X367.012 Y67.475 Z-2.375 F1080
G1 X367.009 Y67.484 Z-2.389 F1080
G1 X367 Y67.487 Z-2.403 F1080
G1 X366.991 Y67.484 Z-2.417 F1080
G1 X366.988 Y67.475 Z-2.431 F1080
G1 X366.991 Y67.466 Z-2.444 F1080
G1 X367 Y67.463 Z-2.458 F1080
G1 X367.009 Y67.466 Z-2.472 F1080
G1 X367.012 Y67.475 Z-2.486 F1080
G1 X367.009 Y67.484 Z-2.5 F1080
G1 X367 Y67.487 Z-2.514 F1080
G1 X366.991 Y67.484 Z-2.528 F1080
G1 X366.988 Y67.475 Z-2.542 F1080
G1 X366.991 Y67.466 Z-2.556 F1080
G1 X366.999 Y67.463 Z-2.569 F1080
G1 X367.008 Y67.466 Z-2.583 F1080
G1 X367.012 Y67.474 Z-2.597 F1080
G1 X367.009 Y67.483 Z-2.611 F1080
G1 X367.001 Y67.487 Z-2.625 F1080
G1 X366.992 Y67.484 Z-2.639 F1080
G1 X366.988 Y67.476 Z-2.653 F1080
G1 X366.991 Y67.467 Z-2.667 F1080
G1 X366.999 Y67.463 Z-2.681 F1080
G1 X367.008 Y67.465 Z-2.694 F1080
G1 X367.012 Y67.474 Z-2.708 F1080
G1 X367.01 Y67.483 Z-2.722 F1080
G1 X367.001 Y67.487 Z-2.736 F1080
G1 X366.992 Y67.485 Z-2.75 F1080
G1 X366.988 Y67.476 Z-2.764 F1080
G1 X366.99 Y67.467 Z-2.778 F1080
G1 X366.999 Y67.463 Z-2.792 F1080
G1 X367.008 Y67.465 Z-2.806 F1080
G1 X367.012 Y67.473 Z-2.819 F1080
G1 X367.01 Y67.483 Z-2.833 F1080
G1 X367.002 Y67.487 Z-2.847 F1080
G1 X366.992 Y67.485 Z-2.861 F1080
G1 X366.988 Y67.477 Z-2.875 F1080
G1 X366.99 Y67.468 Z-2.889 F1080
G1 X366.998 Y67.463 Z-2.903 F1080
G1 X367.007 Y67.465 Z-2.917 F1080
G1 X367.012 Y67.473 Z-2.931 F1080
G1 X367.01 Y67.482 Z-2.944 F1080
G1 X367.002 Y67.487 Z-2.958 F1080
G1 X366.993 Y67.485 Z-2.972 F1080
G1 X366.988 Y67.477 Z-2.986 F1080
G1 X366.99 Y67.468 Z-3 F1080
G1 X366.998 Y67.463 Z-3.014 F1080
G1 X367.007 Y67.465 Z-3.028 F1080
G1 X367.012 Y67.473 Z-3.042 F1080
G1 X367.01 Y67.482 Z-3.056 F1080
G1 X367.003 Y67.487 Z-3.069 F1080
G1 X366.993 Y67.485 Z-3.083 F1080
G1 X366.988 Y67.478 Z-3.097 F1080
G1 X366.989 Y67.468 Z-3.111 F1080
G1 X366.997 Y67.463 Z-3.125 F1080
G1 X367.007 Y67.464 Z-3.139 F1080
G1 X367.012 Y67.472 Z-3.153 F1080
G1 X367.011 Y67.482 Z-3.167 F1080
G1 X367.003 Y67.487 Z-3.181 F1080
G1 X366.994 Y67.486 Z-3.194 F1080
G1 X366.988 Y67.478 Z-3.208 F1080
G1 X366.989 Y67.469 Z-3.222 F1080
G1 X366.997 Y67.463 Z-3.236 F1080
G1 X367.006 Y67.464 Z-3.25 F1080
G1 X367.012 Y67.472 Z-3.264 F1080
G1 X367.011 Y67.481 Z-3.278 F1080
G1 X367.003 Y67.487 Z-3.292 F1080
G1 X366.994 Y67.486 Z-3.306 F1080
G1 X366.988 Y67.478 Z-3.319 F1080
G1 X366.989 Y67.469 Z-3.333 F1080
G1 X366.996 Y67.463 Z-3.347 F1080
G1 X367.006 Y67.464 Z-3.361 F1080
G1 X367.012 Y67.471 Z-3.375 F1080
G1 X367.011 Y67.481 Z-3.389 F1080
G1 X367.004 Y67.487 Z-3.403 F1080
G1 X366.994 Y67.486 Z-3.417 F1080
G1 X366.988 Y67.479 Z-3.431 F1080
G1 X366.989 Y67.469 Z-3.444 F1080
G1 X366.996 Y67.463 Z-3.458 F1080
G1 X367.005 Y67.464 Z-3.472 F1080
G1 X367.012 Y67.471 Z-3.486 F1080
G1 X367.011 Y67.48 Z-3.5 F1080
G1 X367.004 Y67.487 Z-3.514 F1080
G1 X366.995 Y67.486 Z-3.528 F1080
G1 X366.988 Y67.479 Z-3.542 F1080
G1 X366.989 Y67.47 Z-3.556 F1080
G1 X366.996 Y67.463 Z-3.569 F1080
G1 X367.005 Y67.464 Z-3.583 F1080
G1 X367.012 Y67.47 Z-3.597 F1080
G1 X367.011 Y67.48 Z-3.611 F1080
G1 X367.005 Y67.487 Z-3.625 F1080
G1 X366.995 Z-3.639 F1080
G1 X366.988 Y67.48 Z-3.653 F1080
G1 Y67.47 Z-3.667 F1080
G1 X366.995 Y67.463 Z-3.681 F1080
G1 X367.005 Z-3.694 F1080
G1 X367.011 Y67.47 Z-3.708 F1080
G1 X367.012 Y67.48 Z-3.722 F1080
G1 X367.005 Y67.486 Z-3.736 F1080
G1 X366.996 Y67.487 Z-3.75 F1080
G1 X366.989 Y67.48 Z-3.764 F1080
G1 X366.988 Y67.471 Z-3.778 F1080
G1 X366.995 Y67.464 Z-3.792 F1080
G1 X367.004 Y67.463 Z-3.806 F1080
G1 X367.011 Y67.47 Z-3.819 F1080
G1 X367.012 Y67.479 Z-3.833 F1080
G1 X367.005 Y67.486 Z-3.847 F1080
G1 X366.996 Y67.487 Z-3.861 F1080
G1 X366.989 Y67.481 Z-3.875 F1080
G1 X366.988 Y67.471 Z-3.889 F1080
G1 X366.994 Y67.464 Z-3.903 F1080
G1 X367.004 Y67.463 Z-3.917 F1080
G1 X367.011 Y67.469 Z-3.931 F1080
G1 X367.012 Y67.479 Z-3.944 F1080
G1 X367.006 Y67.486 Z-3.958 F1080
G1 X366.996 Y67.487 Z-3.972 F1080
G1 X366.989 Y67.481 Z-3.986 F1080
G1 X366.988 Y67.471 Z-4 F1080
G1 X366.994 Y67.464 Z-4.014 F1080
G1 X367.003 Y67.463 Z-4.028 F1080
G1 X367.011 Y67.469 Z-4.042 F1080
G1 X367.012 Y67.478 Z-4.056 F1080
G1 X367.006 Y67.486 Z-4.069 F1080
G1 X366.997 Y67.487 Z-4.083 F1080
G1 X366.989 Y67.481 Z-4.097 F1080
G1 X366.988 Y67.472 Z-4.111 F1080
G1 X366.994 Y67.464 Z-4.125 F1080
G1 X367.003 Y67.463 Z-4.139 F1080
G1 X367.011 Y67.468 Z-4.153 F1080
G1 X367.012 Y67.478 Z-4.167 F1080
G1 X367.007 Y67.486 Z-4.181 F1080
G1 X366.997 Y67.487 Z-4.194 F1080
G1 X366.989 Y67.482 Z-4.208 F1080
G1 X366.988 Y67.472 Z-4.222 F1080
G1 X366.993 Y67.465 Z-4.236 F1080
G1 X367.003 Y67.463 Z-4.25 F1080
G1 X367.01 Y67.468 Z-4.264 F1080
G1 X367.012 Y67.477 Z-4.278 F1080
G1 X367.007 Y67.485 Z-4.292 F1080
G1 X366.998 Y67.487 Z-4.306 F1080
G1 X366.99 Y67.482 Z-4.319 F1080
G1 X366.988 Y67.473 Z-4.333 F1080
G1 X366.993 Y67.465 Z-4.347 F1080
G1 X367.002 Y67.463 Z-4.361 F1080
G1 X367.01 Y67.468 Z-4.375 F1080
G1 X367.012 Y67.477 Z-4.389 F1080
G1 X367.007 Y67.485 Z-4.403 F1080
G1 X366.998 Y67.487 Z-4.417 F1080
G1 X366.99 Y67.482 Z-4.431 F1080
G1 X366.988 Y67.473 Z-4.444 F1080
G1 X366.992 Y67.465 Z-4.458 F1080
G1 X367.002 Y67.463 Z-4.472 F1080
G1 X367.01 Y67.467 Z-4.486 F1080
G1 X367.012 Y67.477 Z-4.5 F1080
G1 X367.008 Y67.485 Z-4.514 F1080
G1 X366.999 Y67.487 Z-4.528 F1080
G1 X366.99 Y67.483 Z-4.542 F1080
G1 X366.988 Y67.474 Z-4.556 F1080
G1 X366.992 Y67.465 Z-4.569 F1080
G1 X367.001 Y67.463 Z-4.583 F1080
G1 X367.01 Y67.467 Z-4.597 F1080
G1 X367.012 Y67.476 Z-4.611 F1080
G1 X367.008 Y67.485 Z-4.625 F1080
G1 X366.999 Y67.487 Z-4.639 F1080
G1 X366.991 Y67.483 Z-4.653 F1080
G1 X366.988 Y67.474 Z-4.667 F1080
G1 X366.992 Y67.466 Z-4.681 F1080
G1 X367.001 Y67.463 Z-4.694 F1080
G1 X367.009 Y67.467 Z-4.708 F1080
G1 X367.012 Y67.476 Z-4.722 F1080
G1 X367.008 Y67.484 Z-4.736 F1080
G1 X366.999 Y67.487 Z-4.75 F1080
G1 X366.991 Y67.483 Z-4.764 F1080
G1 X366.988 Y67.474 Z-4.778 F1080
G1 X366.992 Y67.465 Z-4.793 F1080
G1 X367.001 Y67.463 Z-4.807 F1080
G1 X367.01 Y67.467 Z-4.821 F1080
G1 X367.012 Y67.477 Z-4.835 F1080
G1 X367.007 Y67.485 Z-4.85 F1080
G1 X366.998 Y67.487 Z-4.864 F1080
G1 X366.99 Y67.482 Z-4.878 F1080
G1 X366.988 Y67.473 Z-4.892 F1080
G1 X366.993 Y67.465 Z-4.907 F1080
G1 X367.003 Y67.463 Z-4.921 F1080
G1 X367.011 Y67.468 Z-4.935 F1080
G1 X367.012 Y67.478 Z-4.949 F1080
G1 X367.006 Y67.486 Z-4.963 F1080
G1 X366.997 Y67.487 Z-4.978 F1080
G1 X366.989 Y67.481 Z-4.992 F1080
G1 X366.988 Y67.471 Z-5.006 F1080
G1 X366.994 Y67.464 Z-5.02 F1080
G1 X367.004 Y67.463 Z-5.035 F1080
G1 X367.011 Y67.47 Z-5.049 F1080
G1 X367.012 Y67.479 Z-5.063 F1080
G1 X367.005 Y67.486 Z-5.077 F1080
G1 X366.995 Y67.487 Z-5.091 F1080
G1 X366.988 Y67.48 Z-5.106 F1080
G1 X366.989 Y67.47 Z-5.12 F1080
G1 X366.996 Y67.463 Z-5.134 F1080
G1 X367.005 Y67.464 Z-5.148 F1080
G1 X367.012 Y67.471 Z-5.163 F1080
G1 X367.011 Y67.481 Z-5.177 F1080
G1 X367.004 Y67.487 Z-5.191 F1080
G1 X366.994 Y67.486 Z-5.205 F1080
G1 X366.988 Y67.478 Z-5.22 F1080
G1 X366.989 Y67.469 Z-5.234 F1080
G1 X366.997 Y67.463 Z-5.248 F1080
G1 X367.007 Y67.464 Z-5.262 F1080
G1 X367.012 Y67.472 Z-5.276 F1080
G1 X367.01 Y67.482 Z-5.291 F1080
G1 X367.002 Y67.487 Z-5.305 F1080
G1 X366.993 Y67.485 Z-5.319 F1080
G1 X366.988 Y67.477 Z-5.333 F1080
G1 X366.99 Y67.468 Z-5.347 F1080
G1 X366.998 Y67.463 Z-5.361 F1080
G1 X367.007 Y67.465 Z-5.375 F1080
G1 X367.012 Y67.473 Z-5.389 F1080
G1 X367.01 Y67.482 Z-5.403 F1080
G1 X367.002 Y67.487 Z-5.417 F1080
G1 X366.993 Y67.485 Z-5.431 F1080
G1 X366.988 Y67.477 Z-5.444 F1080
G1 X366.99 Y67.468 Z-5.458 F1080
G1 X366.998 Y67.463 Z-5.472 F1080
G1 X367.007 Y67.465 Z-5.486 F1080
G1 X367.012 Y67.473 Z-5.5 F1080
G3 X366.988 Y67.477 I-0.012 J0.002 F1080
G3 X367.012 Y67.473 I0.012 J-0.002 F1080
; MOVEMENT_LEAD_OUT
G1 X367.011 Y67.477 F1080
G1 X367.007 Y67.48 F1080
G1 X367 Y67.475 F1080
; MOVEMENT_CUTTING
G1 Z5 F1080
G1 X366.594 Y57.77 F1080
G1 Z2 F1080
; MOVEMENT_LEAD_IN
G1 Z0.317 F1080
G1 Y57.766 Z0.268 F1080
G1 Y57.754 Z0.219 F1080
G1 Y57.735 Z0.173 F1080
G1 Y57.709 Z0.131 F1080
G1 Y57.677 Z0.093 F1080
G1 Y57.639 Z0.061 F1080
G1 Y57.597 Z0.035 F1080
G1 Y57.551 Z0.016 F1080
G1 Y57.502 Z0.004 F1080
G1 Y57.452 Z0 F1080
G1 Y57.294 F1080
G3 X366.8 Y57.088 I0.206 F1080
; MOVEMENT_CUTTING
G1 X366.857 Y57.091 Z-0.003 F1080
G1 X366.913 Y57.103 Z-0.006 F1080
G1 X366.967 Y57.123 Z-0.009 F1080
G1 X367.018 Y57.15 Z-0.012 F1080
G1 X367.064 Y57.183 Z-0.015 F1080
G1 X367.106 Y57.223 Z-0.019 F1080
G1 X367.141 Y57.268 Z-0.022 F1080
G1 X367.17 Y57.318 Z-0.025 F1080
G1 X367.192 Y57.371 Z-0.028 F1080
G1 X367.206 Y57.427 Z-0.031 F1080
G1 X367.212 Y57.484 Z-0.034 F1080
G1 X367.21 Y57.541 Z-0.037 F1080
G1 X367.201 Y57.598 Z-0.04 F1080
G1 X367.183 Y57.652 Z-0.043 F1080
G1 X367.158 Y57.704 Z-0.046 F1080
G1 X367.127 Y57.752 Z-0.05 F1080
G1 X367.089 Y57.795 Z-0.053 F1080
G1 X367.045 Y57.832 Z-0.056 F1080
G1 X366.996 Y57.863 Z-0.059 F1080
G1 X366.944 Y57.886 Z-0.062 F1080
G1 X366.889 Y57.903 Z-0.065 F1080
G1 X366.832 Y57.911 Z-0.068 F1080
G1 X366.775 Y57.912 Z-0.071 F1080
G1 X366.718 Y57.904 Z-0.074 F1080
G1 X366.663 Y57.889 Z-0.077 F1080
G1 X366.61 Y57.866 Z-0.08 F1080
G1 X366.561 Y57.836 Z-0.084 F1080
G1 X366.517 Y57.8 Z-0.087 F1080
G1 X366.478 Y57.758 Z-0.09 F1080
G1 X366.445 Y57.711 Z-0.093 F1080
G1 X366.419 Y57.659 Z-0.096 F1080
G1 X366.401 Y57.605 Z-0.099 F1080
G1 X366.39 Y57.549 Z-0.102 F1080
G1 X366.388 Y57.491 Z-0.105 F1080
G1 X366.393 Y57.434 Z-0.108 F1080
G1 X366.406 Y57.378 Z-0.111 F1080
G1 X366.427 Y57.325 Z-0.115 F1080
G1 X366.455 Y57.275 Z-0.118 F1080
G1 X366.489 Y57.229 Z-0.121 F1080
G1 X366.53 Y57.188 Z-0.124 F1080
G1 X366.576 Y57.154 Z-0.127 F1080
G1 X366.626 Y57.126 Z-0.13 F1080
G1 X366.679 Y57.106 Z-0.133 F1080
G1 X366.735 Y57.093 Z-0.136 F1080
G1 X366.793 Y57.088 Z-0.139 F1080
G1 X366.85 Y57.091 Z-0.142 F1080
G1 X366.906 Y57.101 Z-0.145 F1080
G1 X366.96 Y57.12 Z-0.149 F1080
G1 X367.012 Y57.146 Z-0.152 F1080
G1 X367.059 Y57.179 Z-0.155 F1080
G1 X367.101 Y57.218 Z-0.158 F1080
G1 X367.137 Y57.262 Z-0.161 F1080
G1 X367.167 Y57.311 Z-0.164 F1080
G1 X367.189 Y57.364 Z-0.167 F1080
G1 X367.205 Y57.419 Z-0.17 F1080
G1 X367.212 Y57.476 Z-0.173 F1080
G1 X367.211 Y57.534 Z-0.176 F1080
G1 X367.202 Y57.59 Z-0.18 F1080
G1 X367.186 Y57.645 Z-0.183 F1080
G1 X367.162 Y57.698 Z-0.186 F1080
G1 X367.131 Y57.746 Z-0.189 F1080
G1 X367.094 Y57.789 Z-0.192 F1080
G1 X367.051 Y57.827 Z-0.195 F1080
G1 X367.003 Y57.859 Z-0.198 F1080
G1 X366.951 Y57.884 Z-0.201 F1080
G1 X366.896 Y57.901 Z-0.204 F1080
G1 X366.84 Y57.911 Z-0.207 F1080
G1 X366.783 Y57.912 Z-0.21 F1080
G1 X366.725 Y57.906 Z-0.214 F1080
G1 X366.67 Y57.891 Z-0.217 F1080
G1 X366.617 Y57.87 Z-0.22 F1080
G1 X366.567 Y57.841 Z-0.223 F1080
G1 X366.522 Y57.805 Z-0.226 F1080
G1 X366.483 Y57.764 Z-0.229 F1080
G1 X366.449 Y57.717 Z-0.232 F1080
G1 X366.422 Y57.666 Z-0.235 F1080
G1 X366.403 Y57.612 Z-0.238 F1080
G1 X366.391 Y57.556 Z-0.241 F1080
G1 X366.387 Y57.499 Z-0.245 F1080
G1 X366.392 Y57.442 Z-0.248 F1080
G1 X366.404 Y57.385 Z-0.251 F1080
G1 X366.423 Y57.332 Z-0.254 F1080
G1 X366.45 Y57.281 Z-0.257 F1080
G1 X366.484 Y57.235 Z-0.26 F1080
G1 X366.524 Y57.193 Z-0.263 F1080
G1 X366.569 Y57.158 Z-0.266 F1080
G1 X366.619 Y57.129 Z-0.269 F1080
G1 X366.672 Y57.108 Z-0.272 F1080
G1 X366.728 Y57.094 Z-0.275 F1080
G1 X366.785 Y57.088 Z-0.279 F1080
G1 X366.842 Y57.09 Z-0.282 F1080
G1 X366.899 Y57.1 Z-0.285 F1080
G1 X366.954 Y57.117 Z-0.288 F1080
G1 X367.005 Y57.142 Z-0.291 F1080
G1 X367.053 Y57.174 Z-0.294 F1080
G1 X367.096 Y57.212 Z-0.297 F1080
G1 X367.133 Y57.256 Z-0.3 F1080
G1 X367.163 Y57.305 Z-0.303 F1080
G1 X367.187 Y57.357 Z-0.306 F1080
G1 X367.203 Y57.412 Z-0.31 F1080
G1 X367.211 Y57.469 Z-0.313 F1080
G1 X367.212 Y57.526 Z-0.316 F1080
G1 X367.204 Y57.583 Z-0.319 F1080
G1 X367.189 Y57.638 Z-0.322 F1080
G1 X367.166 Y57.691 Z-0.325 F1080
G1 X367.136 Y57.74 Z-0.328 F1080
G1 X367.099 Y57.784 Z-0.331 F1080
G1 X367.057 Y57.823 Z-0.334 F1080
G1 X367.009 Y57.855 Z-0.337 F1080
G1 X366.958 Y57.881 Z-0.34 F1080
G1 X366.904 Y57.899 Z-0.344 F1080
G1 X366.847 Y57.91 Z-0.347 F1080
G1 X366.79 Y57.912 Z-0.35 F1080
G1 X366.733 Y57.907 Z-0.353 F1080
G1 X366.677 Y57.894 Z-0.356 F1080
G1 X366.624 Y57.873 Z-0.359 F1080
G1 X366.574 Y57.845 Z-0.362 F1080
G1 X366.528 Y57.81 Z-0.365 F1080
G1 X366.487 Y57.769 Z-0.368 F1080
G1 X366.453 Y57.723 Z-0.371 F1080
G1 X366.426 Y57.673 Z-0.375 F1080
G1 X366.405 Y57.619 Z-0.378 F1080
G1 X366.392 Y57.563 Z-0.381 F1080
G1 X366.388 Y57.506 Z-0.384 F1080
G1 X366.391 Y57.449 Z-0.387 F1080
G1 X366.402 Y57.393 Z-0.39 F1080
G1 X366.42 Y57.338 Z-0.393 F1080
G1 X366.447 Y57.287 Z-0.396 F1080
G1 X366.48 Y57.24 Z-0.399 F1080
G1 X366.519 Y57.198 Z-0.402 F1080
G1 X366.563 Y57.162 Z-0.405 F1080
G1 X366.612 Y57.133 Z-0.409 F1080
G1 X366.665 Y57.11 Z-0.412 F1080
G1 X366.721 Y57.095 Z-0.415 F1080
G1 X366.778 Y57.088 Z-0.418 F1080
G1 X366.835 Y57.089 Z-0.421 F1080
G1 X366.892 Y57.098 Z-0.424 F1080
G1 X366.947 Y57.114 Z-0.427 F1080
G1 X366.999 Y57.138 Z-0.43 F1080
G1 X367.047 Y57.17 Z-0.433 F1080
G1 X367.09 Y57.207 Z-0.436 F1080
G1 X367.128 Y57.25 Z-0.44 F1080
G1 X367.16 Y57.298 Z-0.443 F1080
G1 X367.184 Y57.35 Z-0.446 F1080
G1 X367.201 Y57.405 Z-0.449 F1080
G1 X367.211 Y57.461 Z-0.452 F1080
G1 X367.212 Y57.519 Z-0.455 F1080
G1 X367.205 Y57.576 Z-0.458 F1080
G1 X367.191 Y57.631 Z-0.461 F1080
G1 X367.169 Y57.684 Z-0.464 F1080
G1 X367.14 Y57.734 Z-0.467 F1080
G1 X367.104 Y57.779 Z-0.47 F1080
G1 X367.063 Y57.818 Z-0.474 F1080
G1 X367.016 Y57.851 Z-0.477 F1080
G1 X366.965 Y57.878 Z-0.48 F1080
G1 X366.911 Y57.897 Z-0.483 F1080
G1 X366.855 Y57.909 Z-0.486 F1080
G1 X366.797 Y57.912 Z-0.489 F1080
G1 X366.74 Y57.908 Z-0.492 F1080
G1 X366.684 Y57.896 Z-0.495 F1080
G1 X366.63 Y57.876 Z-0.498 F1080
G1 X366.58 Y57.849 Z-0.501 F1080
G1 X366.534 Y57.815 Z-0.505 F1080
G1 X366.492 Y57.775 Z-0.508 F1080
G1 X366.457 Y57.73 Z-0.511 F1080
G1 X366.429 Y57.68 Z-0.514 F1080
G1 X366.407 Y57.626 Z-0.517 F1080
G1 X366.394 Y57.571 Z-0.52 F1080
G1 X366.388 Y57.514 Z-0.523 F1080
G1 X366.39 Y57.456 Z-0.526 F1080
G1 X366.4 Y57.4 Z-0.529 F1080
G1 X366.418 Y57.345 Z-0.532 F1080
G1 X366.443 Y57.294 Z-0.535 F1080
G1 X366.475 Y57.246 Z-0.539 F1080
G1 X366.513 Y57.203 Z-0.542 F1080
G1 X366.557 Y57.167 Z-0.545 F1080
G1 X366.606 Y57.136 Z-0.548 F1080
G1 X366.658 Y57.113 Z-0.551 F1080
G1 X366.713 Y57.097 Z-0.554 F1080
G1 X366.77 Y57.089 Z-0.557 F1080
G1 X366.827 Y57.088 Z-0.56 F1080
G1 X366.884 Y57.096 Z-0.563 F1080
G1 X366.94 Y57.112 Z-0.566 F1080
G1 X366.992 Y57.135 Z-0.569 F1080
G1 X367.041 Y57.165 Z-0.573 F1080
G1 X367.085 Y57.202 Z-0.576 F1080
G1 X367.124 Y57.244 Z-0.579 F1080
G1 X367.156 Y57.292 Z-0.582 F1080
G1 X367.181 Y57.343 Z-0.585 F1080
G1 X367.2 Y57.397 Z-0.588 F1080
G1 X367.21 Y57.454 Z-0.591 F1080
G1 X367.212 Y57.511 Z-0.594 F1080
G1 X367.207 Y57.568 Z-0.597 F1080
G1 X367.193 Y57.624 Z-0.6 F1080
G1 X367.172 Y57.678 Z-0.604 F1080
G1 X367.144 Y57.728 Z-0.607 F1080
G1 X367.109 Y57.773 Z-0.61 F1080
G1 X367.068 Y57.813 Z-0.613 F1080
G1 X367.022 Y57.848 Z-0.616 F1080
G1 X366.972 Y57.875 Z-0.619 F1080
G1 X366.918 Y57.895 Z-0.622 F1080
G1 X366.862 Y57.908 Z-0.625 F1080
G1 X366.805 Y57.912 Z-0.628 F1080
G1 X366.748 Y57.909 Z-0.631 F1080
G1 X366.691 Y57.898 Z-0.634 F1080
G1 X366.637 Y57.879 Z-0.638 F1080
G1 X366.586 Y57.853 Z-0.641 F1080
G1 X366.539 Y57.82 Z-0.644 F1080
G1 X366.497 Y57.78 Z-0.647 F1080
G1 X366.461 Y57.736 Z-0.65 F1080
G1 X366.432 Y57.686 Z-0.653 F1080
G1 X366.41 Y57.634 Z-0.656 F1080
G1 X366.395 Y57.578 Z-0.659 F1080
G1 X366.388 Y57.521 Z-0.662 F1080
G1 X366.389 Y57.464 Z-0.665 F1080
G1 X366.398 Y57.407 Z-0.669 F1080
G1 X366.415 Y57.352 Z-0.672 F1080
G1 X366.439 Y57.3 Z-0.675 F1080
G1 X366.47 Y57.252 Z-0.678 F1080
G1 X366.508 Y57.209 Z-0.681 F1080
G1 X366.551 Y57.171 Z-0.684 F1080
G1 X366.599 Y57.14 Z-0.687 F1080
G1 X366.651 Y57.115 Z-0.69 F1080
G1 X366.706 Y57.098 Z-0.693 F1080
G1 X366.763 Y57.089 Z-0.696 F1080
G1 X366.82 Y57.088 Z-0.699 F1080
G1 X366.877 Y57.095 Z-0.703 F1080
G1 X366.932 Y57.109 Z-0.706 F1080
G1 X366.985 Y57.132 Z-0.709 F1080
G1 X367.035 Y57.161 Z-0.712 F1080
G1 X367.08 Y57.197 Z-0.715 F1080
G1 X367.119 Y57.238 Z-0.718 F1080
G1 X367.152 Y57.285 Z-0.721 F1080
G1 X367.179 Y57.336 Z-0.724 F1080
G1 X367.198 Y57.39 Z-0.727 F1080
G1 X367.209 Y57.446 Z-0.73 F1080
G1 X367.212 Y57.504 Z-0.734 F1080
G1 X367.208 Y57.561 Z-0.737 F1080
G1 X367.196 Y57.617 Z-0.74 F1080
G1 X367.175 Y57.671 Z-0.743 F1080
G1 X367.148 Y57.721 Z-0.746 F1080
G1 X367.114 Y57.767 Z-0.749 F1080
G1 X367.074 Y57.808 Z-0.752 F1080
G1 X367.028 Y57.843 Z-0.755 F1080
G1 X366.979 Y57.872 Z-0.758 F1080
G1 X366.925 Y57.893 Z-0.761 F1080
G1 X366.87 Y57.907 Z-0.764 F1080
G1 X366.812 Y57.912 Z-0.768 F1080
G1 X366.755 Y57.91 Z-0.771 F1080
G1 X366.699 Y57.9 Z-0.774 F1080
G1 X366.644 Y57.882 Z-0.777 F1080
G1 X366.593 Y57.857 Z-0.78 F1080
G1 X366.545 Y57.824 Z-0.783 F1080
G1 X366.503 Y57.786 Z-0.786 F1080
G1 X366.466 Y57.742 Z-0.789 F1080
G1 X366.435 Y57.693 Z-0.792 F1080
G1 X366.412 Y57.641 Z-0.795 F1080
G1 X366.396 Y57.585 Z-0.799 F1080
G1 X366.388 Y57.529 Z-0.802 F1080
G1 Y57.471 Z-0.805 F1080
G1 X366.396 Y57.414 Z-0.808 F1080
G1 X366.412 Y57.359 Z-0.811 F1080
G1 X366.436 Y57.307 Z-0.814 F1080
G1 X366.466 Y57.258 Z-0.817 F1080
G1 X366.503 Y57.214 Z-0.82 F1080
G1 X366.545 Y57.176 Z-0.823 F1080
G1 X366.593 Y57.143 Z-0.826 F1080
G1 X366.644 Y57.118 Z-0.829 F1080
G1 X366.699 Y57.1 Z-0.833 F1080
G1 X366.755 Y57.09 Z-0.836 F1080
G1 X366.813 Y57.088 Z-0.839 F1080
G1 X366.87 Y57.093 Z-0.842 F1080
G1 X366.925 Y57.107 Z-0.845 F1080
G1 X366.979 Y57.128 Z-0.848 F1080
G1 X367.029 Y57.157 Z-0.851 F1080
G1 X367.074 Y57.192 Z-0.854 F1080
G1 X367.114 Y57.233 Z-0.857 F1080
G1 X367.148 Y57.279 Z-0.86 F1080
G1 X367.176 Y57.329 Z-0.864 F1080
G1 X367.196 Y57.383 Z-0.867 F1080
G1 X367.208 Y57.439 Z-0.87 F1080
G1 X367.212 Y57.496 Z-0.873 F1080
G1 X367.209 Y57.554 Z-0.876 F1080
G1 X367.198 Y57.61 Z-0.879 F1080
G1 X367.179 Y57.664 Z-0.882 F1080
G1 X367.152 Y57.715 Z-0.885 F1080
G1 X367.119 Y57.762 Z-0.888 F1080
G1 X367.079 Y57.803 Z-0.891 F1080
G1 X367.035 Y57.839 Z-0.894 F1080
G1 X366.985 Y57.869 Z-0.898 F1080
G1 X366.932 Y57.891 Z-0.901 F1080
G1 X366.877 Y57.905 Z-0.904 F1080
G1 X366.82 Y57.912 Z-0.907 F1080
G1 X366.763 Y57.911 Z-0.91 F1080
G1 X366.706 Y57.902 Z-0.913 F1080
G1 X366.651 Y57.885 Z-0.916 F1080
G1 X366.599 Y57.86 Z-0.919 F1080
G1 X366.551 Y57.829 Z-0.922 F1080
G1 X366.508 Y57.791 Z-0.925 F1080
G1 X366.47 Y57.748 Z-0.929 F1080
G1 X366.439 Y57.7 Z-0.932 F1080
G1 X366.415 Y57.648 Z-0.935 F1080
G1 X366.398 Y57.593 Z-0.938 F1080
G1 X366.389 Y57.536 Z-0.941 F1080
G1 X366.388 Y57.479 Z-0.944 F1080
G1 X366.395 Y57.422 Z-0.947 F1080
G1 X366.41 Y57.366 Z-0.95 F1080
G1 X366.432 Y57.313 Z-0.953 F1080
G1 X366.462 Y57.264 Z-0.956 F1080
G1 X366.498 Y57.22 Z-0.959 F1080
G1 X366.539 Y57.18 Z-0.963 F1080
G1 X366.586 Y57.147 Z-0.966 F1080
G1 X366.637 Y57.121 Z-0.969 F1080
G1 X366.691 Y57.102 Z-0.972 F1080
G1 X366.748 Y57.091 Z-0.975 F1080
G1 X366.805 Y57.088 Z-0.978 F1080
G1 X366.862 Y57.092 Z-0.981 F1080
G1 X366.918 Y57.105 Z-0.984 F1080
G1 X366.972 Y57.125 Z-0.987 F1080
G1 X367.022 Y57.153 Z-0.99 F1080
G1 X367.068 Y57.187 Z-0.994 F1080
G1 X367.109 Y57.227 Z-0.997 F1080
G1 X367.144 Y57.273 Z-1 F1080
G1 X367.172 Y57.323 Z-1.003 F1080
G1 X367.193 Y57.376 Z-1.006 F1080
G1 X367.207 Y57.432 Z-1.009 F1080
G1 X367.212 Y57.489 Z-1.012 F1080
G1 X367.21 Y57.546 Z-1.015 F1080
G1 X367.2 Y57.603 Z-1.018 F1080
G1 X367.181 Y57.657 Z-1.021 F1080
G1 X367.156 Y57.708 Z-1.024 F1080
G1 X367.124 Y57.756 Z-1.028 F1080
G1 X367.085 Y57.798 Z-1.031 F1080
G1 X367.041 Y57.835 Z-1.034 F1080
G1 X366.992 Y57.865 Z-1.037 F1080
G1 X366.939 Y57.888 Z-1.04 F1080
G1 X366.884 Y57.904 Z-1.043 F1080
G1 X366.827 Y57.912 Z-1.046 F1080
G1 X366.77 Y57.911 Z-1.049 F1080
G1 X366.713 Y57.903 Z-1.052 F1080
G1 X366.658 Y57.887 Z-1.055 F1080
G1 X366.606 Y57.864 Z-1.059 F1080
G1 X366.557 Y57.833 Z-1.062 F1080
G1 X366.513 Y57.796 Z-1.065 F1080
G1 X366.475 Y57.754 Z-1.068 F1080
G1 X366.443 Y57.706 Z-1.071 F1080
G1 X366.418 Y57.655 Z-1.074 F1080
G1 X366.4 Y57.6 Z-1.077 F1080
G1 X366.39 Y57.544 Z-1.08 F1080
G1 X366.388 Y57.486 Z-1.083 F1080
G1 X366.394 Y57.429 Z-1.086 F1080
G1 X366.407 Y57.373 Z-1.089 F1080
G1 X366.429 Y57.32 Z-1.093 F1080
G1 X366.457 Y57.27 Z-1.096 F1080
G1 X366.492 Y57.225 Z-1.099 F1080
G1 X366.534 Y57.185 Z-1.102 F1080
G1 X366.58 Y57.151 Z-1.105 F1080
G1 X366.63 Y57.124 Z-1.108 F1080
G1 X366.684 Y57.104 Z-1.111 F1080
G1 X366.74 Y57.092 Z-1.114 F1080
G1 X366.798 Y57.088 Z-1.117 F1080
G1 X366.855 Y57.091 Z-1.12 F1080
G1 X366.911 Y57.103 Z-1.124 F1080
G1 X366.965 Y57.122 Z-1.127 F1080
G1 X367.016 Y57.149 Z-1.13 F1080
G1 X367.063 Y57.182 Z-1.133 F1080
G1 X367.104 Y57.221 Z-1.136 F1080
G1 X367.14 Y57.266 Z-1.139 F1080
G1 X367.169 Y57.316 Z-1.142 F1080
G1 X367.191 Y57.369 Z-1.145 F1080
G1 X367.205 Y57.424 Z-1.148 F1080
G1 X367.212 Y57.481 Z-1.151 F1080
G1 X367.211 Y57.539 Z-1.154 F1080
G1 X367.201 Y57.595 Z-1.158 F1080
G1 X367.184 Y57.65 Z-1.161 F1080
G1 X367.16 Y57.702 Z-1.164 F1080
G1 X367.128 Y57.75 Z-1.167 F1080
G1 X367.09 Y57.793 Z-1.17 F1080
G1 X367.047 Y57.83 Z-1.173 F1080
G1 X366.999 Y57.862 Z-1.176 F1080
G1 X366.946 Y57.886 Z-1.179 F1080
G1 X366.892 Y57.902 Z-1.182 F1080
G1 X366.835 Y57.911 Z-1.185 F1080
G1 X366.777 Y57.912 Z-1.189 F1080
G1 X366.721 Y57.905 Z-1.192 F1080
G1 X366.665 Y57.89 Z-1.195 F1080
G1 X366.612 Y57.867 Z-1.198 F1080
G1 X366.563 Y57.838 Z-1.201 F1080
G1 X366.519 Y57.802 Z-1.204 F1080
G1 X366.479 Y57.76 Z-1.207 F1080
G1 X366.447 Y57.713 Z-1.21 F1080
G1 X366.42 Y57.662 Z-1.213 F1080
G1 X366.402 Y57.607 Z-1.216 F1080
G1 X366.391 Y57.551 Z-1.219 F1080
G1 X366.388 Y57.494 Z-1.223 F1080
G1 X366.392 Y57.437 Z-1.226 F1080
G1 X366.405 Y57.381 Z-1.229 F1080
G1 X366.426 Y57.327 Z-1.232 F1080
G1 X366.453 Y57.277 Z-1.235 F1080
G1 X366.488 Y57.231 Z-1.238 F1080
G1 X366.528 Y57.19 Z-1.241 F1080
G1 X366.574 Y57.155 Z-1.244 F1080
G1 X366.624 Y57.127 Z-1.247 F1080
G1 X366.677 Y57.106 Z-1.25 F1080
G1 X366.733 Y57.093 Z-1.254 F1080
G1 X366.79 Y57.088 Z-1.257 F1080
G1 X366.847 Y57.09 Z-1.26 F1080
G1 X366.904 Y57.101 Z-1.263 F1080
G1 X366.958 Y57.119 Z-1.266 F1080
G1 X367.01 Y57.145 Z-1.269 F1080
G1 X367.057 Y57.177 Z-1.272 F1080
G1 X367.099 Y57.216 Z-1.275 F1080
G1 X367.136 Y57.26 Z-1.278 F1080
G1 X367.166 Y57.309 Z-1.281 F1080
G1 X367.189 Y57.362 Z-1.284 F1080
G1 X367.204 Y57.417 Z-1.288 F1080
G1 X367.212 Y57.474 Z-1.291 F1080
G1 X367.211 Y57.531 Z-1.294 F1080
G1 X367.203 Y57.588 Z-1.297 F1080
G1 X367.187 Y57.643 Z-1.3 F1080
G1 X367.163 Y57.695 Z-1.303 F1080
G1 X367.133 Y57.744 Z-1.306 F1080
G1 X367.096 Y57.788 Z-1.309 F1080
G1 X367.053 Y57.826 Z-1.312 F1080
G1 X367.005 Y57.858 Z-1.315 F1080
G1 X366.953 Y57.883 Z-1.319 F1080
G1 X366.899 Y57.9 Z-1.322 F1080
G1 X366.842 Y57.91 Z-1.325 F1080
G1 X366.785 Y57.912 Z-1.328 F1080
G1 X366.728 Y57.906 Z-1.331 F1080
G1 X366.672 Y57.892 Z-1.334 F1080
G1 X366.619 Y57.871 Z-1.337 F1080
G1 X366.569 Y57.842 Z-1.34 F1080
G1 X366.524 Y57.807 Z-1.343 F1080
G1 X366.484 Y57.765 Z-1.346 F1080
G1 X366.45 Y57.719 Z-1.349 F1080
G1 X366.423 Y57.668 Z-1.353 F1080
G1 X366.404 Y57.615 Z-1.356 F1080
G1 X366.392 Y57.558 Z-1.359 F1080
G1 X366.387 Y57.501 Z-1.362 F1080
G1 X366.391 Y57.444 Z-1.365 F1080
G1 X366.403 Y57.388 Z-1.368 F1080
G1 X366.422 Y57.334 Z-1.371 F1080
G1 X366.449 Y57.283 Z-1.374 F1080
G1 X366.483 Y57.236 Z-1.377 F1080
G1 X366.522 Y57.195 Z-1.38 F1080
G1 X366.567 Y57.159 Z-1.384 F1080
G1 X366.617 Y57.13 Z-1.387 F1080
G1 X366.67 Y57.109 Z-1.39 F1080
G1 X366.726 Y57.094 Z-1.393 F1080
G1 X366.783 Y57.088 Z-1.396 F1080
G1 X366.84 Y57.089 Z-1.399 F1080
G1 X366.897 Y57.099 Z-1.402 F1080
G1 X366.951 Y57.116 Z-1.405 F1080
G1 X367.003 Y57.141 Z-1.408 F1080
G1 X367.051 Y57.173 Z-1.411 F1080
G1 X367.094 Y57.211 Z-1.414 F1080
G1 X367.131 Y57.254 Z-1.418 F1080
G1 X367.162 Y57.303 Z-1.421 F1080
G1 X367.186 Y57.355 Z-1.424 F1080
G1 X367.202 Y57.41 Z-1.427 F1080
G1 X367.211 Y57.466 Z-1.43 F1080
G1 X367.212 Y57.524 Z-1.433 F1080
G1 X367.205 Y57.581 Z-1.436 F1080
G1 X367.189 Y57.636 Z-1.439 F1080
G1 X367.167 Y57.689 Z-1.442 F1080
G1 X367.137 Y57.738 Z-1.445 F1080
G1 X367.101 Y57.782 Z-1.449 F1080
G1 X367.059 Y57.821 Z-1.452 F1080
G1 X367.012 Y57.854 Z-1.455 F1080
G1 X366.96 Y57.88 Z-1.458 F1080
G1 X366.906 Y57.899 Z-1.461 F1080
G1 X366.85 Y57.909 Z-1.464 F1080
G1 X366.792 Y57.912 Z-1.467 F1080
G1 X366.735 Y57.907 Z-1.47 F1080
G1 X366.679 Y57.894 Z-1.473 F1080
G1 X366.626 Y57.874 Z-1.476 F1080
G1 X366.576 Y57.846 Z-1.479 F1080
G1 X366.53 Y57.812 Z-1.483 F1080
G1 X366.489 Y57.771 Z-1.486 F1080
G1 X366.454 Y57.725 Z-1.489 F1080
G1 X366.427 Y57.675 Z-1.492 F1080
G1 X366.406 Y57.622 Z-1.495 F1080
G1 X366.393 Y57.566 Z-1.498 F1080
G1 X366.388 Y57.509 Z-1.501 F1080
G1 X366.39 Y57.451 Z-1.504 F1080
G1 X366.401 Y57.395 Z-1.507 F1080
G1 X366.42 Y57.341 Z-1.51 F1080
G1 X366.445 Y57.289 Z-1.514 F1080
G1 X366.478 Y57.242 Z-1.517 F1080
G1 X366.517 Y57.2 Z-1.52 F1080
G1 X366.561 Y57.164 Z-1.523 F1080
G1 X366.61 Y57.134 Z-1.526 F1080
G1 X366.663 Y57.111 Z-1.529 F1080
G1 X366.718 Y57.096 Z-1.532 F1080
G1 X366.775 Y57.088 Z-1.535 F1080
G1 X366.832 Y57.089 Z-1.538 F1080
G1 X366.889 Y57.097 Z-1.541 F1080
G1 X366.944 Y57.114 Z-1.544 F1080
G1 X366.996 Y57.137 Z-1.548 F1080
G1 X367.045 Y57.168 Z-1.551 F1080
G1 X367.089 Y57.205 Z-1.554 F1080
G1 X367.127 Y57.248 Z-1.557 F1080
G1 X367.158 Y57.296 Z-1.56 F1080
G1 X367.183 Y57.348 Z-1.563 F1080
G1 X367.201 Y57.402 Z-1.566 F1080
G1 X367.21 Y57.459 Z-1.569 F1080
G1 X367.212 Y57.516 Z-1.572 F1080
G1 X367.206 Y57.573 Z-1.575 F1080
G1 X367.192 Y57.629 Z-1.579 F1080
G1 X367.17 Y57.682 Z-1.582 F1080
G1 X367.141 Y57.732 Z-1.585 F1080
G1 X367.106 Y57.777 Z-1.588 F1080
G1 X367.064 Y57.817 Z-1.591 F1080
G1 X367.018 Y57.85 Z-1.594 F1080
G1 X366.967 Y57.877 Z-1.597 F1080
G1 X366.913 Y57.897 Z-1.6 F1080
G1 X366.857 Y57.909 Z-1.603 F1080
G1 X366.8 Y57.912 Z-1.606 F1080
G1 X366.743 Y57.908 Z-1.609 F1080
G1 X366.687 Y57.897 Z-1.613 F1080
G1 X366.633 Y57.877 Z-1.616 F1080
G1 X366.582 Y57.85 Z-1.619 F1080
G1 X366.535 Y57.816 Z-1.622 F1080
G1 X366.494 Y57.777 Z-1.625 F1080
G1 X366.459 Y57.732 Z-1.628 F1080
G1 X366.43 Y57.682 Z-1.631 F1080
G1 X366.408 Y57.629 Z-1.634 F1080
G1 X366.394 Y57.573 Z-1.637 F1080
G1 X366.388 Y57.516 Z-1.64 F1080
G1 X366.39 Y57.459 Z-1.644 F1080
G1 X366.399 Y57.402 Z-1.647 F1080
G1 X366.417 Y57.348 Z-1.65 F1080
G1 X366.442 Y57.296 Z-1.653 F1080
G1 X366.473 Y57.248 Z-1.656 F1080
G1 X366.511 Y57.205 Z-1.659 F1080
G1 X366.555 Y57.168 Z-1.662 F1080
G1 X366.604 Y57.137 Z-1.665 F1080
G1 X366.656 Y57.114 Z-1.668 F1080
G1 X366.711 Y57.097 Z-1.671 F1080
G1 X366.768 Y57.089 Z-1.674 F1080
G1 X366.825 Y57.088 Z-1.678 F1080
G1 X366.882 Y57.096 Z-1.681 F1080
G1 X366.937 Y57.111 Z-1.684 F1080
G1 X366.99 Y57.134 Z-1.687 F1080
G1 X367.039 Y57.164 Z-1.69 F1080
G1 X367.083 Y57.2 Z-1.693 F1080
G1 X367.122 Y57.242 Z-1.696 F1080
G1 X367.155 Y57.29 Z-1.699 F1080
G1 X367.181 Y57.341 Z-1.702 F1080
G1 X367.199 Y57.395 Z-1.705 F1080
G1 X367.21 Y57.451 Z-1.708 F1080
G1 X367.212 Y57.509 Z-1.712 F1080
G1 X367.207 Y57.566 Z-1.715 F1080
G1 X367.194 Y57.622 Z-1.718 F1080
G1 X367.173 Y57.675 Z-1.721 F1080
G1 X367.145 Y57.725 Z-1.724 F1080
G1 X367.111 Y57.771 Z-1.727 F1080
G1 X367.07 Y57.812 Z-1.73 F1080
G1 X367.024 Y57.846 Z-1.733 F1080
G1 X366.974 Y57.874 Z-1.736 F1080
G1 X366.92 Y57.895 Z-1.739 F1080
G1 X366.865 Y57.907 Z-1.743 F1080
G1 X366.807 Y57.912 Z-1.746 F1080
G1 X366.75 Y57.909 Z-1.749 F1080
G1 X366.694 Y57.899 Z-1.752 F1080
G1 X366.639 Y57.88 Z-1.755 F1080
G1 X366.588 Y57.854 Z-1.758 F1080
G1 X366.541 Y57.821 Z-1.761 F1080
G1 X366.499 Y57.782 Z-1.764 F1080
G1 X366.463 Y57.738 Z-1.767 F1080
G1 X366.433 Y57.689 Z-1.77 F1080
G1 X366.411 Y57.636 Z-1.773 F1080
G1 X366.395 Y57.581 Z-1.777 F1080
G1 X366.388 Y57.524 Z-1.78 F1080
G1 X366.389 Y57.466 Z-1.783 F1080
G1 X366.398 Y57.41 Z-1.786 F1080
G1 X366.414 Y57.355 Z-1.789 F1080
G1 X366.438 Y57.302 Z-1.792 F1080
G1 X366.469 Y57.254 Z-1.795 F1080
G1 X366.506 Y57.21 Z-1.798 F1080
G1 X366.549 Y57.173 Z-1.801 F1080
G1 X366.597 Y57.141 Z-1.804 F1080
G1 X366.649 Y57.116 Z-1.808 F1080
G1 X366.704 Y57.099 Z-1.811 F1080
G1 X366.76 Y57.089 Z-1.814 F1080
G1 X366.818 Y57.088 Z-1.817 F1080
G1 X366.875 Y57.094 Z-1.82 F1080
G1 X366.93 Y57.109 Z-1.823 F1080
G1 X366.983 Y57.13 Z-1.826 F1080
G1 X367.033 Y57.159 Z-1.829 F1080
G1 X367.078 Y57.195 Z-1.832 F1080
G1 X367.117 Y57.237 Z-1.835 F1080
G1 X367.151 Y57.283 Z-1.838 F1080
G1 X367.178 Y57.334 Z-1.842 F1080
G1 X367.197 Y57.388 Z-1.845 F1080
G1 X367.209 Y57.444 Z-1.848 F1080
G1 X367.212 Y57.501 Z-1.851 F1080
G1 X367.208 Y57.559 Z-1.854 F1080
G1 X367.196 Y57.615 Z-1.857 F1080
G1 X367.176 Y57.669 Z-1.86 F1080
G1 X367.149 Y57.719 Z-1.863 F1080
G1 X367.116 Y57.766 Z-1.866 F1080
G1 X367.076 Y57.807 Z-1.869 F1080
G1 X367.031 Y57.842 Z-1.873 F1080
G1 X366.981 Y57.871 Z-1.876 F1080
G1 X366.928 Y57.892 Z-1.879 F1080
G1 X366.872 Y57.906 Z-1.882 F1080
G1 X366.815 Y57.912 Z-1.885 F1080
G1 X366.758 Y57.91 Z-1.888 F1080
G1 X366.701 Y57.9 Z-1.891 F1080
G1 X366.646 Y57.883 Z-1.894 F1080
G1 X366.595 Y57.858 Z-1.897 F1080
G1 X366.547 Y57.826 Z-1.9 F1080
G1 X366.504 Y57.788 Z-1.903 F1080
G1 X366.467 Y57.744 Z-1.907 F1080
G1 X366.437 Y57.695 Z-1.91 F1080
G1 X366.413 Y57.643 Z-1.913 F1080
G1 X366.397 Y57.588 Z-1.916 F1080
G1 X366.389 Y57.531 Z-1.919 F1080
G1 X366.388 Y57.474 Z-1.922 F1080
G1 X366.396 Y57.417 Z-1.925 F1080
G1 X366.411 Y57.362 Z-1.928 F1080
G1 X366.434 Y57.309 Z-1.931 F1080
G1 X366.464 Y57.26 Z-1.934 F1080
G1 X366.501 Y57.216 Z-1.938 F1080
G1 X366.543 Y57.177 Z-1.941 F1080
G1 X366.591 Y57.145 Z-1.944 F1080
G1 X366.642 Y57.119 Z-1.947 F1080
G1 X366.696 Y57.101 Z-1.95 F1080
G1 X366.753 Y57.09 Z-1.953 F1080
G1 X366.81 Y57.088 Z-1.956 F1080
G1 X366.867 Y57.093 Z-1.959 F1080
G1 X366.923 Y57.106 Z-1.962 F1080
G1 X366.976 Y57.127 Z-1.965 F1080
G1 X367.026 Y57.155 Z-1.968 F1080
G1 X367.072 Y57.19 Z-1.972 F1080
G1 X367.113 Y57.231 Z-1.975 F1080
G1 X367.147 Y57.277 Z-1.978 F1080
G1 X367.174 Y57.327 Z-1.981 F1080
G1 X367.195 Y57.381 Z-1.984 F1080
G1 X367.208 Y57.437 Z-1.987 F1080
G1 X367.212 Y57.494 Z-1.99 F1080
G1 X367.209 Y57.551 Z-1.993 F1080
G1 X367.198 Y57.607 Z-1.996 F1080
G1 X367.179 Y57.662 Z-1.999 F1080
G1 X367.153 Y57.713 Z-2.003 F1080
G1 X367.12 Y57.76 Z-2.006 F1080
G1 X367.081 Y57.802 Z-2.009 F1080
G1 X367.037 Y57.838 Z-2.012 F1080
G1 X366.988 Y57.867 Z-2.015 F1080
G1 X366.935 Y57.89 Z-2.018 F1080
G1 X366.879 Y57.905 Z-2.021 F1080
G1 X366.822 Y57.912 Z-2.024 F1080
G1 X366.765 Y57.911 Z-2.027 F1080
G1 X366.708 Y57.902 Z-2.03 F1080
G1 X366.653 Y57.886 Z-2.033 F1080
G1 X366.601 Y57.861 Z-2.037 F1080
G1 X366.553 Y57.83 Z-2.04 F1080
G1 X366.51 Y57.793 Z-2.043 F1080
G1 X366.472 Y57.75 Z-2.046 F1080
G1 X366.44 Y57.702 Z-2.049 F1080
G1 X366.416 Y57.65 Z-2.052 F1080
G1 X366.399 Y57.595 Z-2.055 F1080
G1 X366.389 Y57.539 Z-2.058 F1080
G1 X366.388 Y57.481 Z-2.061 F1080
G1 X366.395 Y57.424 Z-2.064 F1080
G1 X366.409 Y57.369 Z-2.068 F1080
G1 X366.431 Y57.316 Z-2.071 F1080
G1 X366.46 Y57.266 Z-2.074 F1080
G1 X366.496 Y57.221 Z-2.077 F1080
G1 X366.537 Y57.182 Z-2.08 F1080
G1 X366.584 Y57.148 Z-2.083 F1080
G1 X366.635 Y57.122 Z-2.086 F1080
G1 X366.689 Y57.103 Z-2.089 F1080
G1 X366.745 Y57.091 Z-2.092 F1080
G1 X366.803 Y57.088 Z-2.095 F1080
G1 X366.86 Y57.092 Z-2.098 F1080
G1 X366.916 Y57.104 Z-2.102 F1080
G1 X366.97 Y57.124 Z-2.105 F1080
G1 X367.02 Y57.151 Z-2.108 F1080
G1 X367.066 Y57.185 Z-2.111 F1080
G1 X367.108 Y57.225 Z-2.114 F1080
G1 X367.143 Y57.271 Z-2.117 F1080
G1 X367.171 Y57.32 Z-2.12 F1080
G1 X367.193 Y57.374 Z-2.123 F1080
G1 X367.206 Y57.429 Z-2.126 F1080
G1 X367.212 Y57.486 Z-2.129 F1080
G1 X367.21 Y57.544 Z-2.133 F1080
G1 X367.2 Y57.6 Z-2.136 F1080
G1 X367.182 Y57.655 Z-2.139 F1080
G1 X367.157 Y57.706 Z-2.142 F1080
G1 X367.125 Y57.754 Z-2.145 F1080
G1 X367.087 Y57.797 Z-2.148 F1080
G1 X367.043 Y57.833 Z-2.151 F1080
G1 X366.994 Y57.864 Z-2.154 F1080
G1 X366.942 Y57.887 Z-2.157 F1080
G1 X366.887 Y57.903 Z-2.16 F1080
G1 X366.83 Y57.911 Z-2.163 F1080
G1 X366.772 Y57.912 Z-2.167 F1080
G1 X366.716 Y57.904 Z-2.17 F1080
G1 X366.66 Y57.888 Z-2.173 F1080
G1 X366.608 Y57.865 Z-2.176 F1080
G1 X366.559 Y57.835 Z-2.179 F1080
G1 X366.515 Y57.798 Z-2.182 F1080
G1 X366.476 Y57.756 Z-2.185 F1080
G1 X366.444 Y57.708 Z-2.188 F1080
G1 X366.418 Y57.657 Z-2.191 F1080
G1 X366.4 Y57.602 Z-2.194 F1080
G1 X366.39 Y57.546 Z-2.198 F1080
G1 X366.388 Y57.489 Z-2.201 F1080
G1 X366.393 Y57.432 Z-2.204 F1080
G1 X366.407 Y57.376 Z-2.207 F1080
G1 X366.428 Y57.322 Z-2.21 F1080
G1 X366.456 Y57.272 Z-2.213 F1080
G1 X366.491 Y57.227 Z-2.216 F1080
G1 X366.532 Y57.187 Z-2.219 F1080
G1 X366.578 Y57.152 Z-2.222 F1080
G1 X366.628 Y57.125 Z-2.225 F1080
G1 X366.682 Y57.105 Z-2.228 F1080
G1 X366.738 Y57.092 Z-2.232 F1080
G1 X366.795 Y57.088 Z-2.235 F1080
G1 X366.852 Y57.091 Z-2.238 F1080
G1 X366.909 Y57.102 Z-2.241 F1080
G1 X366.963 Y57.121 Z-2.244 F1080
G1 X367.014 Y57.147 Z-2.247 F1080
G1 X367.061 Y57.18 Z-2.25 F1080
G1 X367.103 Y57.22 Z-2.253 F1080
G1 X367.139 Y57.264 Z-2.256 F1080
G1 X367.168 Y57.314 Z-2.259 F1080
G1 X367.19 Y57.366 Z-2.263 F1080
G1 X367.205 Y57.422 Z-2.266 F1080
G1 X367.212 Y57.479 Z-2.269 F1080
G1 X367.211 Y57.536 Z-2.272 F1080
G1 X367.202 Y57.593 Z-2.275 F1080
G1 X367.185 Y57.648 Z-2.278 F1080
G1 X367.161 Y57.7 Z-2.281 F1080
G1 X367.13 Y57.748 Z-2.284 F1080
G1 X367.092 Y57.791 Z-2.287 F1080
G1 X367.049 Y57.829 Z-2.29 F1080
G1 X367.001 Y57.86 Z-2.293 F1080
G1 X366.949 Y57.885 Z-2.297 F1080
G1 X366.894 Y57.902 Z-2.3 F1080
G1 X366.837 Y57.911 Z-2.303 F1080
G1 X366.78 Y57.912 Z-2.306 F1080
G1 X366.723 Y57.905 Z-2.309 F1080
G1 X366.667 Y57.891 Z-2.312 F1080
G1 X366.615 Y57.868 Z-2.315 F1080
G1 X366.565 Y57.839 Z-2.318 F1080
G1 X366.52 Y57.803 Z-2.321 F1080
G1 X366.481 Y57.762 Z-2.324 F1080
G1 X366.448 Y57.715 Z-2.328 F1080
G1 X366.421 Y57.664 Z-2.331 F1080
G1 X366.402 Y57.61 Z-2.334 F1080
G1 X366.391 Y57.553 Z-2.337 F1080
G1 X366.388 Y57.496 Z-2.34 F1080
G1 X366.392 Y57.439 Z-2.343 F1080
G1 X366.404 Y57.383 Z-2.346 F1080
G1 X366.425 Y57.329 Z-2.349 F1080
G1 X366.452 Y57.279 Z-2.352 F1080
G1 X366.486 Y57.233 Z-2.355 F1080
G1 X366.526 Y57.192 Z-2.358 F1080
G1 X366.572 Y57.157 Z-2.362 F1080
G1 X366.621 Y57.128 Z-2.365 F1080
G1 X366.675 Y57.107 Z-2.368 F1080
G1 X366.731 Y57.093 Z-2.371 F1080
G1 X366.788 Y57.088 Z-2.374 F1080
G1 X366.845 Y57.09 Z-2.377 F1080
G1 X366.901 Y57.1 Z-2.38 F1080
G1 X366.956 Y57.118 Z-2.383 F1080
G1 X367.007 Y57.143 Z-2.386 F1080
G1 X367.055 Y57.176 Z-2.389 F1080
G1 X367.097 Y57.214 Z-2.393 F1080
G1 X367.134 Y57.258 Z-2.396 F1080
G1 X367.165 Y57.307 Z-2.399 F1080
G1 X367.188 Y57.359 Z-2.402 F1080
G1 X367.204 Y57.415 Z-2.405 F1080
G1 X367.211 Y57.471 Z-2.408 F1080
G1 Y57.529 Z-2.411 F1080
G1 X367.204 Y57.586 Z-2.414 F1080
G1 X367.188 Y57.641 Z-2.417 F1080
G1 X367.164 Y57.693 Z-2.42 F1080
G1 X367.134 Y57.742 Z-2.423 F1080
G1 X367.097 Y57.786 Z-2.427 F1080
G1 X367.055 Y57.824 Z-2.43 F1080
G1 X367.007 Y57.857 Z-2.433 F1080
G1 X366.956 Y57.882 Z-2.436 F1080
G1 X366.901 Y57.9 Z-2.439 F1080
G1 X366.845 Y57.91 Z-2.442 F1080
G1 X366.787 Y57.912 Z-2.445 F1080
G1 X366.73 Y57.907 Z-2.448 F1080
G1 X366.675 Y57.893 Z-2.451 F1080
G1 X366.621 Y57.872 Z-2.454 F1080
G1 X366.571 Y57.843 Z-2.458 F1080
G1 X366.526 Y57.808 Z-2.461 F1080
G1 X366.486 Y57.767 Z-2.464 F1080
G1 X366.452 Y57.721 Z-2.467 F1080
G1 X366.424 Y57.671 Z-2.47 F1080
G1 X366.404 Y57.617 Z-2.473 F1080
G1 X366.392 Y57.561 Z-2.476 F1080
G1 X366.388 Y57.504 Z-2.479 F1080
G1 X366.391 Y57.446 Z-2.482 F1080
G1 X366.402 Y57.39 Z-2.485 F1080
G1 X366.421 Y57.336 Z-2.488 F1080
G1 X366.448 Y57.285 Z-2.492 F1080
G1 X366.481 Y57.238 Z-2.495 F1080
G1 X366.521 Y57.197 Z-2.498 F1080
G1 X366.565 Y57.161 Z-2.501 F1080
G1 X366.615 Y57.131 Z-2.504 F1080
G1 X366.668 Y57.109 Z-2.507 F1080
G1 X366.723 Y57.095 Z-2.51 F1080
G1 X366.78 Y57.088 Z-2.513 F1080
G1 X366.837 Y57.089 Z-2.516 F1080
G1 X366.894 Y57.098 Z-2.519 F1080
G1 X366.949 Y57.115 Z-2.523 F1080
G1 X367.001 Y57.14 Z-2.526 F1080
G1 X367.049 Y57.171 Z-2.529 F1080
G1 X367.092 Y57.209 Z-2.532 F1080
G1 X367.13 Y57.252 Z-2.535 F1080
G1 X367.161 Y57.3 Z-2.538 F1080
G1 X367.185 Y57.352 Z-2.541 F1080
G1 X367.202 Y57.407 Z-2.544 F1080
G1 X367.211 Y57.464 Z-2.547 F1080
G1 X367.212 Y57.521 Z-2.55 F1080
G1 X367.205 Y57.578 Z-2.553 F1080
G1 X367.19 Y57.634 Z-2.557 F1080
G1 X367.168 Y57.687 Z-2.56 F1080
G1 X367.138 Y57.736 Z-2.563 F1080
G1 X367.102 Y57.781 Z-2.566 F1080
G1 X367.061 Y57.82 Z-2.569 F1080
G1 X367.014 Y57.853 Z-2.572 F1080
G1 X366.963 Y57.879 Z-2.575 F1080
G1 X366.908 Y57.898 Z-2.578 F1080
G1 X366.852 Y57.909 Z-2.581 F1080
G1 X366.795 Y57.912 Z-2.584 F1080
G1 X366.738 Y57.908 Z-2.588 F1080
G1 X366.682 Y57.895 Z-2.591 F1080
G1 X366.628 Y57.875 Z-2.594 F1080
G1 X366.578 Y57.847 Z-2.597 F1080
G1 X366.532 Y57.813 Z-2.6 F1080
G1 X366.491 Y57.773 Z-2.603 F1080
G1 X366.456 Y57.727 Z-2.606 F1080
G1 X366.428 Y57.677 Z-2.609 F1080
G1 X366.407 Y57.624 Z-2.612 F1080
G1 X366.393 Y57.568 Z-2.615 F1080
G1 X366.388 Y57.511 Z-2.618 F1080
G1 X366.39 Y57.454 Z-2.622 F1080
G1 X366.4 Y57.397 Z-2.625 F1080
G1 X366.419 Y57.343 Z-2.628 F1080
G1 X366.444 Y57.291 Z-2.631 F1080
G1 X366.476 Y57.244 Z-2.634 F1080
G1 X366.515 Y57.202 Z-2.637 F1080
G1 X366.559 Y57.165 Z-2.64 F1080
G1 X366.608 Y57.135 Z-2.643 F1080
G1 X366.661 Y57.112 Z-2.646 F1080
G1 X366.716 Y57.096 Z-2.649 F1080
G1 X366.773 Y57.088 Z-2.653 F1080
G1 X366.83 Y57.089 Z-2.656 F1080
G1 X366.887 Y57.097 Z-2.659 F1080
G1 X366.942 Y57.113 Z-2.662 F1080
G1 X366.994 Y57.136 Z-2.665 F1080
G1 X367.043 Y57.167 Z-2.668 F1080
G1 X367.087 Y57.204 Z-2.671 F1080
G1 X367.125 Y57.246 Z-2.674 F1080
G1 X367.157 Y57.294 Z-2.677 F1080
G1 X367.182 Y57.345 Z-2.68 F1080
G1 X367.2 Y57.4 Z-2.683 F1080
G1 X367.21 Y57.456 Z-2.687 F1080
G1 X367.212 Y57.514 Z-2.69 F1080
G1 X367.206 Y57.571 Z-2.693 F1080
G1 X367.193 Y57.627 Z-2.696 F1080
G1 X367.171 Y57.68 Z-2.699 F1080
G1 X367.143 Y57.73 Z-2.702 F1080
G1 X367.107 Y57.775 Z-2.705 F1080
G1 X367.066 Y57.815 Z-2.708 F1080
G1 X367.02 Y57.849 Z-2.711 F1080
G1 X366.969 Y57.876 Z-2.714 F1080
G1 X366.916 Y57.896 Z-2.718 F1080
G1 X366.86 Y57.908 Z-2.721 F1080
G1 X366.802 Y57.912 Z-2.724 F1080
G1 X366.745 Y57.909 Z-2.727 F1080
G1 X366.689 Y57.897 Z-2.73 F1080
G1 X366.635 Y57.878 Z-2.733 F1080
G1 X366.584 Y57.851 Z-2.736 F1080
G1 X366.537 Y57.818 Z-2.739 F1080
G1 X366.496 Y57.779 Z-2.742 F1080
G1 X366.46 Y57.734 Z-2.745 F1080
G1 X366.431 Y57.684 Z-2.748 F1080
G1 X366.409 Y57.631 Z-2.752 F1080
G1 X366.394 Y57.576 Z-2.755 F1080
G1 X366.388 Y57.519 Z-2.758 F1080
G1 X366.389 Y57.461 Z-2.761 F1080
G1 X366.399 Y57.405 Z-2.764 F1080
G1 X366.416 Y57.35 Z-2.767 F1080
G1 X366.44 Y57.298 Z-2.77 F1080
G1 X366.472 Y57.25 Z-2.773 F1080
G1 X366.51 Y57.207 Z-2.776 F1080
G1 X366.553 Y57.169 Z-2.779 F1080
G1 X366.601 Y57.138 Z-2.782 F1080
G1 X366.654 Y57.114 Z-2.786 F1080
G1 X366.708 Y57.098 Z-2.789 F1080
G1 X366.765 Y57.089 Z-2.792 F1080
G1 X366.823 Y57.088 Z-2.795 F1080
G1 X366.88 Y57.095 Z-2.798 F1080
G1 X366.935 Y57.11 Z-2.801 F1080
G1 X366.988 Y57.133 Z-2.804 F1080
G1 X367.037 Y57.162 Z-2.807 F1080
G1 X367.081 Y57.198 Z-2.81 F1080
G1 X367.121 Y57.24 Z-2.813 F1080
G1 X367.153 Y57.287 Z-2.817 F1080
G1 X367.18 Y57.339 Z-2.82 F1080
G1 X367.198 Y57.393 Z-2.823 F1080
G1 X367.209 Y57.449 Z-2.826 F1080
G1 X367.212 Y57.506 Z-2.829 F1080
G1 X367.208 Y57.564 Z-2.832 F1080
G1 X367.195 Y57.619 Z-2.835 F1080
G1 X367.174 Y57.673 Z-2.838 F1080
G1 X367.147 Y57.723 Z-2.841 F1080
G1 X367.112 Y57.769 Z-2.844 F1080
G1 X367.072 Y57.81 Z-2.847 F1080
G1 X367.026 Y57.845 Z-2.851 F1080
G1 X366.976 Y57.873 Z-2.854 F1080
G1 X366.923 Y57.894 Z-2.857 F1080
G1 X366.867 Y57.907 Z-2.86 F1080
G1 X366.81 Y57.912 Z-2.863 F1080
G1 X366.753 Y57.91 Z-2.866 F1080
G1 X366.696 Y57.899 Z-2.869 F1080
G1 X366.642 Y57.881 Z-2.872 F1080
G1 X366.59 Y57.855 Z-2.875 F1080
G1 X366.543 Y57.823 Z-2.878 F1080
G1 X366.501 Y57.784 Z-2.882 F1080
G1 X366.464 Y57.74 Z-2.885 F1080
G1 X366.434 Y57.691 Z-2.888 F1080
G1 X366.411 Y57.638 Z-2.891 F1080
G1 X366.396 Y57.583 Z-2.894 F1080
G1 X366.388 Y57.526 Z-2.897 F1080
G1 X366.389 Y57.469 Z-2.9 F1080
G1 X366.397 Y57.412 Z-2.903 F1080
G1 X366.413 Y57.357 Z-2.906 F1080
G1 X366.437 Y57.305 Z-2.909 F1080
G1 X366.467 Y57.256 Z-2.912 F1080
G1 X366.504 Y57.212 Z-2.916 F1080
G1 X366.547 Y57.174 Z-2.919 F1080
G1 X366.595 Y57.142 Z-2.922 F1080
G1 X366.647 Y57.117 Z-2.925 F1080
G1 X366.701 Y57.1 Z-2.928 F1080
G1 X366.758 Y57.09 Z-2.931 F1080
G1 X366.815 Y57.088 Z-2.934 F1080
G1 X366.872 Y57.094 Z-2.937 F1080
G1 X366.928 Y57.108 Z-2.94 F1080
G1 X366.981 Y57.129 Z-2.943 F1080
G1 X367.031 Y57.158 Z-2.947 F1080
G1 X367.076 Y57.193 Z-2.95 F1080
G1 X367.116 Y57.235 Z-2.953 F1080
G1 X367.15 Y57.281 Z-2.956 F1080
G1 X367.177 Y57.332 Z-2.959 F1080
G1 X367.196 Y57.386 Z-2.962 F1080
G1 X367.208 Y57.442 Z-2.965 F1080
G1 X367.212 Y57.499 Z-2.968 F1080
G1 X367.209 Y57.556 Z-2.971 F1080
G1 X367.197 Y57.612 Z-2.974 F1080
G1 X367.177 Y57.666 Z-2.977 F1080
G1 X367.151 Y57.717 Z-2.981 F1080
G1 X367.117 Y57.764 Z-2.984 F1080
G1 X367.078 Y57.805 Z-2.987 F1080
G1 X367.033 Y57.841 Z-2.99 F1080
G1 X366.983 Y57.87 Z-2.993 F1080
G1 X366.93 Y57.891 Z-2.996 F1080
G1 X366.874 Y57.906 Z-2.999 F1080
G1 X366.817 Y57.912 Z-3.002 F1080
G1 X366.76 Y57.911 Z-3.005 F1080
G1 X366.703 Y57.901 Z-3.008 F1080
G1 X366.649 Y57.884 Z-3.012 F1080
G1 X366.597 Y57.859 Z-3.015 F1080
G1 X366.549 Y57.827 Z-3.018 F1080
G1 X366.506 Y57.789 Z-3.021 F1080
G1 X366.469 Y57.746 Z-3.024 F1080
G1 X366.438 Y57.697 Z-3.027 F1080
G1 X366.414 Y57.645 Z-3.03 F1080
G1 X366.397 Y57.59 Z-3.033 F1080
G1 X366.389 Y57.534 Z-3.036 F1080
G1 X366.388 Y57.476 Z-3.039 F1080
G1 X366.395 Y57.419 Z-3.042 F1080
G1 X366.411 Y57.364 Z-3.046 F1080
G1 X366.433 Y57.311 Z-3.049 F1080
G1 X366.463 Y57.262 Z-3.052 F1080
G1 X366.499 Y57.218 Z-3.055 F1080
G1 X366.541 Y57.179 Z-3.058 F1080
G1 X366.588 Y57.146 Z-3.061 F1080
G1 X366.64 Y57.12 Z-3.064 F1080
G1 X366.694 Y57.101 Z-3.067 F1080
G1 X366.75 Y57.091 Z-3.07 F1080
G1 X366.808 Y57.088 Z-3.073 F1080
G1 X366.865 Y57.093 Z-3.077 F1080
G1 X366.921 Y57.106 Z-3.08 F1080
G1 X366.974 Y57.126 Z-3.083 F1080
G1 X367.024 Y57.154 Z-3.086 F1080
G1 X367.07 Y57.188 Z-3.089 F1080
G1 X367.111 Y57.229 Z-3.092 F1080
G1 X367.146 Y57.275 Z-3.095 F1080
G1 X367.173 Y57.325 Z-3.098 F1080
G1 X367.194 Y57.378 Z-3.101 F1080
G1 X367.207 Y57.434 Z-3.104 F1080
G1 X367.212 Y57.491 Z-3.107 F1080
G1 X367.21 Y57.549 Z-3.111 F1080
G1 X367.199 Y57.605 Z-3.114 F1080
G1 X367.18 Y57.659 Z-3.117 F1080
G1 X367.155 Y57.711 Z-3.12 F1080
G1 X367.122 Y57.758 Z-3.123 F1080
G1 X367.083 Y57.8 Z-3.126 F1080
G1 X367.039 Y57.836 Z-3.129 F1080
G1 X366.99 Y57.866 Z-3.132 F1080
G1 X366.937 Y57.889 Z-3.135 F1080
G1 X366.882 Y57.904 Z-3.138 F1080
G1 X366.825 Y57.912 Z-3.142 F1080
G1 X366.767 Y57.911 Z-3.145 F1080
G1 X366.711 Y57.903 Z-3.148 F1080
G1 X366.656 Y57.886 Z-3.151 F1080
G1 X366.603 Y57.863 Z-3.154 F1080
G1 X366.555 Y57.832 Z-3.157 F1080
G1 X366.511 Y57.795 Z-3.16 F1080
G1 X366.473 Y57.752 Z-3.163 F1080
G1 X366.441 Y57.704 Z-3.166 F1080
G1 X366.417 Y57.652 Z-3.169 F1080
G1 X366.399 Y57.598 Z-3.172 F1080
G1 X366.39 Y57.541 Z-3.176 F1080
G1 X366.388 Y57.484 Z-3.179 F1080
G1 X366.394 Y57.427 Z-3.182 F1080
G1 X366.408 Y57.371 Z-3.185 F1080
G1 X366.43 Y57.318 Z-3.188 F1080
G1 X366.459 Y57.268 Z-3.191 F1080
G1 X366.494 Y57.223 Z-3.194 F1080
G1 X366.536 Y57.183 Z-3.197 F1080
G1 X366.582 Y57.15 Z-3.2 F1080
G1 X366.633 Y57.123 Z-3.203 F1080
G1 X366.687 Y57.103 Z-3.207 F1080
G1 X366.743 Y57.091 Z-3.21 F1080
G1 X366.8 Y57.087 Z-3.213 F1080
G1 X366.857 Y57.092 Z-3.216 F1080
G1 X366.913 Y57.103 Z-3.219 F1080
G1 X366.967 Y57.123 Z-3.222 F1080
G1 X367.018 Y57.15 Z-3.225 F1080
G1 X367.065 Y57.184 Z-3.228 F1080
G1 X367.106 Y57.223 Z-3.231 F1080
G1 X367.141 Y57.268 Z-3.234 F1080
G1 X367.17 Y57.318 Z-3.237 F1080
G1 X367.192 Y57.371 Z-3.241 F1080
G1 X367.206 Y57.427 Z-3.244 F1080
G1 X367.212 Y57.484 Z-3.247 F1080
G1 X367.21 Y57.541 Z-3.25 F1080
G1 X367.201 Y57.598 Z-3.253 F1080
G1 X367.183 Y57.652 Z-3.256 F1080
G1 X367.158 Y57.704 Z-3.259 F1080
G1 X367.127 Y57.752 Z-3.262 F1080
G1 X367.088 Y57.795 Z-3.265 F1080
G1 X367.045 Y57.832 Z-3.268 F1080
G1 X366.996 Y57.863 Z-3.272 F1080
G1 X366.944 Y57.887 Z-3.275 F1080
G1 X366.889 Y57.903 Z-3.278 F1080
G1 X366.832 Y57.911 Z-3.281 F1080
G1 X366.775 Y57.912 Z-3.284 F1080
G1 X366.718 Y57.904 Z-3.287 F1080
G1 X366.663 Y57.889 Z-3.29 F1080
G1 X366.61 Y57.866 Z-3.293 F1080
G1 X366.561 Y57.836 Z-3.296 F1080
G1 X366.517 Y57.8 Z-3.299 F1080
G1 X366.478 Y57.758 Z-3.302 F1080
G1 X366.445 Y57.71 Z-3.306 F1080
G1 X366.419 Y57.659 Z-3.309 F1080
G1 X366.401 Y57.605 Z-3.312 F1080
G1 X366.39 Y57.548 Z-3.315 F1080
G1 X366.388 Y57.491 Z-3.318 F1080
G1 X366.393 Y57.434 Z-3.321 F1080
G1 X366.406 Y57.378 Z-3.324 F1080
G1 X366.427 Y57.325 Z-3.327 F1080
G1 X366.455 Y57.274 Z-3.33 F1080
G1 X366.489 Y57.229 Z-3.333 F1080
G1 X366.53 Y57.188 Z-3.337 F1080
G1 X366.576 Y57.154 Z-3.34 F1080
G1 X366.626 Y57.126 Z-3.343 F1080
G1 X366.68 Y57.105 Z-3.346 F1080
G1 X366.735 Y57.093 Z-3.349 F1080
G1 X366.793 Y57.088 Z-3.352 F1080
G1 X366.85 Y57.091 Z-3.355 F1080
G1 X366.906 Y57.101 Z-3.358 F1080
G1 X366.961 Y57.12 Z-3.361 F1080
G1 X367.012 Y57.146 Z-3.364 F1080
G1 X367.059 Y57.179 Z-3.367 F1080
G1 X367.101 Y57.218 Z-3.371 F1080
G1 X367.137 Y57.262 Z-3.374 F1080
G1 X367.167 Y57.311 Z-3.377 F1080
G1 X367.189 Y57.364 Z-3.38 F1080
G1 X367.205 Y57.42 Z-3.383 F1080
G1 X367.212 Y57.476 Z-3.386 F1080
G1 X367.211 Y57.534 Z-3.389 F1080
G1 X367.202 Y57.591 Z-3.392 F1080
G1 X367.186 Y57.646 Z-3.395 F1080
G1 X367.162 Y57.698 Z-3.398 F1080
G1 X367.131 Y57.746 Z-3.402 F1080
G1 X367.094 Y57.79 Z-3.405 F1080
G1 X367.051 Y57.828 Z-3.408 F1080
G1 X367.003 Y57.859 Z-3.411 F1080
G1 X366.951 Y57.884 Z-3.414 F1080
G1 X366.896 Y57.901 Z-3.417 F1080
G1 X366.84 Y57.911 Z-3.42 F1080
G1 X366.782 Y57.912 Z-3.423 F1080
G1 X366.725 Y57.906 Z-3.426 F1080
G1 X366.67 Y57.891 Z-3.429 F1080
G1 X366.617 Y57.87 Z-3.432 F1080
G1 X366.567 Y57.841 Z-3.436 F1080
G1 X366.522 Y57.805 Z-3.439 F1080
G1 X366.483 Y57.763 Z-3.442 F1080
G1 X366.449 Y57.717 Z-3.445 F1080
G1 X366.422 Y57.666 Z-3.448 F1080
G1 X366.403 Y57.612 Z-3.451 F1080
G1 X366.391 Y57.556 Z-3.454 F1080
G1 X366.387 Y57.499 Z-3.457 F1080
G1 X366.392 Y57.441 Z-3.46 F1080
G1 X366.404 Y57.385 Z-3.463 F1080
G1 X366.424 Y57.331 Z-3.467 F1080
G1 X366.451 Y57.281 Z-3.47 F1080
G1 X366.484 Y57.234 Z-3.473 F1080
G1 X366.524 Y57.193 Z-3.476 F1080
G1 X366.57 Y57.158 Z-3.479 F1080
G1 X366.619 Y57.129 Z-3.482 F1080
G1 X366.672 Y57.108 Z-3.485 F1080
G1 X366.728 Y57.094 Z-3.488 F1080
G1 X366.785 Y57.088 Z-3.491 F1080
G1 X366.843 Y57.09 Z-3.494 F1080
G1 X366.899 Y57.1 Z-3.497 F1080
G1 X366.954 Y57.117 Z-3.501 F1080
G1 X367.005 Y57.142 Z-3.504 F1080
G1 X367.053 Y57.174 Z-3.507 F1080
G1 X367.096 Y57.212 Z-3.51 F1080
G1 X367.133 Y57.256 Z-3.513 F1080
G1 X367.163 Y57.305 Z-3.516 F1080
G1 X367.187 Y57.357 Z-3.519 F1080
G1 X367.203 Y57.412 Z-3.522 F1080
G1 X367.211 Y57.469 Z-3.525 F1080
G1 X367.212 Y57.526 Z-3.528 F1080
G1 X367.204 Y57.583 Z-3.532 F1080
G1 X367.189 Y57.638 Z-3.535 F1080
G1 X367.166 Y57.691 Z-3.538 F1080
G1 X367.136 Y57.74 Z-3.541 F1080
G1 X367.099 Y57.784 Z-3.544 F1080
G1 X367.057 Y57.823 Z-3.547 F1080
G1 X367.009 Y57.855 Z-3.55 F1080
G1 X366.958 Y57.881 Z-3.553 F1080
G1 X366.904 Y57.899 Z-3.556 F1080
G1 X366.847 Y57.91 Z-3.559 F1080
G1 X366.79 Y57.912 Z-3.562 F1080
G1 X366.733 Y57.907 Z-3.566 F1080
G1 X366.677 Y57.894 Z-3.569 F1080
G1 X366.623 Y57.873 Z-3.572 F1080
G1 X366.573 Y57.845 Z-3.575 F1080
G1 X366.528 Y57.81 Z-3.578 F1080
G1 X366.487 Y57.769 Z-3.581 F1080
G1 X366.453 Y57.723 Z-3.584 F1080
G1 X366.425 Y57.673 Z-3.587 F1080
G1 X366.405 Y57.619 Z-3.59 F1080
G1 X366.392 Y57.563 Z-3.593 F1080
G1 X366.388 Y57.506 Z-3.597 F1080
G1 X366.391 Y57.449 Z-3.6 F1080
G1 X366.402 Y57.392 Z-3.603 F1080
G1 X366.421 Y57.338 Z-3.606 F1080
G1 X366.447 Y57.287 Z-3.609 F1080
G1 X366.48 Y57.24 Z-3.612 F1080
G1 X366.519 Y57.198 Z-3.615 F1080
G1 X366.563 Y57.162 Z-3.618 F1080
G1 X366.613 Y57.133 Z-3.621 F1080
G1 X366.665 Y57.11 Z-3.624 F1080
G1 X366.721 Y57.095 Z-3.627 F1080
G1 X366.778 Y57.088 Z-3.631 F1080
G1 X366.835 Y57.089 Z-3.634 F1080
G1 X366.892 Y57.098 Z-3.637 F1080
G1 X366.947 Y57.114 Z-3.64 F1080
G1 X366.999 Y57.139 Z-3.643 F1080
G1 X367.047 Y57.17 Z-3.646 F1080
G1 X367.09 Y57.207 Z-3.649 F1080
G1 X367.128 Y57.25 Z-3.652 F1080
G1 X367.16 Y57.298 Z-3.655 F1080
G1 X367.184 Y57.35 Z-3.658 F1080
G1 X367.201 Y57.405 Z-3.662 F1080
G1 X367.211 Y57.462 Z-3.665 F1080
G1 X367.212 Y57.519 Z-3.668 F1080
G1 X367.205 Y57.576 Z-3.671 F1080
G1 X367.191 Y57.631 Z-3.674 F1080
G1 X367.169 Y57.684 Z-3.677 F1080
G1 X367.14 Y57.734 Z-3.68 F1080
G1 X367.104 Y57.779 Z-3.683 F1080
G1 X367.062 Y57.818 Z-3.686 F1080
G1 X367.016 Y57.852 Z-3.689 F1080
G1 X366.965 Y57.878 Z-3.692 F1080
G1 X366.911 Y57.897 Z-3.696 F1080
G1 X366.855 Y57.909 Z-3.699 F1080
G1 X366.797 Y57.912 Z-3.702 F1080
G1 X366.74 Y57.908 Z-3.705 F1080
G1 X366.684 Y57.896 Z-3.708 F1080
G1 X366.63 Y57.876 Z-3.711 F1080
G1 X366.58 Y57.849 Z-3.714 F1080
G1 X366.533 Y57.815 Z-3.717 F1080
G1 X366.492 Y57.775 Z-3.72 F1080
G1 X366.457 Y57.729 Z-3.723 F1080
G1 X366.429 Y57.68 Z-3.727 F1080
G1 X366.407 Y57.626 Z-3.73 F1080
G1 X366.394 Y57.571 Z-3.733 F1080
G1 X366.388 Y57.514 Z-3.736 F1080
G1 X366.39 Y57.456 Z-3.739 F1080
G1 X366.4 Y57.4 Z-3.742 F1080
G1 X366.418 Y57.345 Z-3.745 F1080
G1 X366.443 Y57.294 Z-3.748 F1080
G1 X366.475 Y57.246 Z-3.751 F1080
G1 X366.513 Y57.203 Z-3.754 F1080
G1 X366.557 Y57.166 Z-3.757 F1080
G1 X366.606 Y57.136 Z-3.761 F1080
G1 X366.658 Y57.113 Z-3.764 F1080
G1 X366.713 Y57.097 Z-3.767 F1080
G1 X366.77 Y57.089 Z-3.77 F1080
G1 X366.828 Y57.088 Z-3.773 F1080
G1 X366.884 Y57.096 Z-3.776 F1080
G1 X366.94 Y57.112 Z-3.779 F1080
G1 X366.992 Y57.135 Z-3.782 F1080
G1 X367.041 Y57.165 Z-3.785 F1080
G1 X367.085 Y57.202 Z-3.788 F1080
G1 X367.124 Y57.244 Z-3.792 F1080
G1 X367.156 Y57.292 Z-3.795 F1080
G1 X367.182 Y57.343 Z-3.798 F1080
G1 X367.2 Y57.398 Z-3.801 F1080
G1 X367.21 Y57.454 Z-3.804 F1080
G1 X367.212 Y57.511 Z-3.807 F1080
G1 X367.207 Y57.569 Z-3.81 F1080
G1 X367.193 Y57.624 Z-3.813 F1080
G1 X367.172 Y57.678 Z-3.816 F1080
G1 X367.144 Y57.728 Z-3.819 F1080
G1 X367.109 Y57.773 Z-3.822 F1080
G1 X367.068 Y57.813 Z-3.826 F1080
G1 X367.022 Y57.848 Z-3.829 F1080
G1 X366.972 Y57.875 Z-3.832 F1080
G1 X366.918 Y57.895 Z-3.835 F1080
G1 X366.862 Y57.908 Z-3.838 F1080
G1 X366.805 Y57.912 Z-3.841 F1080
G1 X366.748 Y57.909 Z-3.844 F1080
G1 X366.691 Y57.898 Z-3.847 F1080
G1 X366.637 Y57.879 Z-3.85 F1080
G1 X366.586 Y57.853 Z-3.853 F1080
G1 X366.539 Y57.82 Z-3.856 F1080
G1 X366.497 Y57.78 Z-3.86 F1080
G1 X366.461 Y57.736 Z-3.863 F1080
G1 X366.432 Y57.686 Z-3.866 F1080
G1 X366.41 Y57.633 Z-3.869 F1080
G1 X366.395 Y57.578 Z-3.872 F1080
G1 X366.388 Y57.521 Z-3.875 F1080
G1 X366.389 Y57.464 Z-3.878 F1080
G1 X366.398 Y57.407 Z-3.881 F1080
G1 X366.415 Y57.352 Z-3.884 F1080
G1 X366.439 Y57.3 Z-3.887 F1080
G1 X366.47 Y57.252 Z-3.891 F1080
G1 X366.508 Y57.209 Z-3.894 F1080
G1 X366.551 Y57.171 Z-3.897 F1080
G1 X366.599 Y57.14 Z-3.9 F1080
G1 X366.651 Y57.115 Z-3.903 F1080
G1 X366.706 Y57.098 Z-3.906 F1080
G1 X366.763 Y57.089 Z-3.909 F1080
G1 X366.82 Y57.088 Z-3.912 F1080
G1 X366.877 Y57.095 Z-3.915 F1080
G1 X366.933 Y57.109 Z-3.918 F1080
G1 X366.986 Y57.132 Z-3.921 F1080
G1 X367.035 Y57.161 Z-3.925 F1080
G1 X367.08 Y57.197 Z-3.928 F1080
G1 X367.119 Y57.238 Z-3.931 F1080
G1 X367.152 Y57.285 Z-3.934 F1080
G1 X367.179 Y57.336 Z-3.937 F1080
G1 X367.198 Y57.39 Z-3.94 F1080
G1 X367.209 Y57.447 Z-3.943 F1080
G1 X367.212 Y57.504 Z-3.946 F1080
G1 X367.208 Y57.561 Z-3.949 F1080
G1 X367.196 Y57.617 Z-3.952 F1080
G1 X367.175 Y57.671 Z-3.956 F1080
G1 X367.148 Y57.721 Z-3.959 F1080
G1 X367.114 Y57.768 Z-3.962 F1080
G1 X367.074 Y57.808 Z-3.965 F1080
G1 X367.028 Y57.844 Z-3.968 F1080
G1 X366.978 Y57.872 Z-3.971 F1080
G1 X366.925 Y57.893 Z-3.974 F1080
G1 X366.869 Y57.907 Z-3.977 F1080
G1 X366.812 Y57.912 Z-3.98 F1080
G1 X366.755 Y57.91 Z-3.983 F1080
G1 X366.698 Y57.9 Z-3.986 F1080
G1 X366.644 Y57.882 Z-3.99 F1080
G1 X366.593 Y57.857 Z-3.993 F1080
G1 X366.545 Y57.824 Z-3.996 F1080
G1 X366.503 Y57.786 Z-3.999 F1080
G1 X366.466 Y57.742 Z-4.002 F1080
G1 X366.435 Y57.693 Z-4.005 F1080
G1 X366.412 Y57.641 Z-4.008 F1080
G1 X366.396 Y57.585 Z-4.011 F1080
G1 X366.388 Y57.529 Z-4.014 F1080
G1 Y57.471 Z-4.017 F1080
G1 X366.396 Y57.414 Z-4.021 F1080
G1 X366.412 Y57.359 Z-4.024 F1080
G1 X366.436 Y57.307 Z-4.027 F1080
G1 X366.466 Y57.258 Z-4.03 F1080
G1 X366.503 Y57.214 Z-4.033 F1080
G1 X366.545 Y57.176 Z-4.036 F1080
G1 X366.593 Y57.143 Z-4.039 F1080
G1 X366.644 Y57.118 Z-4.042 F1080
G1 X366.699 Y57.1 Z-4.045 F1080
G1 X366.755 Y57.09 Z-4.048 F1080
G1 X366.813 Y57.088 Z-4.051 F1080
G1 X366.87 Y57.093 Z-4.055 F1080
G1 X366.925 Y57.107 Z-4.058 F1080
G1 X366.979 Y57.128 Z-4.061 F1080
G1 X367.029 Y57.157 Z-4.064 F1080
G1 X367.074 Y57.192 Z-4.067 F1080
G1 X367.114 Y57.233 Z-4.07 F1080
G1 X367.148 Y57.279 Z-4.073 F1080
G1 X367.176 Y57.329 Z-4.076 F1080
G1 X367.196 Y57.383 Z-4.079 F1080
G1 X367.208 Y57.439 Z-4.082 F1080
G1 X367.212 Y57.496 Z-4.086 F1080
G1 X367.209 Y57.554 Z-4.089 F1080
G1 X367.198 Y57.61 Z-4.092 F1080
G1 X367.178 Y57.664 Z-4.095 F1080
G1 X367.152 Y57.715 Z-4.098 F1080
G1 X367.119 Y57.762 Z-4.101 F1080
G1 X367.079 Y57.803 Z-4.104 F1080
G1 X367.035 Y57.839 Z-4.107 F1080
G1 X366.985 Y57.869 Z-4.11 F1080
G1 X366.932 Y57.891 Z-4.113 F1080
G1 X366.877 Y57.905 Z-4.116 F1080
G1 X366.82 Y57.912 Z-4.12 F1080
G1 X366.762 Y57.911 Z-4.123 F1080
G1 X366.706 Y57.902 Z-4.126 F1080
G1 X366.651 Y57.885 Z-4.129 F1080
G1 X366.599 Y57.86 Z-4.132 F1080
G1 X366.551 Y57.829 Z-4.135 F1080
G1 X366.508 Y57.791 Z-4.138 F1080
G1 X366.47 Y57.748 Z-4.141 F1080
G1 X366.439 Y57.7 Z-4.144 F1080
G1 X366.415 Y57.648 Z-4.147 F1080
G1 X366.398 Y57.593 Z-4.151 F1080
G1 X366.389 Y57.536 Z-4.154 F1080
G1 X366.388 Y57.479 Z-4.157 F1080
G1 X366.395 Y57.422 Z-4.16 F1080
G1 X366.41 Y57.366 Z-4.163 F1080
G1 X366.432 Y57.313 Z-4.166 F1080
G1 X366.462 Y57.264 Z-4.169 F1080
G1 X366.498 Y57.219 Z-4.172 F1080
G1 X366.539 Y57.18 Z-4.175 F1080
G1 X366.586 Y57.147 Z-4.178 F1080
G1 X366.637 Y57.121 Z-4.181 F1080
G1 X366.692 Y57.102 Z-4.185 F1080
G1 X366.748 Y57.091 Z-4.188 F1080
G1 X366.805 Y57.088 Z-4.191 F1080
G1 X366.862 Y57.092 Z-4.194 F1080
G1 X366.918 Y57.105 Z-4.197 F1080
G1 X366.972 Y57.125 Z-4.2 F1080
G1 X367.022 Y57.153 Z-4.203 F1080
G1 X367.068 Y57.187 Z-4.206 F1080
G1 X367.109 Y57.227 Z-4.209 F1080
G1 X367.144 Y57.273 Z-4.212 F1080
G1 X367.172 Y57.323 Z-4.216 F1080
G1 X367.193 Y57.376 Z-4.219 F1080
G1 X367.207 Y57.432 Z-4.222 F1080
G1 X367.212 Y57.489 Z-4.225 F1080
G1 X367.21 Y57.546 Z-4.228 F1080
G1 X367.199 Y57.603 Z-4.231 F1080
G1 X367.181 Y57.657 Z-4.234 F1080
G1 X367.156 Y57.709 Z-4.237 F1080
G1 X367.123 Y57.756 Z-4.24 F1080
G1 X367.085 Y57.798 Z-4.243 F1080
G1 X367.041 Y57.835 Z-4.246 F1080
G1 X366.992 Y57.865 Z-4.25 F1080
G1 X366.939 Y57.888 Z-4.253 F1080
G1 X366.884 Y57.904 Z-4.256 F1080
G1 X366.827 Y57.912 Z-4.259 F1080
G1 X366.77 Y57.911 Z-4.262 F1080
G1 X366.713 Y57.903 Z-4.265 F1080
G1 X366.658 Y57.887 Z-4.268 F1080
G1 X366.606 Y57.864 Z-4.271 F1080
G1 X366.557 Y57.833 Z-4.274 F1080
G1 X366.513 Y57.796 Z-4.277 F1080
G1 X366.475 Y57.754 Z-4.281 F1080
G1 X366.443 Y57.706 Z-4.284 F1080
G1 X366.418 Y57.655 Z-4.287 F1080
G1 X366.4 Y57.6 Z-4.29 F1080
G1 X366.39 Y57.543 Z-4.293 F1080
G1 X366.388 Y57.486 Z-4.296 F1080
G1 X366.394 Y57.429 Z-4.299 F1080
G1 X366.407 Y57.373 Z-4.302 F1080
G1 X366.429 Y57.32 Z-4.305 F1080
G1 X366.457 Y57.27 Z-4.308 F1080
G1 X366.493 Y57.225 Z-4.311 F1080
G1 X366.534 Y57.185 Z-4.315 F1080
G1 X366.58 Y57.151 Z-4.318 F1080
G1 X366.631 Y57.124 Z-4.321 F1080
G1 X366.684 Y57.104 Z-4.324 F1080
G1 X366.74 Y57.092 Z-4.327 F1080
G1 X366.798 Y57.088 Z-4.33 F1080
G1 X366.855 Y57.091 Z-4.333 F1080
G1 X366.911 Y57.103 Z-4.336 F1080
G1 X366.965 Y57.122 Z-4.339 F1080
G1 X367.016 Y57.149 Z-4.342 F1080
G1 X367.063 Y57.182 Z-4.346 F1080
G1 X367.104 Y57.222 Z-4.349 F1080
G1 X367.14 Y57.266 Z-4.352 F1080
G1 X367.169 Y57.316 Z-4.355 F1080
G1 X367.191 Y57.369 Z-4.358 F1080
G1 X367.206 Y57.424 Z-4.361 F1080
G1 X367.212 Y57.481 Z-4.364 F1080
G1 X367.211 Y57.539 Z-4.367 F1080
G1 X367.201 Y57.595 Z-4.37 F1080
G1 X367.184 Y57.65 Z-4.373 F1080
G1 X367.16 Y57.702 Z-4.376 F1080
G1 X367.128 Y57.75 Z-4.38 F1080
G1 X367.09 Y57.793 Z-4.383 F1080
G1 X367.047 Y57.831 Z-4.386 F1080
G1 X366.998 Y57.862 Z-4.389 F1080
G1 X366.946 Y57.886 Z-4.392 F1080
G1 X366.891 Y57.902 Z-4.395 F1080
G1 X366.835 Y57.911 Z-4.398 F1080
G1 X366.777 Y57.912 Z-4.401 F1080
G1 X366.72 Y57.905 Z-4.404 F1080
G1 X366.665 Y57.89 Z-4.407 F1080
G1 X366.612 Y57.867 Z-4.411 F1080
G1 X366.563 Y57.838 Z-4.414 F1080
G1 X366.518 Y57.802 Z-4.417 F1080
G1 X366.479 Y57.76 Z-4.42 F1080
G1 X366.446 Y57.713 Z-4.423 F1080
G1 X366.42 Y57.661 Z-4.426 F1080
G1 X366.402 Y57.607 Z-4.429 F1080
G1 X366.391 Y57.551 Z-4.432 F1080
G1 X366.388 Y57.494 Z-4.435 F1080
G1 X366.392 Y57.436 Z-4.438 F1080
G1 X366.405 Y57.38 Z-4.441 F1080
G1 X366.426 Y57.327 Z-4.445 F1080
G1 X366.453 Y57.277 Z-4.448 F1080
G1 X366.488 Y57.231 Z-4.451 F1080
G1 X366.528 Y57.19 Z-4.454 F1080
G1 X366.574 Y57.155 Z-4.457 F1080
G1 X366.624 Y57.127 Z-4.46 F1080
G1 X366.677 Y57.106 Z-4.463 F1080
G1 X366.733 Y57.093 Z-4.466 F1080
G1 X366.79 Y57.088 Z-4.469 F1080
G1 X366.848 Y57.09 Z-4.472 F1080
G1 X366.904 Y57.101 Z-4.476 F1080
G1 X366.958 Y57.119 Z-4.479 F1080
G1 X367.01 Y57.145 Z-4.482 F1080
G1 X367.057 Y57.177 Z-4.485 F1080
G1 X367.099 Y57.216 Z-4.488 F1080
G1 X367.136 Y57.26 Z-4.491 F1080
G1 X367.166 Y57.309 Z-4.494 F1080
G1 X367.189 Y57.362 Z-4.497 F1080
G1 X367.204 Y57.417 Z-4.5 F1080
G1 X367.212 Y57.474 Z-4.503 F1080
G1 X367.211 Y57.531 Z-4.506 F1080
G1 X367.203 Y57.588 Z-4.51 F1080
G1 X367.187 Y57.643 Z-4.513 F1080
G1 X367.163 Y57.696 Z-4.516 F1080
G1 X367.133 Y57.744 Z-4.519 F1080
G1 X367.095 Y57.788 Z-4.522 F1080
G1 X367.053 Y57.826 Z-4.525 F1080
G1 X367.005 Y57.858 Z-4.528 F1080
G1 X366.953 Y57.883 Z-4.531 F1080
G1 X366.899 Y57.901 Z-4.534 F1080
G1 X366.842 Y57.91 Z-4.537 F1080
G1 X366.785 Y57.912 Z-4.541 F1080
G1 X366.728 Y57.906 Z-4.544 F1080
G1 X366.672 Y57.892 Z-4.547 F1080
G1 X366.619 Y57.871 Z-4.55 F1080
G1 X366.569 Y57.842 Z-4.553 F1080
G1 X366.524 Y57.807 Z-4.556 F1080
G1 X366.484 Y57.765 Z-4.559 F1080
G1 X366.45 Y57.719 Z-4.562 F1080
G1 X366.423 Y57.668 Z-4.565 F1080
G1 X366.404 Y57.614 Z-4.568 F1080
G1 X366.392 Y57.558 Z-4.571 F1080
G1 X366.387 Y57.501 Z-4.575 F1080
G1 X366.391 Y57.444 Z-4.578 F1080
G1 X366.403 Y57.388 Z-4.581 F1080
G1 X366.423 Y57.334 Z-4.584 F1080
G1 X366.449 Y57.283 Z-4.587 F1080
G1 X366.483 Y57.236 Z-4.59 F1080
G1 X366.522 Y57.195 Z-4.593 F1080
G1 X366.567 Y57.159 Z-4.596 F1080
G1 X366.617 Y57.13 Z-4.599 F1080
G1 X366.67 Y57.108 Z-4.602 F1080
G1 X366.726 Y57.094 Z-4.606 F1080
G1 X366.783 Y57.088 Z-4.609 F1080
G1 X366.84 Y57.089 Z-4.612 F1080
G1 X366.897 Y57.099 Z-4.615 F1080
G1 X366.951 Y57.116 Z-4.618 F1080
G1 X367.003 Y57.141 Z-4.621 F1080
G1 X367.051 Y57.173 Z-4.624 F1080
G1 X367.094 Y57.211 Z-4.627 F1080
G1 X367.131 Y57.254 Z-4.63 F1080
G1 X367.162 Y57.303 Z-4.633 F1080
G1 X367.186 Y57.355 Z-4.636 F1080
G1 X367.203 Y57.41 Z-4.64 F1080
G1 X367.211 Y57.467 Z-4.643 F1080
G1 X367.212 Y57.524 Z-4.646 F1080
G1 X367.204 Y57.581 Z-4.649 F1080
G1 X367.189 Y57.636 Z-4.652 F1080
G1 X367.167 Y57.689 Z-4.655 F1080
G1 X367.137 Y57.738 Z-4.658 F1080
G1 X367.101 Y57.782 Z-4.661 F1080
G1 X367.059 Y57.821 Z-4.664 F1080
G1 X367.011 Y57.854 Z-4.667 F1080
G1 X366.96 Y57.88 Z-4.671 F1080
G1 X366.906 Y57.899 Z-4.674 F1080
G1 X366.85 Y57.91 Z-4.677 F1080
G1 X366.792 Y57.912 Z-4.68 F1080
G1 X366.735 Y57.907 Z-4.683 F1080
G1 X366.679 Y57.894 Z-4.686 F1080
G1 X366.626 Y57.874 Z-4.689 F1080
G1 X366.575 Y57.846 Z-4.692 F1080
G1 X366.53 Y57.812 Z-4.695 F1080
G1 X366.489 Y57.771 Z-4.698 F1080
G1 X366.454 Y57.725 Z-4.701 F1080
G1 X366.426 Y57.675 Z-4.705 F1080
G1 X366.406 Y57.622 Z-4.708 F1080
G1 X366.393 Y57.566 Z-4.711 F1080
G1 X366.388 Y57.509 Z-4.714 F1080
G1 X366.39 Y57.451 Z-4.717 F1080
G1 X366.401 Y57.395 Z-4.72 F1080
G1 X366.42 Y57.341 Z-4.723 F1080
G1 X366.445 Y57.289 Z-4.726 F1080
G1 X366.478 Y57.242 Z-4.729 F1080
G1 X366.517 Y57.2 Z-4.732 F1080
G1 X366.561 Y57.164 Z-4.736 F1080
G1 X366.61 Y57.134 Z-4.739 F1080
G1 X366.663 Y57.111 Z-4.742 F1080
G1 X366.718 Y57.096 Z-4.745 F1080
G1 X366.775 Y57.088 Z-4.748 F1080
G1 X366.833 Y57.089 Z-4.751 F1080
G1 X366.889 Y57.097 Z-4.754 F1080
G1 X366.944 Y57.114 Z-4.757 F1080
G1 X366.997 Y57.137 Z-4.76 F1080
G1 X367.045 Y57.168 Z-4.763 F1080
G1 X367.089 Y57.205 Z-4.766 F1080
G1 X367.127 Y57.248 Z-4.77 F1080
G1 X367.159 Y57.296 Z-4.773 F1080
G1 X367.183 Y57.348 Z-4.776 F1080
G1 X367.201 Y57.403 Z-4.779 F1080
G1 X367.21 Y57.459 Z-4.782 F1080
G1 X367.212 Y57.516 Z-4.785 F1080
G1 X367.206 Y57.573 Z-4.788 F1080
G1 X367.192 Y57.629 Z-4.791 F1080
G1 X367.17 Y57.682 Z-4.794 F1080
G1 X367.141 Y57.732 Z-4.797 F1080
G1 X367.106 Y57.777 Z-4.801 F1080
G1 X367.064 Y57.817 Z-4.804 F1080
G1 X367.018 Y57.85 Z-4.807 F1080
G1 X366.967 Y57.877 Z-4.81 F1080
G1 X366.913 Y57.897 Z-4.813 F1080
G1 X366.857 Y57.909 Z-4.816 F1080
G1 X366.8 Y57.913 Z-4.819 F1080
G1 X366.743 Y57.908 Z-4.822 F1080
G1 X366.686 Y57.897 Z-4.825 F1080
G1 X366.632 Y57.877 Z-4.828 F1080
G1 X366.582 Y57.85 Z-4.831 F1080
G1 X366.535 Y57.816 Z-4.835 F1080
G1 X366.494 Y57.777 Z-4.838 F1080
G1 X366.459 Y57.731 Z-4.841 F1080
G1 X366.43 Y57.682 Z-4.844 F1080
G1 X366.408 Y57.629 Z-4.847 F1080
G1 X366.394 Y57.573 Z-4.85 F1080
G1 X366.388 Y57.516 Z-4.853 F1080
G1 X366.39 Y57.459 Z-4.856 F1080
G1 X366.399 Y57.402 Z-4.859 F1080
G1 X366.417 Y57.347 Z-4.862 F1080
G1 X366.442 Y57.296 Z-4.866 F1080
G1 X366.473 Y57.248 Z-4.869 F1080
G1 X366.512 Y57.205 Z-4.872 F1080
G1 X366.555 Y57.168 Z-4.875 F1080
G1 X366.604 Y57.137 Z-4.878 F1080
G1 X366.656 Y57.113 Z-4.881 F1080
G1 X366.711 Y57.097 Z-4.884 F1080
G1 X366.768 Y57.089 Z-4.887 F1080
G1 X366.825 Y57.088 Z-4.89 F1080
G1 X366.882 Y57.096 Z-4.893 F1080
G1 X366.937 Y57.111 Z-4.896 F1080
G1 X366.99 Y57.134 Z-4.9 F1080
G1 X367.039 Y57.164 Z-4.903 F1080
G1 X367.083 Y57.2 Z-4.906 F1080
G1 X367.122 Y57.242 Z-4.909 F1080
G1 X367.155 Y57.29 Z-4.912 F1080
G1 X367.181 Y57.341 Z-4.915 F1080
G1 X367.199 Y57.395 Z-4.918 F1080
G1 X367.21 Y57.452 Z-4.921 F1080
G1 X367.212 Y57.509 Z-4.924 F1080
G1 X367.207 Y57.566 Z-4.927 F1080
G1 X367.194 Y57.622 Z-4.931 F1080
G1 X367.173 Y57.675 Z-4.934 F1080
G1 X367.145 Y57.726 Z-4.937 F1080
G1 X367.111 Y57.771 Z-4.94 F1080
G1 X367.07 Y57.812 Z-4.943 F1080
G1 X367.024 Y57.846 Z-4.946 F1080
G1 X366.974 Y57.874 Z-4.949 F1080
G1 X366.92 Y57.895 Z-4.952 F1080
G1 X366.864 Y57.907 Z-4.955 F1080
G1 X366.807 Y57.912 Z-4.958 F1080
G1 X366.75 Y57.909 Z-4.961 F1080
G1 X366.694 Y57.899 Z-4.965 F1080
G1 X366.639 Y57.88 Z-4.968 F1080
G1 X366.588 Y57.854 Z-4.971 F1080
G1 X366.541 Y57.821 Z-4.974 F1080
G1 X366.499 Y57.782 Z-4.977 F1080
G1 X366.463 Y57.738 Z-4.98 F1080
G1 X366.433 Y57.689 Z-4.983 F1080
G1 X366.41 Y57.636 Z-4.986 F1080
G1 X366.395 Y57.58 Z-4.989 F1080
G1 X366.388 Y57.523 Z-4.992 F1080
G1 X366.389 Y57.466 Z-4.995 F1080
G1 X366.398 Y57.409 Z-4.999 F1080
G1 X366.414 Y57.354 Z-5.002 F1080
G1 X366.438 Y57.302 Z-5.005 F1080
G1 X366.469 Y57.254 Z-5.008 F1080
G1 X366.506 Y57.21 Z-5.011 F1080
G1 X366.549 Y57.172 Z-5.014 F1080
G1 X366.597 Y57.141 Z-5.017 F1080
G1 X366.649 Y57.116 Z-5.02 F1080
G1 X366.704 Y57.099 Z-5.023 F1080
G1 X366.76 Y57.089 Z-5.026 F1080
G1 X366.818 Y57.088 Z-5.03 F1080
G1 X366.875 Y57.094 Z-5.033 F1080
G1 X366.93 Y57.109 Z-5.036 F1080
G1 X366.983 Y57.13 Z-5.039 F1080
G1 X367.033 Y57.159 Z-5.042 F1080
G1 X367.078 Y57.195 Z-5.045 F1080
G1 X367.117 Y57.237 Z-5.048 F1080
G1 X367.151 Y57.283 Z-5.051 F1080
G1 X367.178 Y57.334 Z-5.054 F1080
G1 X367.197 Y57.388 Z-5.057 F1080
G1 X367.209 Y57.444 Z-5.06 F1080
G1 X367.212 Y57.501 Z-5.064 F1080
G1 X367.208 Y57.559 Z-5.067 F1080
G1 X367.196 Y57.615 Z-5.07 F1080
G1 X367.176 Y57.669 Z-5.073 F1080
G1 X367.149 Y57.719 Z-5.076 F1080
G1 X367.116 Y57.766 Z-5.079 F1080
G1 X367.076 Y57.807 Z-5.082 F1080
G1 X367.03 Y57.842 Z-5.085 F1080
G1 X366.981 Y57.871 Z-5.088 F1080
G1 X366.927 Y57.892 Z-5.091 F1080
G1 X366.872 Y57.906 Z-5.095 F1080
G1 X366.815 Y57.912 Z-5.098 F1080
G1 X366.757 Y57.91 Z-5.101 F1080
G1 X366.701 Y57.9 Z-5.104 F1080
G1 X366.646 Y57.883 Z-5.107 F1080
G1 X366.595 Y57.858 Z-5.11 F1080
G1 X366.547 Y57.826 Z-5.113 F1080
G1 X366.504 Y57.788 Z-5.116 F1080
G1 X366.467 Y57.744 Z-5.119 F1080
G1 X366.437 Y57.695 Z-5.122 F1080
G1 X366.413 Y57.643 Z-5.125 F1080
G1 X366.397 Y57.588 Z-5.129 F1080
G1 X366.389 Y57.531 Z-5.132 F1080
G1 X366.388 Y57.474 Z-5.135 F1080
G1 X366.396 Y57.417 Z-5.138 F1080
G1 X366.411 Y57.361 Z-5.141 F1080
G1 X366.434 Y57.309 Z-5.144 F1080
G1 X366.464 Y57.26 Z-5.147 F1080
G1 X366.501 Y57.216 Z-5.15 F1080
G1 X366.543 Y57.177 Z-5.153 F1080
G1 X366.591 Y57.145 Z-5.156 F1080
G1 X366.642 Y57.119 Z-5.16 F1080
G1 X366.696 Y57.101 Z-5.163 F1080
G1 X366.753 Y57.09 Z-5.166 F1080
G1 X366.81 Y57.088 Z-5.169 F1080
G1 X366.867 Y57.093 Z-5.172 F1080
G1 X366.923 Y57.106 Z-5.175 F1080
G1 X366.977 Y57.127 Z-5.178 F1080
G1 X367.027 Y57.155 Z-5.181 F1080
G1 X367.072 Y57.19 Z-5.184 F1080
G1 X367.113 Y57.231 Z-5.187 F1080
G1 X367.147 Y57.277 Z-5.19 F1080
G1 X367.175 Y57.327 Z-5.194 F1080
G1 X367.195 Y57.381 Z-5.197 F1080
G1 X367.208 Y57.437 Z-5.2 F1080
G1 X367.212 Y57.494 Z-5.203 F1080
G1 X367.209 Y57.551 Z-5.206 F1080
G1 X367.198 Y57.608 Z-5.209 F1080
G1 X367.179 Y57.662 Z-5.212 F1080
G1 X367.153 Y57.713 Z-5.215 F1080
G1 X367.12 Y57.76 Z-5.218 F1080
G1 X367.081 Y57.802 Z-5.221 F1080
G1 X367.037 Y57.838 Z-5.225 F1080
G1 X366.987 Y57.867 Z-5.228 F1080
G1 X366.935 Y57.89 Z-5.231 F1080
G1 X366.879 Y57.905 Z-5.234 F1080
G1 X366.822 Y57.912 Z-5.237 F1080
G1 X366.765 Y57.911 Z-5.24 F1080
G1 X366.708 Y57.902 Z-5.243 F1080
G1 X366.653 Y57.886 Z-5.246 F1080
G1 X366.601 Y57.861 Z-5.249 F1080
G1 X366.553 Y57.83 Z-5.252 F1080
G1 X366.509 Y57.793 Z-5.255 F1080
G1 X366.472 Y57.75 Z-5.259 F1080
G1 X366.44 Y57.702 Z-5.262 F1080
G1 X366.416 Y57.65 Z-5.265 F1080
G1 X366.399 Y57.595 Z-5.268 F1080
G1 X366.389 Y57.538 Z-5.271 F1080
G1 X366.388 Y57.481 Z-5.274 F1080
G1 X366.395 Y57.424 Z-5.277 F1080
G1 X366.409 Y57.369 Z-5.28 F1080
G1 X366.431 Y57.316 Z-5.283 F1080
G1 X366.46 Y57.266 Z-5.286 F1080
G1 X366.496 Y57.221 Z-5.29 F1080
G1 X366.538 Y57.182 Z-5.293 F1080
G1 X366.584 Y57.148 Z-5.296 F1080
G1 X366.635 Y57.122 Z-5.299 F1080
G1 X366.689 Y57.103 Z-5.302 F1080
G1 X366.745 Y57.091 Z-5.305 F1080
G1 X366.803 Y57.088 Z-5.308 F1080
G1 X366.86 Y57.092 Z-5.311 F1080
G1 X366.916 Y57.104 Z-5.314 F1080
G1 X366.97 Y57.124 Z-5.317 F1080
G1 X367.02 Y57.151 Z-5.32 F1080
G1 X367.067 Y57.185 Z-5.324 F1080
G1 X367.108 Y57.225 Z-5.327 F1080
G1 X367.143 Y57.271 Z-5.33 F1080
G1 X367.171 Y57.32 Z-5.333 F1080
G1 X367.193 Y57.374 Z-5.336 F1080
G1 X367.206 Y57.429 Z-5.339 F1080
G1 X367.212 Y57.486 Z-5.342 F1080
G1 X367.21 Y57.544 Z-5.345 F1080
G1 X367.2 Y57.6 Z-5.348 F1080
G1 X367.182 Y57.655 Z-5.351 F1080
G1 X367.157 Y57.706 Z-5.355 F1080
G1 X367.125 Y57.754 Z-5.358 F1080
G1 X367.087 Y57.797 Z-5.361 F1080
G1 X367.043 Y57.834 Z-5.364 F1080
G1 X366.994 Y57.864 Z-5.367 F1080
G1 X366.942 Y57.887 Z-5.37 F1080
G1 X366.887 Y57.903 Z-5.373 F1080
G1 X366.83 Y57.911 Z-5.376 F1080
G1 X366.772 Y57.912 Z-5.379 F1080
G1 X366.715 Y57.904 Z-5.382 F1080
G1 X366.66 Y57.888 Z-5.385 F1080
G1 X366.608 Y57.865 Z-5.389 F1080
G1 X366.559 Y57.835 Z-5.392 F1080
G1 X366.515 Y57.798 Z-5.395 F1080
G1 X366.476 Y57.756 Z-5.398 F1080
G1 X366.444 Y57.708 Z-5.401 F1080
G1 X366.418 Y57.657 Z-5.404 F1080
G1 X366.4 Y57.602 Z-5.407 F1080
G1 X366.39 Y57.546 Z-5.41 F1080
G1 X366.388 Y57.489 Z-5.413 F1080
G1 X366.393 Y57.431 Z-5.416 F1080
G1 X366.407 Y57.376 Z-5.42 F1080
G1 X366.428 Y57.322 Z-5.423 F1080
G1 X366.456 Y57.272 Z-5.426 F1080
G1 X366.491 Y57.227 Z-5.429 F1080
G1 X366.532 Y57.187 Z-5.432 F1080
G1 X366.578 Y57.152 Z-5.435 F1080
G1 X366.628 Y57.125 Z-5.438 F1080
G1 X366.682 Y57.105 Z-5.441 F1080
G1 X366.738 Y57.092 Z-5.444 F1080
G1 X366.795 Y57.088 Z-5.447 F1080
G1 X366.853 Y57.091 Z-5.45 F1080
G1 X366.909 Y57.102 Z-5.454 F1080
G1 X366.963 Y57.121 Z-5.457 F1080
G1 X367.014 Y57.147 Z-5.46 F1080
G1 X367.061 Y57.18 Z-5.463 F1080
G1 X367.103 Y57.22 Z-5.466 F1080
G1 X367.139 Y57.264 Z-5.469 F1080
G1 X367.168 Y57.314 Z-5.472 F1080
G1 X367.19 Y57.367 Z-5.475 F1080
G1 X367.205 Y57.422 Z-5.478 F1080
G1 X367.212 Y57.479 Z-5.481 F1080
G1 X367.211 Y57.536 Z-5.485 F1080
G1 X367.202 Y57.593 Z-5.488 F1080
G1 X367.185 Y57.648 Z-5.491 F1080
G1 X367.161 Y57.7 Z-5.494 F1080
G1 X367.13 Y57.748 Z-5.497 F1080
G1 X367.092 Y57.791 Z-5.5 F1080
G3 X366.508 Y57.209 I-0.292 J-0.291 F1080
G3 X367.092 Y57.791 I0.292 J0.291 F1080
; MOVEMENT_LEAD_OUT
G3 X366.8 Y57.792 I-0.146 J-0.146 F1080
G1 X366.688 Y57.68 F1080
G1 X366.653 Y57.644 Z-5.496 F1080
G1 X366.618 Y57.61 Z-5.484 F1080
G1 X366.586 Y57.578 Z-5.465 F1080
G1 X366.556 Y57.548 Z-5.439 F1080
G1 X366.529 Y57.521 Z-5.407 F1080
G1 X366.506 Y57.498 Z-5.369 F1080
G1 X366.488 Y57.48 Z-5.327 F1080
G1 X366.474 Y57.466 Z-5.281 F1080
G1 X366.466 Y57.458 Z-5.232 F1080
G1 X366.463 Y57.455 Z-5.182 F1080
; MOVEMENT_CUTTING
G1 Z5 F1080
G1 X324.868 Y50 F1080
G1 Z1.683 F1080
; MOVEMENT_LEAD_IN
G1 Z0 F1080
G1 X324.812 Y49.944 F1080
G3 X324.868 Y49.888 I0.056 F1080
; MOVEMENT_CUTTING
G1 X324.898 Y49.891 Z-0.005 F1080
G1 X324.925 Y49.903 Z-0.01 F1080
G1 X324.949 Y49.922 Z-0.015 F1080
G1 X324.967 Y49.946 Z-0.02 F1080
G1 X324.978 Y49.974 Z-0.025 F1080
G1 X324.981 Y50.003 Z-0.03 F1080
G1 X324.976 Y50.033 Z-0.035 F1080
G1 X324.963 Y50.06 Z-0.04 F1080
G1 X324.944 Y50.083 Z-0.045 F1080
G1 X324.92 Y50.1 Z-0.05 F1080
G1 X324.891 Y50.11 Z-0.055 F1080
G1 X324.862 Y50.112 Z-0.06 F1080
G1 X324.832 Y50.107 Z-0.066 F1080
G1 X324.805 Y50.093 Z-0.071 F1080
G1 X324.783 Y50.073 Z-0.076 F1080
G1 X324.767 Y50.048 Z-0.081 F1080
G1 X324.758 Y50.02 Z-0.086 F1080
G1 X324.756 Y49.99 Z-0.091 F1080
G1 X324.763 Y49.961 Z-0.096 F1080
G1 X324.777 Y49.934 Z-0.101 F1080
G1 X324.797 Y49.913 Z-0.106 F1080
G1 X324.823 Y49.897 Z-0.111 F1080
G1 X324.852 Y49.889 Z-0.116 F1080
G1 X324.882 Y49.888 Z-0.121 F1080
G1 X324.911 Y49.896 Z-0.126 F1080
G1 X324.937 Y49.911 Z-0.131 F1080
G1 X324.958 Y49.932 Z-0.136 F1080
G1 X324.973 Y49.958 Z-0.141 F1080
G1 X324.98 Y49.987 Z-0.146 F1080
G1 Y50.017 Z-0.151 F1080
G1 X324.971 Y50.045 Z-0.156 F1080
G1 X324.956 Y50.071 Z-0.161 F1080
G1 X324.934 Y50.091 Z-0.166 F1080
G1 X324.907 Y50.106 Z-0.171 F1080
G1 X324.878 Y50.112 Z-0.176 F1080
G1 X324.848 Y50.111 Z-0.181 F1080
G1 X324.82 Y50.101 Z-0.187 F1080
G1 X324.795 Y50.085 Z-0.192 F1080
G1 X324.775 Y50.063 Z-0.197 F1080
G1 X324.762 Y50.036 Z-0.202 F1080
G1 X324.756 Y50.006 Z-0.207 F1080
G1 X324.758 Y49.977 Z-0.212 F1080
G1 X324.768 Y49.948 Z-0.217 F1080
G1 X324.785 Y49.924 Z-0.222 F1080
G1 X324.808 Y49.905 Z-0.227 F1080
G1 X324.836 Y49.892 Z-0.232 F1080
G1 X324.865 Y49.888 Z-0.237 F1080
G1 X324.895 Y49.891 Z-0.242 F1080
G1 X324.923 Y49.902 Z-0.247 F1080
G1 X324.947 Y49.919 Z-0.252 F1080
G1 X324.965 Y49.943 Z-0.257 F1080
G1 X324.977 Y49.971 Z-0.262 F1080
G1 X324.981 Y50 Z-0.267 F1080
G1 X324.977 Y50.03 Z-0.272 F1080
G1 X324.965 Y50.057 Z-0.277 F1080
G1 X324.946 Y50.081 Z-0.282 F1080
G1 X324.922 Y50.099 Z-0.287 F1080
G1 X324.894 Y50.109 Z-0.292 F1080
G1 X324.865 Y50.112 Z-0.297 F1080
G1 X324.835 Y50.108 Z-0.302 F1080
G1 X324.808 Y50.095 Z-0.308 F1080
G1 X324.785 Y50.076 Z-0.313 F1080
G1 X324.768 Y50.051 Z-0.318 F1080
G1 X324.758 Y50.023 Z-0.323 F1080
G1 X324.756 Y49.993 Z-0.328 F1080
G1 X324.762 Y49.964 Z-0.333 F1080
G1 X324.775 Y49.937 Z-0.338 F1080
G1 X324.795 Y49.915 Z-0.343 F1080
G1 X324.82 Y49.898 Z-0.348 F1080
G1 X324.849 Y49.889 Z-0.353 F1080
G1 X324.879 Y49.888 Z-0.358 F1080
G1 X324.908 Y49.895 Z-0.363 F1080
G1 X324.934 Y49.909 Z-0.368 F1080
G1 X324.956 Y49.929 Z-0.373 F1080
G1 X324.971 Y49.955 Z-0.378 F1080
G1 X324.98 Y49.984 Z-0.383 F1080
G1 Y50.014 Z-0.388 F1080
G1 X324.972 Y50.043 Z-0.393 F1080
G1 X324.957 Y50.069 Z-0.398 F1080
G1 X324.936 Y50.09 Z-0.403 F1080
G1 X324.91 Y50.104 Z-0.408 F1080
G1 X324.881 Y50.112 Z-0.413 F1080
G1 X324.851 Y50.111 Z-0.418 F1080
G1 X324.823 Y50.103 Z-0.423 F1080
G1 X324.797 Y50.087 Z-0.429 F1080
G1 X324.777 Y50.065 Z-0.434 F1080
G1 X324.763 Y50.039 Z-0.439 F1080
G1 X324.756 Y50.01 Z-0.444 F1080
G1 X324.758 Y49.98 Z-0.449 F1080
G1 X324.767 Y49.951 Z-0.454 F1080
G1 X324.783 Y49.926 Z-0.459 F1080
G1 X324.806 Y49.906 Z-0.464 F1080
G1 X324.833 Y49.893 Z-0.469 F1080
G1 X324.862 Y49.888 Z-0.474 F1080
G1 X324.892 Y49.89 Z-0.479 F1080
G1 X324.92 Y49.9 Z-0.484 F1080
G1 X324.945 Y49.917 Z-0.489 F1080
G1 X324.964 Y49.94 Z-0.494 F1080
G1 X324.976 Y49.968 Z-0.499 F1080
G1 X324.981 Y49.997 Z-0.504 F1080
G1 X324.977 Y50.027 Z-0.509 F1080
G1 X324.967 Y50.055 Z-0.514 F1080
G1 X324.949 Y50.079 Z-0.519 F1080
G1 X324.925 Y50.097 Z-0.524 F1080
G1 X324.897 Y50.109 Z-0.529 F1080
G1 X324.868 Y50.112 Z-0.534 F1080
G1 X324.838 Y50.108 Z-0.539 F1080
G1 X324.811 Y50.097 Z-0.544 F1080
G1 X324.787 Y50.078 Z-0.549 F1080
G1 X324.769 Y50.054 Z-0.555 F1080
G1 X324.759 Y50.026 Z-0.56 F1080
G1 X324.756 Y49.996 Z-0.565 F1080
G1 X324.761 Y49.967 Z-0.57 F1080
G1 X324.773 Y49.939 Z-0.575 F1080
G1 X324.793 Y49.917 Z-0.58 F1080
G1 X324.817 Y49.9 Z-0.585 F1080
G1 X324.846 Y49.89 Z-0.59 F1080
G1 X324.875 Y49.888 Z-0.595 F1080
G1 X324.905 Y49.894 Z-0.6 F1080
G1 X324.932 Y49.907 Z-0.605 F1080
G1 X324.954 Y49.927 Z-0.61 F1080
G1 X324.97 Y49.952 Z-0.615 F1080
G1 X324.979 Y49.981 Z-0.62 F1080
G1 X324.98 Y50.011 Z-0.625 F1080
G1 X324.974 Y50.04 Z-0.63 F1080
G1 X324.959 Y50.066 Z-0.635 F1080
G1 X324.939 Y50.088 Z-0.64 F1080
G1 X324.913 Y50.103 Z-0.645 F1080
G1 X324.884 Y50.111 Z-0.65 F1080
G1 X324.854 Y50.112 Z-0.655 F1080
G1 X324.825 Y50.104 Z-0.66 F1080
G1 X324.799 Y50.089 Z-0.665 F1080
G1 X324.778 Y50.068 Z-0.67 F1080
G1 X324.764 Y50.042 Z-0.676 F1080
G1 X324.756 Y50.013 Z-0.681 F1080
G1 X324.757 Y49.983 Z-0.686 F1080
G1 X324.766 Y49.954 Z-0.691 F1080
G1 X324.781 Y49.929 Z-0.696 F1080
G1 X324.803 Y49.908 Z-0.701 F1080
G1 X324.83 Y49.894 Z-0.706 F1080
G1 X324.859 Y49.888 Z-0.711 F1080
G1 X324.889 Y49.889 Z-0.716 F1080
G1 X324.917 Y49.899 Z-0.721 F1080
G1 X324.942 Y49.915 Z-0.726 F1080
G1 X324.962 Y49.938 Z-0.731 F1080
G1 X324.975 Y49.965 Z-0.736 F1080
G1 X324.981 Y49.994 Z-0.741 F1080
G1 X324.978 Y50.024 Z-0.746 F1080
G1 X324.968 Y50.052 Z-0.751 F1080
G1 X324.951 Y50.076 Z-0.756 F1080
G1 X324.928 Y50.096 Z-0.761 F1080
G1 X324.9 Y50.108 Z-0.766 F1080
G1 X324.871 Y50.112 Z-0.771 F1080
G1 X324.841 Y50.109 Z-0.776 F1080
G1 X324.813 Y50.098 Z-0.781 F1080
G1 X324.789 Y50.08 Z-0.786 F1080
G1 X324.771 Y50.057 Z-0.791 F1080
G1 X324.76 Y50.029 Z-0.797 F1080
G1 X324.756 Y49.999 Z-0.802 F1080
G1 X324.76 Y49.97 Z-0.807 F1080
G1 X324.772 Y49.942 Z-0.812 F1080
G1 X324.79 Y49.919 Z-0.817 F1080
G1 X324.815 Y49.901 Z-0.822 F1080
G1 X324.843 Y49.89 Z-0.827 F1080
G1 X324.872 Y49.888 Z-0.832 F1080
G1 X324.902 Y49.893 Z-0.837 F1080
G1 X324.929 Y49.905 Z-0.842 F1080
G1 X324.952 Y49.925 Z-0.847 F1080
G1 X324.969 Y49.949 Z-0.852 F1080
G1 X324.979 Y49.978 Z-0.857 F1080
G1 X324.981 Y50.007 Z-0.862 F1080
G1 X324.975 Y50.037 Z-0.867 F1080
G1 X324.961 Y50.064 Z-0.872 F1080
G1 X324.941 Y50.086 Z-0.877 F1080
G1 X324.916 Y50.102 Z-0.882 F1080
G1 X324.887 Y50.111 Z-0.887 F1080
G1 X324.857 Y50.112 Z-0.892 F1080
G1 X324.828 Y50.105 Z-0.897 F1080
G1 X324.802 Y50.091 Z-0.902 F1080
G1 X324.78 Y50.07 Z-0.907 F1080
G1 X324.765 Y50.045 Z-0.912 F1080
G1 X324.757 Y50.016 Z-0.918 F1080
G1 Y49.986 Z-0.923 F1080
G1 X324.764 Y49.957 Z-0.928 F1080
G1 X324.779 Y49.931 Z-0.933 F1080
G1 X324.801 Y49.91 Z-0.938 F1080
G1 X324.827 Y49.895 Z-0.943 F1080
G1 X324.856 Y49.888 Z-0.948 F1080
G1 X324.886 Y49.889 Z-0.953 F1080
G1 X324.914 Y49.897 Z-0.958 F1080
G1 X324.94 Y49.913 Z-0.963 F1080
G1 X324.96 Y49.935 Z-0.968 F1080
G1 X324.974 Y49.962 Z-0.973 F1080
G1 X324.98 Y49.991 Z-0.978 F1080
G1 X324.979 Y50.021 Z-0.983 F1080
G1 X324.969 Y50.049 Z-0.988 F1080
G1 X324.953 Y50.074 Z-0.993 F1080
G1 X324.93 Y50.094 Z-0.998 F1080
G1 X324.903 Y50.107 Z-1.003 F1080
G1 X324.874 Y50.112 Z-1.008 F1080
G1 X324.844 Y50.11 Z-1.013 F1080
G1 X324.816 Y50.1 Z-1.018 F1080
G1 X324.792 Y50.082 Z-1.023 F1080
G1 X324.773 Y50.059 Z-1.028 F1080
G1 X324.76 Y50.032 Z-1.033 F1080
G1 X324.756 Y50.002 Z-1.038 F1080
G1 X324.759 Y49.973 Z-1.044 F1080
G1 X324.77 Y49.945 Z-1.049 F1080
G1 X324.788 Y49.921 Z-1.054 F1080
G1 X324.812 Y49.903 Z-1.059 F1080
G1 X324.84 Y49.891 Z-1.064 F1080
G1 X324.869 Y49.888 Z-1.069 F1080
G1 X324.899 Y49.892 Z-1.074 F1080
G1 X324.926 Y49.904 Z-1.079 F1080
G1 X324.95 Y49.922 Z-1.084 F1080
G1 X324.967 Y49.947 Z-1.089 F1080
G1 X324.978 Y49.975 Z-1.094 F1080
G1 X324.981 Y50.004 Z-1.099 F1080
G1 X324.976 Y50.034 Z-1.104 F1080
G1 X324.963 Y50.061 Z-1.109 F1080
G1 X324.943 Y50.084 Z-1.114 F1080
G1 X324.919 Y50.101 Z-1.119 F1080
G1 X324.89 Y50.11 Z-1.124 F1080
G1 X324.861 Y50.112 Z-1.129 F1080
G1 X324.831 Y50.106 Z-1.134 F1080
G1 X324.805 Y50.093 Z-1.139 F1080
G1 X324.782 Y50.073 Z-1.144 F1080
G1 X324.766 Y50.047 Z-1.149 F1080
G1 X324.757 Y50.019 Z-1.154 F1080
G1 X324.756 Y49.989 Z-1.159 F1080
G1 X324.763 Y49.96 Z-1.165 F1080
G1 X324.777 Y49.934 Z-1.17 F1080
G1 X324.798 Y49.912 Z-1.175 F1080
G1 X324.824 Y49.897 Z-1.18 F1080
G1 X324.853 Y49.889 Z-1.185 F1080
G1 X324.883 Y49.888 Z-1.19 F1080
G1 X324.912 Y49.896 Z-1.195 F1080
G1 X324.937 Y49.911 Z-1.2 F1080
G1 X324.958 Y49.933 Z-1.205 F1080
G1 X324.973 Y49.959 Z-1.21 F1080
G1 X324.98 Y49.988 Z-1.215 F1080
G1 X324.979 Y50.018 Z-1.22 F1080
G1 X324.971 Y50.046 Z-1.225 F1080
G1 X324.955 Y50.072 Z-1.23 F1080
G1 X324.933 Y50.092 Z-1.235 F1080
G1 X324.906 Y50.106 Z-1.24 F1080
G1 X324.877 Y50.112 Z-1.245 F1080
G1 X324.847 Y50.111 Z-1.25 F1080
G1 X324.819 Y50.101 Z-1.255 F1080
G1 X324.794 Y50.084 Z-1.26 F1080
G1 X324.774 Y50.062 Z-1.265 F1080
G1 X324.761 Y50.035 Z-1.27 F1080
G1 X324.756 Y50.005 Z-1.275 F1080
G1 X324.758 Y49.976 Z-1.28 F1080
G1 X324.769 Y49.948 Z-1.286 F1080
G1 X324.786 Y49.923 Z-1.291 F1080
G1 X324.809 Y49.904 Z-1.296 F1080
G1 X324.837 Y49.892 Z-1.301 F1080
G1 X324.866 Y49.888 Z-1.306 F1080
G1 X324.896 Y49.891 Z-1.311 F1080
G1 X324.924 Y49.902 Z-1.316 F1080
G1 X324.948 Y49.92 Z-1.321 F1080
G1 X324.966 Y49.944 Z-1.326 F1080
G1 X324.977 Y49.972 Z-1.331 F1080
G1 X324.981 Y50.001 Z-1.336 F1080
G1 X324.976 Y50.031 Z-1.341 F1080
G1 X324.964 Y50.058 Z-1.346 F1080
G1 X324.946 Y50.082 Z-1.351 F1080
G1 X324.921 Y50.099 Z-1.356 F1080
G1 X324.893 Y50.11 Z-1.361 F1080
G1 X324.864 Y50.112 Z-1.366 F1080
G1 X324.834 Y50.107 Z-1.371 F1080
G1 X324.807 Y50.094 Z-1.376 F1080
G1 X324.784 Y50.075 Z-1.381 F1080
G1 X324.768 Y50.05 Z-1.386 F1080
G1 X324.758 Y50.022 Z-1.391 F1080
G1 X324.756 Y49.992 Z-1.396 F1080
G1 X324.762 Y49.963 Z-1.401 F1080
G1 X324.776 Y49.936 Z-1.407 F1080
G1 X324.796 Y49.914 Z-1.412 F1080
G1 X324.821 Y49.898 Z-1.417 F1080
G1 X324.85 Y49.889 Z-1.422 F1080
G1 X324.88 Y49.888 Z-1.427 F1080
G1 X324.909 Y49.895 Z-1.432 F1080
G1 X324.935 Y49.909 Z-1.437 F1080
G1 X324.956 Y49.93 Z-1.442 F1080
G1 X324.972 Y49.956 Z-1.447 F1080
G1 X324.98 Y49.985 Z-1.452 F1080
G1 Y50.015 Z-1.457 F1080
G1 X324.972 Y50.044 Z-1.462 F1080
G1 X324.957 Y50.069 Z-1.467 F1080
G1 X324.935 Y50.09 Z-1.472 F1080
G1 X324.909 Y50.105 Z-1.477 F1080
G1 X324.88 Y50.112 Z-1.482 F1080
G1 X324.85 Y50.111 Z-1.487 F1080
G1 X324.822 Y50.102 Z-1.492 F1080
G1 X324.796 Y50.086 Z-1.497 F1080
G1 X324.776 Y50.064 Z-1.502 F1080
G1 X324.762 Y50.038 Z-1.507 F1080
G1 X324.756 Y50.009 Z-1.512 F1080
G1 X324.758 Y49.979 Z-1.517 F1080
G1 X324.767 Y49.95 Z-1.522 F1080
G1 X324.784 Y49.925 Z-1.527 F1080
G1 X324.807 Y49.906 Z-1.533 F1080
G1 X324.834 Y49.893 Z-1.538 F1080
G1 X324.863 Y49.888 Z-1.543 F1080
G1 X324.893 Y49.89 Z-1.548 F1080
G1 X324.921 Y49.901 Z-1.553 F1080
G1 X324.945 Y49.918 Z-1.558 F1080
G1 X324.964 Y49.941 Z-1.563 F1080
G1 X324.976 Y49.969 Z-1.568 F1080
G1 X324.981 Y49.998 Z-1.573 F1080
G1 X324.977 Y50.028 Z-1.578 F1080
G1 X324.966 Y50.056 Z-1.583 F1080
G1 X324.948 Y50.079 Z-1.588 F1080
G1 X324.924 Y50.098 Z-1.593 F1080
G1 X324.896 Y50.109 Z-1.598 F1080
G1 X324.867 Y50.112 Z-1.603 F1080
G1 X324.837 Y50.108 Z-1.608 F1080
G1 X324.81 Y50.096 Z-1.613 F1080
G1 X324.786 Y50.077 Z-1.618 F1080
G1 X324.769 Y50.053 Z-1.623 F1080
G1 X324.759 Y50.025 Z-1.628 F1080
G1 X324.756 Y49.995 Z-1.633 F1080
G1 X324.761 Y49.966 Z-1.638 F1080
G1 X324.774 Y49.939 Z-1.643 F1080
G1 X324.793 Y49.916 Z-1.648 F1080
G1 X324.818 Y49.899 Z-1.654 F1080
G1 X324.847 Y49.89 Z-1.659 F1080
G1 X324.876 Y49.888 Z-1.664 F1080
G1 X324.906 Y49.894 Z-1.669 F1080
G1 X324.932 Y49.908 Z-1.674 F1080
G1 X324.954 Y49.928 Z-1.679 F1080
G1 X324.97 Y49.953 Z-1.684 F1080
G1 X324.979 Y49.982 Z-1.689 F1080
G1 X324.98 Y50.012 Z-1.694 F1080
G1 X324.973 Y50.041 Z-1.699 F1080
G1 X324.959 Y50.067 Z-1.704 F1080
G1 X324.938 Y50.088 Z-1.709 F1080
G1 X324.912 Y50.104 Z-1.714 F1080
G1 X324.883 Y50.111 Z-1.719 F1080
G1 X324.853 Y50.112 Z-1.724 F1080
G1 X324.824 Y50.104 Z-1.729 F1080
G1 X324.799 Y50.088 Z-1.734 F1080
G1 X324.778 Y50.067 Z-1.739 F1080
G1 X324.763 Y50.041 Z-1.744 F1080
G1 X324.756 Y50.012 Z-1.749 F1080
G1 X324.757 Y49.982 Z-1.754 F1080
G1 X324.766 Y49.953 Z-1.759 F1080
G1 X324.782 Y49.928 Z-1.764 F1080
G1 X324.804 Y49.908 Z-1.769 F1080
G1 X324.831 Y49.894 Z-1.775 F1080
G1 X324.86 Y49.888 Z-1.78 F1080
G1 X324.89 Y49.89 Z-1.785 F1080
G1 X324.918 Y49.899 Z-1.79 F1080
G1 X324.943 Y49.916 Z-1.795 F1080
G1 X324.962 Y49.939 Z-1.8 F1080
G1 X324.975 Y49.966 Z-1.805 F1080
G1 X324.981 Y49.995 Z-1.81 F1080
G1 X324.978 Y50.025 Z-1.815 F1080
G1 X324.968 Y50.053 Z-1.82 F1080
G1 X324.95 Y50.077 Z-1.825 F1080
G1 X324.927 Y50.096 Z-1.83 F1080
G1 X324.899 Y50.108 Z-1.835 F1080
G1 X324.87 Y50.112 Z-1.84 F1080
G1 X324.84 Y50.109 Z-1.845 F1080
G1 X324.812 Y50.098 Z-1.85 F1080
G1 X324.789 Y50.079 Z-1.855 F1080
G1 X324.771 Y50.056 Z-1.86 F1080
G1 X324.759 Y50.028 Z-1.865 F1080
G1 X324.756 Y49.998 Z-1.87 F1080
G1 X324.76 Y49.969 Z-1.875 F1080
G1 X324.772 Y49.941 Z-1.88 F1080
G1 X324.791 Y49.918 Z-1.885 F1080
G1 X324.816 Y49.901 Z-1.89 F1080
G1 X324.844 Y49.89 Z-1.896 F1080
G1 X324.873 Y49.888 Z-1.901 F1080
G1 X324.903 Y49.893 Z-1.906 F1080
G1 X324.93 Y49.906 Z-1.911 F1080
G1 X324.952 Y49.925 Z-1.916 F1080
G1 X324.969 Y49.95 Z-1.921 F1080
G1 X324.979 Y49.979 Z-1.926 F1080
G1 X324.98 Y50.008 Z-1.931 F1080
G1 X324.974 Y50.038 Z-1.936 F1080
G1 X324.961 Y50.064 Z-1.941 F1080
G1 X324.94 Y50.086 Z-1.946 F1080
G1 X324.915 Y50.102 Z-1.951 F1080
G1 X324.886 Y50.111 Z-1.956 F1080
G1 X324.856 Y50.112 Z-1.961 F1080
G1 X324.827 Y50.105 Z-1.966 F1080
G1 X324.801 Y50.09 Z-1.971 F1080
G1 X324.78 Y50.069 Z-1.976 F1080
G1 X324.765 Y50.044 Z-1.981 F1080
G1 X324.757 Y50.015 Z-1.986 F1080
G1 Y49.985 Z-1.991 F1080
G1 X324.765 Y49.956 Z-1.996 F1080
G1 X324.78 Y49.93 Z-2.001 F1080
G1 X324.801 Y49.909 Z-2.006 F1080
G1 X324.828 Y49.895 Z-2.011 F1080
G1 X324.857 Y49.888 Z-2.016 F1080
G1 X324.887 Y49.889 Z-2.022 F1080
G1 X324.915 Y49.898 Z-2.027 F1080
G1 X324.941 Y49.914 Z-2.032 F1080
G1 X324.961 Y49.936 Z-2.037 F1080
G1 X324.974 Y49.963 Z-2.042 F1080
G1 X324.98 Y49.992 Z-2.047 F1080
G1 X324.979 Y50.022 Z-2.052 F1080
G1 X324.969 Y50.05 Z-2.057 F1080
G1 X324.952 Y50.075 Z-2.062 F1080
G1 X324.929 Y50.094 Z-2.067 F1080
G1 X324.902 Y50.107 Z-2.072 F1080
G1 X324.873 Y50.112 Z-2.077 F1080
G1 X324.843 Y50.11 Z-2.082 F1080
G1 X324.815 Y50.099 Z-2.087 F1080
G1 X324.791 Y50.082 Z-2.092 F1080
G1 X324.772 Y50.058 Z-2.097 F1080
G1 X324.76 Y50.031 Z-2.102 F1080
G1 X324.756 Y50.001 Z-2.107 F1080
G1 X324.759 Y49.972 Z-2.112 F1080
G1 X324.771 Y49.944 Z-2.117 F1080
G1 X324.789 Y49.92 Z-2.122 F1080
G1 X324.813 Y49.902 Z-2.127 F1080
G1 X324.841 Y49.891 Z-2.132 F1080
G1 X324.87 Y49.888 Z-2.137 F1080
G1 X324.9 Y49.892 Z-2.143 F1080
G1 X324.927 Y49.904 Z-2.148 F1080
G1 X324.95 Y49.923 Z-2.153 F1080
G1 X324.968 Y49.947 Z-2.158 F1080
G1 X324.978 Y49.976 Z-2.163 F1080
G1 X324.981 Y50.005 Z-2.168 F1080
G1 X324.975 Y50.035 Z-2.173 F1080
G1 X324.962 Y50.062 Z-2.178 F1080
G1 X324.943 Y50.084 Z-2.183 F1080
G1 X324.918 Y50.101 Z-2.188 F1080
G1 X324.889 Y50.11 Z-2.193 F1080
G1 X324.86 Y50.112 Z-2.198 F1080
G1 X324.83 Y50.106 Z-2.203 F1080
G1 X324.804 Y50.092 Z-2.208 F1080
G1 X324.782 Y50.072 Z-2.213 F1080
G1 X324.766 Y50.046 Z-2.218 F1080
G1 X324.757 Y50.018 Z-2.223 F1080
G1 X324.756 Y49.988 Z-2.228 F1080
G1 X324.764 Y49.959 Z-2.233 F1080
G1 X324.778 Y49.933 Z-2.238 F1080
G1 X324.799 Y49.911 Z-2.243 F1080
G1 X324.825 Y49.896 Z-2.248 F1080
G1 X324.854 Y49.888 Z-2.253 F1080
G1 X324.884 Y49.889 Z-2.258 F1080
G1 X324.913 Y49.897 Z-2.264 F1080
G1 X324.938 Y49.912 Z-2.269 F1080
G1 X324.959 Y49.933 Z-2.274 F1080
G1 X324.973 Y49.96 Z-2.279 F1080
G1 X324.98 Y49.989 Z-2.284 F1080
G1 X324.979 Y50.019 Z-2.289 F1080
G1 X324.97 Y50.047 Z-2.294 F1080
G1 X324.954 Y50.073 Z-2.299 F1080
G1 X324.932 Y50.093 Z-2.304 F1080
G1 X324.905 Y50.106 Z-2.309 F1080
G1 X324.876 Y50.112 Z-2.314 F1080
G1 X324.846 Y50.11 Z-2.319 F1080
G1 X324.818 Y50.101 Z-2.324 F1080
G1 X324.793 Y50.084 Z-2.329 F1080
G1 X324.774 Y50.061 Z-2.334 F1080
G1 X324.761 Y50.034 Z-2.339 F1080
G1 X324.756 Y50.004 Z-2.344 F1080
G1 X324.759 Y49.975 Z-2.349 F1080
G1 X324.769 Y49.947 Z-2.354 F1080
G1 X324.787 Y49.922 Z-2.359 F1080
G1 X324.81 Y49.904 Z-2.364 F1080
G1 X324.838 Y49.892 Z-2.369 F1080
G1 X324.867 Y49.888 Z-2.374 F1080
G1 X324.897 Y49.891 Z-2.379 F1080
G1 X324.925 Y49.903 Z-2.385 F1080
G1 X324.948 Y49.921 Z-2.39 F1080
G1 X324.966 Y49.945 Z-2.395 F1080
G1 X324.977 Y49.973 Z-2.4 F1080
G1 X324.981 Y50.002 Z-2.405 F1080
G1 X324.976 Y50.032 Z-2.41 F1080
G1 X324.964 Y50.059 Z-2.415 F1080
G1 X324.945 Y50.082 Z-2.42 F1080
G1 X324.921 Y50.1 Z-2.425 F1080
G1 X324.892 Y50.11 Z-2.43 F1080
G1 X324.863 Y50.112 Z-2.435 F1080
G1 X324.833 Y50.107 Z-2.44 F1080
G1 X324.806 Y50.094 Z-2.445 F1080
G1 X324.784 Y50.074 Z-2.45 F1080
G1 X324.767 Y50.049 Z-2.455 F1080
G1 X324.758 Y50.021 Z-2.46 F1080
G1 X324.756 Y49.991 Z-2.465 F1080
G1 X324.762 Y49.962 Z-2.47 F1080
G1 X324.776 Y49.935 Z-2.475 F1080
G1 X324.797 Y49.913 Z-2.48 F1080
G1 X324.822 Y49.897 Z-2.485 F1080
G1 X324.851 Y49.889 Z-2.49 F1080
G1 X324.881 Y49.888 Z-2.495 F1080
G1 X324.91 Y49.895 Z-2.5 F1080
G1 X324.936 Y49.91 Z-2.505 F1080
G1 X324.957 Y49.931 Z-2.511 F1080
G1 X324.972 Y49.957 Z-2.516 F1080
G1 X324.98 Y49.986 Z-2.521 F1080
G1 Y50.016 Z-2.526 F1080
G1 X324.972 Y50.044 Z-2.531 F1080
G1 X324.956 Y50.07 Z-2.536 F1080
G1 X324.935 Y50.091 Z-2.541 F1080
G1 X324.908 Y50.105 Z-2.546 F1080
G1 X324.879 Y50.112 Z-2.551 F1080
G1 X324.849 Y50.111 Z-2.556 F1080
G1 X324.821 Y50.102 Z-2.561 F1080
G1 X324.796 Y50.086 Z-2.566 F1080
G1 X324.775 Y50.064 Z-2.571 F1080
G1 X324.762 Y50.037 Z-2.576 F1080
G1 X324.756 Y50.008 Z-2.581 F1080
G1 X324.758 Y49.978 Z-2.586 F1080
G1 X324.768 Y49.949 Z-2.591 F1080
G1 X324.785 Y49.925 Z-2.596 F1080
G1 X324.807 Y49.905 Z-2.601 F1080
G1 X324.835 Y49.893 Z-2.606 F1080
G1 X324.864 Y49.888 Z-2.611 F1080
G1 X324.894 Y49.89 Z-2.616 F1080
G1 X324.922 Y49.901 Z-2.621 F1080
G1 X324.946 Y49.919 Z-2.626 F1080
G1 X324.965 Y49.942 Z-2.632 F1080
G1 X324.977 Y49.97 Z-2.637 F1080
G1 X324.981 Y49.999 Z-2.642 F1080
G1 X324.977 Y50.029 Z-2.647 F1080
G1 X324.966 Y50.056 Z-2.652 F1080
G1 X324.947 Y50.08 Z-2.657 F1080
G1 X324.923 Y50.098 Z-2.662 F1080
G1 X324.895 Y50.109 Z-2.667 F1080
G1 X324.866 Y50.112 Z-2.672 F1080
G1 X324.836 Y50.108 Z-2.677 F1080
G1 X324.809 Y50.096 Z-2.682 F1080
G1 X324.786 Y50.077 Z-2.687 F1080
G1 X324.769 Y50.052 Z-2.692 F1080
G1 X324.758 Y50.024 Z-2.697 F1080
G1 X324.756 Y49.994 Z-2.702 F1080
G1 X324.761 Y49.965 Z-2.707 F1080
G1 X324.775 Y49.938 Z-2.712 F1080
G1 X324.794 Y49.915 Z-2.717 F1080
G1 X324.819 Y49.899 Z-2.722 F1080
G1 X324.848 Y49.889 Z-2.727 F1080
G1 X324.877 Y49.888 Z-2.732 F1080
G1 X324.907 Y49.894 Z-2.737 F1080
G1 X324.933 Y49.908 Z-2.742 F1080
G1 X324.955 Y49.929 Z-2.747 F1080
G1 X324.971 Y49.954 Z-2.753 F1080
G1 X324.979 Y49.983 Z-2.758 F1080
G1 X324.98 Y50.013 Z-2.763 F1080
G1 X324.973 Y50.042 Z-2.768 F1080
G1 X324.958 Y50.068 Z-2.773 F1080
G1 X324.937 Y50.089 Z-2.778 F1080
G1 X324.911 Y50.104 Z-2.783 F1080
G1 X324.882 Y50.112 Z-2.788 F1080
G1 X324.852 Y50.111 Z-2.793 F1080
G1 X324.824 Y50.103 Z-2.798 F1080
G1 X324.798 Y50.088 Z-2.803 F1080
G1 X324.777 Y50.066 Z-2.808 F1080
G1 X324.763 Y50.04 Z-2.813 F1080
G1 X324.756 Y50.011 Z-2.818 F1080
G1 X324.757 Y49.981 Z-2.823 F1080
G1 X324.766 Y49.952 Z-2.828 F1080
G1 X324.783 Y49.927 Z-2.833 F1080
G1 X324.805 Y49.907 Z-2.838 F1080
G1 X324.832 Y49.894 Z-2.843 F1080
G1 X324.861 Y49.888 Z-2.848 F1080
G1 X324.891 Y49.89 Z-2.853 F1080
G1 X324.919 Y49.9 Z-2.858 F1080
G1 X324.944 Y49.917 Z-2.863 F1080
G1 X324.963 Y49.939 Z-2.868 F1080
G1 X324.976 Y49.967 Z-2.874 F1080
G1 X324.981 Y49.996 Z-2.879 F1080
G1 X324.978 Y50.026 Z-2.884 F1080
G1 X324.967 Y50.054 Z-2.889 F1080
G1 X324.949 Y50.078 Z-2.894 F1080
G1 X324.926 Y50.097 Z-2.899 F1080
G1 X324.898 Y50.108 Z-2.904 F1080
G1 X324.869 Y50.113 Z-2.909 F1080
G1 X324.839 Y50.109 Z-2.914 F1080
G1 X324.812 Y50.097 Z-2.919 F1080
G1 X324.788 Y50.079 Z-2.924 F1080
G1 X324.77 Y50.055 Z-2.929 F1080
G1 X324.759 Y50.027 Z-2.934 F1080
G1 X324.756 Y49.997 Z-2.939 F1080
G1 X324.76 Y49.968 Z-2.944 F1080
G1 X324.773 Y49.94 Z-2.949 F1080
G1 X324.792 Y49.917 Z-2.954 F1080
G1 X324.816 Y49.9 Z-2.959 F1080
G1 X324.845 Y49.89 Z-2.964 F1080
G1 X324.874 Y49.888 Z-2.969 F1080
G1 X324.904 Y49.893 Z-2.974 F1080
G1 X324.931 Y49.906 Z-2.979 F1080
G1 X324.953 Y49.926 Z-2.984 F1080
G1 X324.97 Y49.951 Z-2.989 F1080
G1 X324.979 Y49.98 Z-2.995 F1080
G1 X324.98 Y50.009 Z-3 F1080
G1 X324.974 Y50.039 Z-3.005 F1080
G1 X324.96 Y50.065 Z-3.01 F1080
G1 X324.94 Y50.087 Z-3.015 F1080
G1 X324.914 Y50.103 Z-3.02 F1080
G1 X324.885 Y50.111 Z-3.025 F1080
G1 X324.855 Y50.112 Z-3.03 F1080
G1 X324.826 Y50.104 Z-3.035 F1080
G1 X324.8 Y50.09 Z-3.04 F1080
G1 X324.779 Y50.069 Z-3.045 F1080
G1 X324.764 Y50.043 Z-3.05 F1080
G1 X324.757 Y50.014 Z-3.055 F1080
G1 Y49.984 Z-3.06 F1080
G1 X324.765 Y49.955 Z-3.065 F1080
G1 X324.781 Y49.929 Z-3.07 F1080
G1 X324.802 Y49.909 Z-3.075 F1080
G1 X324.829 Y49.895 Z-3.08 F1080
G1 X324.858 Y49.888 Z-3.085 F1080
G1 X324.888 Y49.889 Z-3.09 F1080
G1 X324.916 Y49.898 Z-3.095 F1080
G1 X324.941 Y49.915 Z-3.1 F1080
G1 X324.961 Y49.937 Z-3.105 F1080
G1 X324.975 Y49.964 Z-3.11 F1080
G1 X324.981 Y49.993 Z-3.115 F1080
G1 X324.978 Y50.023 Z-3.121 F1080
G1 X324.969 Y50.051 Z-3.126 F1080
G1 X324.952 Y50.076 Z-3.131 F1080
G1 X324.929 Y50.095 Z-3.136 F1080
G1 X324.901 Y50.107 Z-3.141 F1080
G1 X324.872 Y50.112 Z-3.146 F1080
G1 X324.842 Y50.109 Z-3.151 F1080
G1 X324.814 Y50.099 Z-3.156 F1080
G1 X324.79 Y50.081 Z-3.161 F1080
G1 X324.772 Y50.058 Z-3.166 F1080
G1 X324.76 Y50.03 Z-3.171 F1080
G1 X324.756 Y50 Z-3.176 F1080
G1 X324.76 Y49.971 Z-3.181 F1080
G1 X324.771 Y49.943 Z-3.186 F1080
G1 X324.79 Y49.92 Z-3.191 F1080
G1 X324.814 Y49.902 Z-3.196 F1080
G1 X324.842 Y49.891 Z-3.201 F1080
G1 X324.871 Y49.888 Z-3.206 F1080
G1 X324.901 Y49.892 Z-3.211 F1080
G1 X324.928 Y49.905 Z-3.216 F1080
G1 X324.951 Y49.924 Z-3.221 F1080
G1 X324.968 Y49.948 Z-3.226 F1080
G1 X324.978 Y49.977 Z-3.231 F1080
G1 X324.981 Y50.006 Z-3.236 F1080
G1 X324.975 Y50.036 Z-3.242 F1080
G1 X324.962 Y50.063 Z-3.247 F1080
G1 X324.942 Y50.085 Z-3.252 F1080
G1 X324.917 Y50.101 Z-3.257 F1080
G1 X324.888 Y50.111 Z-3.262 F1080
G1 X324.859 Y50.112 Z-3.267 F1080
G1 X324.829 Y50.106 Z-3.272 F1080
G1 X324.803 Y50.092 Z-3.277 F1080
G1 X324.781 Y50.071 Z-3.282 F1080
G1 X324.765 Y50.046 Z-3.287 F1080
G1 X324.757 Y50.017 Z-3.292 F1080
G1 Y49.987 Z-3.297 F1080
G1 X324.764 Y49.958 Z-3.302 F1080
G1 X324.779 Y49.932 Z-3.307 F1080
G1 X324.8 Y49.911 Z-3.312 F1080
G1 X324.826 Y49.896 Z-3.317 F1080
G1 X324.855 Y49.888 Z-3.322 F1080
G1 X324.885 Y49.889 Z-3.327 F1080
G1 X324.913 Y49.897 Z-3.332 F1080
G1 X324.939 Y49.913 Z-3.337 F1080
G1 X324.96 Y49.934 Z-3.342 F1080
G1 X324.974 Y49.961 Z-3.347 F1080
G1 X324.98 Y49.99 Z-3.352 F1080
G1 X324.979 Y50.02 Z-3.357 F1080
G1 X324.97 Y50.048 Z-3.363 F1080
G1 X324.954 Y50.073 Z-3.368 F1080
G1 X324.931 Y50.093 Z-3.373 F1080
G1 X324.904 Y50.107 Z-3.378 F1080
G1 X324.875 Y50.112 Z-3.383 F1080
G1 X324.845 Y50.11 Z-3.388 F1080
G1 X324.817 Y50.1 Z-3.393 F1080
G1 X324.792 Y50.083 Z-3.398 F1080
G1 X324.773 Y50.06 Z-3.403 F1080
G1 X324.761 Y50.033 Z-3.408 F1080
G1 X324.756 Y50.003 Z-3.413 F1080
G1 X324.759 Y49.974 Z-3.418 F1080
G1 X324.77 Y49.946 Z-3.423 F1080
G1 X324.787 Y49.922 Z-3.428 F1080
G1 X324.811 Y49.903 Z-3.433 F1080
G1 X324.839 Y49.892 Z-3.438 F1080
G1 X324.868 Y49.887 Z-3.443 F1080
G1 X324.898 Y49.891 Z-3.448 F1080
G1 X324.925 Y49.903 Z-3.453 F1080
G1 X324.949 Y49.922 Z-3.458 F1080
G1 X324.967 Y49.946 Z-3.463 F1080
G1 X324.978 Y49.974 Z-3.468 F1080
G1 X324.981 Y50.003 Z-3.473 F1080
G1 X324.976 Y50.033 Z-3.478 F1080
G1 X324.963 Y50.06 Z-3.484 F1080
G1 X324.944 Y50.083 Z-3.489 F1080
G1 X324.92 Y50.1 Z-3.494 F1080
G1 X324.891 Y50.11 Z-3.499 F1080
G1 X324.862 Y50.112 Z-3.504 F1080
G1 X324.832 Y50.107 Z-3.509 F1080
G1 X324.805 Y50.093 Z-3.514 F1080
G1 X324.783 Y50.073 Z-3.519 F1080
G1 X324.767 Y50.048 Z-3.524 F1080
G1 X324.758 Y50.02 Z-3.529 F1080
G1 X324.756 Y49.99 Z-3.534 F1080
G1 X324.763 Y49.961 Z-3.539 F1080
G1 X324.777 Y49.934 Z-3.544 F1080
G1 X324.797 Y49.913 Z-3.549 F1080
G1 X324.823 Y49.897 Z-3.554 F1080
G1 X324.852 Y49.889 Z-3.559 F1080
G1 X324.882 Y49.888 Z-3.564 F1080
G1 X324.911 Y49.896 Z-3.569 F1080
G1 X324.937 Y49.911 Z-3.574 F1080
