;Fusion CAM 2.0.20494
; Posts processor: MPCNC.cps
; Gcode generated: Monday, October 28, 2024 11:38:46 PM GMT
; Document: test v22
; Setup: Front Pocket and Bore
;When using Fusion for Personal Use, the feedrate of rapid
;moves is reduced to match the feedrate of cutting moves,
;which can increase machining time. Unrestricted rapid moves
;are available with a Fusion Subscription.
; 
; Ranges Table:
;   X: Min=34.175 Max=115.325 Size=81.15
;   Y: Min=34.175 Max=115.325 Size=81.15
;   Z: Min=-12.5 Max=10 Size=22.5
; 
; Tools Table:
;  T5 D=6.35 CR=0 - ZMIN=-12.5 - flat end mill 
; 
; Feedrate and Scaling Properties:
;   Feed: Travel speed X/Y = 2500
;   Feed: Travel Speed Z = 300
;   Feed: Enforce Feedrate = true
;   Feed: Scale Feedrate = false
;   Feed: Max XY Cut Speed = 930
;   Feed: Max Z Cut Speed = 270
;   Feed: Max Toolpath Speed = 930
; 
; G1->G0 Mapping Properties:
;   Map: First G1 -> G0 Rapid = false
;   Map: G1s -> G0 Rapids = false
;   Map: SafeZ Mode = Retract : default = 15
;   Map: Allow Rapid Z = false
; 
; *** START begin ***
;   Set Absolute Positioning
;   Units = mm
;   Disable stepper timeout
G90
G21
M84 S0
; COMMAND_TOOL_MEASURE
; Probe to Zero Z
;   Ask User to Attach the Z Probe
;   Do Probing
;   Set Z to probe thickness: Z14
;   Retract the tool to 20
;   Ask User to Remove the Z Probe
M0 Attach ZProbe
G28 Z
G92 Z14
G0 Z20 F300
M400
M0 Detach ZProbe
; *** START end ***
; 
; *** SECTION begin ***
;   X Min: 34.175 - X Max: 115.325
;   Y Min: 34.175 - Y Max: 115.325
;   Z Min: -7 - Z Max: 10
; 2D Pocket4 - Milling - Tool: 5 -  flat end mill
; COMMAND_START_SPINDLE
; COMMAND_SPINDLE_CLOCKWISE
; >>> Spindle Speed: Manual
M0 Turn ON 10000RPM
; COMMAND_COOLANT_ON
M117  2D Pocket4
; MOVEMENT_CUTTING
G1 X97.5 Y46.7 Z10 F930
G1 Z5 F930
; MOVEMENT_PLUNGE
G1 Z1 F254
; MOVEMENT_LEAD_IN
G1 Z-0.765 F930
G1 X97.503 Z-0.836 F930
G1 X97.515 Z-0.906 F930
G1 X97.535 Z-0.975 F930
G1 X97.562 Z-1.041 F930
G1 X97.597 Z-1.103 F930
G1 X97.638 Z-1.161 F930
G1 X97.685 Z-1.214 F930
G1 X97.739 Z-1.261 F930
G1 X97.797 Z-1.303 F930
G1 X97.859 Z-1.337 F930
G1 X97.925 Z-1.364 F930
G1 X97.993 Z-1.384 F930
G1 X98.063 Z-1.396 F930
G1 X98.135 Z-1.4 F930
G1 X102.481 F930
G3 X102.8 Y47.019 J0.319 F930
G1 Y74.494 F930
G3 X88.926 Y79.03 I-7.678 F930
G2 X74.881 Y75.056 I-9.565 J7.002 F930
; MOVEMENT_CUTTING
G3 X74.761 Y75.08 I-0.121 J-0.296 F930
G1 X74.739 F930
G3 X74.42 Y74.761 J-0.319 F930
G1 Y74.739 F930
G3 X74.739 Y74.42 I0.319 F930
G1 X74.761 F930
G3 X75.08 Y74.739 J0.319 F930
G1 Y74.761 F930
G3 X74.881 Y75.056 I-0.319 F930
; MOVEMENT_LINK_TRANSITION
G2 X73.396 Y76.535 I1.028 J2.518 F930
G3 X71.34 Y76.127 I-0.987 J-0.408 F930
; MOVEMENT_CUTTING
G1 Y71.659 F930
G3 X71.659 Y71.34 I0.319 F930
G1 X77.841 F930
G3 X78.16 Y71.659 J0.319 F930
G1 Y77.841 F930
G3 X77.841 Y78.16 I-0.319 F930
G1 X71.659 F930
G3 X71.34 Y77.841 J-0.319 F930
G1 Y76.127 F930
; MOVEMENT_LINK_TRANSITION
G2 X69.8 Y73.817 I-2.502 F930
G3 X68.26 Y71.507 I0.962 J-2.31 F930
; MOVEMENT_CUTTING
G1 Y68.579 F930
G3 X68.579 Y68.26 I0.319 F930
G1 X80.921 F930
G3 X81.24 Y68.579 J0.319 F930
G1 Y80.921 F930
G3 X80.921 Y81.24 I-0.319 F930
G1 X68.579 F930
G3 X68.26 Y80.921 J-0.319 F930
G1 Y71.507 F930
; MOVEMENT_LINK_TRANSITION
G2 X66.72 Y69.197 I-2.503 F930
G3 X65.18 Y66.887 I0.963 J-2.31 F930
; MOVEMENT_CUTTING
G1 Y65.499 F930
G3 X65.499 Y65.18 I0.319 F930
G1 X84.001 F930
G3 X84.32 Y65.499 J0.319 F930
G1 Y84.001 F930
G3 X84.001 Y84.32 I-0.319 F930
G1 X65.499 F930
G3 X65.18 Y84.001 J-0.319 F930
G1 Y66.887 F930
; MOVEMENT_LINK_TRANSITION
G2 X63.789 Y64.659 I-2.479 F930
G3 X64.381 Y62.1 I0.592 J-1.211 F930
; MOVEMENT_CUTTING
G1 X87.081 F930
G3 X87.4 Y62.419 J0.319 F930
G1 Y87.081 F930
G3 X87.081 Y87.4 I-0.319 F930
G1 X62.419 F930
G3 X62.1 Y87.081 J-0.319 F930
G1 Y62.419 F930
G3 X62.419 Y62.1 I0.319 F930
G1 X64.381 F930
; MOVEMENT_LINK_TRANSITION
G2 X66.691 Y60.56 J-2.502 F930
G3 X69.001 Y59.02 I2.31 J0.962 F930
; MOVEMENT_CUTTING
G1 X90.161 F930
G3 X90.48 Y59.339 J0.319 F930
G1 Y90.161 F930
G3 X90.161 Y90.48 I-0.319 F930
G1 X59.339 F930
G3 X59.02 Y90.161 J-0.319 F930
G1 Y59.339 F930
G3 X59.339 Y59.02 I0.319 F930
G1 X69.001 F930
; MOVEMENT_LINK_TRANSITION
G2 X71.311 Y57.48 J-2.502 F930
G3 X73.621 Y55.94 I2.31 J0.963 F930
; MOVEMENT_CUTTING
G1 X93.241 F930
G3 X93.56 Y56.259 J0.319 F930
G1 Y93.241 F930
G3 X93.241 Y93.56 I-0.319 F930
G1 X56.259 F930
G3 X55.94 Y93.241 J-0.319 F930
G1 Y56.259 F930
G3 X56.259 Y55.94 I0.319 F930
G1 X73.621 F930
; MOVEMENT_LINK_TRANSITION
G2 X75.931 Y54.4 J-2.502 F930
G3 X78.241 Y52.86 I2.31 J0.962 F930
; MOVEMENT_CUTTING
G1 X96.321 F930
G3 X96.64 Y53.179 J0.319 F930
G1 Y96.321 F930
G3 X96.321 Y96.64 I-0.319 F930
G1 X53.179 F930
G3 X52.86 Y96.321 J-0.319 F930
G1 Y53.179 F930
G3 X53.179 Y52.86 I0.319 F930
G1 X78.241 F930
; MOVEMENT_LINK_TRANSITION
G2 X80.551 Y51.32 J-2.503 F930
G3 X82.861 Y49.78 I2.31 J0.963 F930
; MOVEMENT_CUTTING
G1 X99.401 F930
G3 X99.72 Y50.099 J0.319 F930
G1 Y99.401 F930
G3 X99.401 Y99.72 I-0.319 F930
G1 X50.099 F930
G3 X49.78 Y99.401 J-0.319 F930
G1 Y50.099 F930
G3 X50.099 Y49.78 I0.319 F930
G1 X82.861 F930
; MOVEMENT_LINK_TRANSITION
G2 X82.923 Y49.774 J-0.317 F930
G1 X98.096 Y46.706 F930
G3 X98.159 Y46.7 I0.063 J0.311 F930
; MOVEMENT_CUTTING
G1 X102.481 F930
G3 X102.8 Y47.019 J0.319 F930
G1 Y102.481 F930
G3 X102.481 Y102.8 I-0.319 F930
G1 X47.019 F930
G3 X46.7 Y102.481 J-0.319 F930
G1 Y47.019 F930
G3 X47.019 Y46.7 I0.319 F930
G1 X51.33 F930
; MOVEMENT_LINK_TRANSITION
G1 X55.16 F930
; MOVEMENT_CUTTING
G1 X94.33 F930
; MOVEMENT_LINK_TRANSITION
G2 X94.518 Y46.638 J-0.318 F930
G1 X98.535 Y43.682 F930
G3 X98.723 Y43.62 I0.188 J0.256 F930
; MOVEMENT_CUTTING
G1 X105.561 F930
G3 X105.88 Y43.939 J0.319 F930
G1 Y105.561 F930
G3 X105.561 Y105.88 I-0.319 F930
G1 X43.939 F930
G3 X43.62 Y105.561 J-0.319 F930
G1 Y43.939 F930
G3 X43.939 Y43.62 I0.319 F930
G1 X50.783 F930
; MOVEMENT_LINK_TRANSITION
G1 X55.724 F930
; MOVEMENT_CUTTING
G1 X93.782 F930
; MOVEMENT_LINK_TRANSITION
G2 X96.059 Y42.103 J-2.466 F930
G3 X98.335 Y40.585 I2.276 J0.948 F930
; MOVEMENT_CUTTING
G1 X108.5 F930
G3 X108.915 Y41 J0.415 F930
G1 Y108.5 F930
G3 X108.5 Y108.915 I-0.415 F930
G1 X41 F930
G3 X40.585 Y108.5 J-0.415 F930
G1 Y41 F930
G3 X41 Y40.585 I0.415 F930
G1 X98.335 F930
; MOVEMENT_LINK_TRANSITION
G2 X100.645 Y39.045 J-2.502 F930
G3 X102.955 Y37.505 I2.31 J0.963 F930
; MOVEMENT_CUTTING
G1 X108.5 F930
G3 X111.995 Y41 J3.495 F930
G1 Y108.5 F930
G3 X108.5 Y111.995 I-3.495 F930
G1 X41 F930
G3 X37.505 Y108.5 J-3.495 F930
G1 Y41 F930
G3 X41 Y37.505 I3.495 F930
G1 X102.955 F930
; MOVEMENT_LINK_TRANSITION
G2 X105.302 Y35.94 J-2.543 F930
G3 X107.65 Y34.375 I2.347 J0.978 F930
; MOVEMENT_CUTTING
G1 X108.5 F930
G3 X115.125 Y41 J6.625 F930
G1 Y108.5 F930
G3 X108.5 Y115.125 I-6.625 F930
G1 X41 F930
G3 X34.375 Y108.5 J-6.625 F930
G1 Y41 F930
G3 X41 Y34.375 I6.625 F930
G1 X107.65 F930
; MOVEMENT_LINK_TRANSITION
G2 X107.8 Y34.275 J-0.162 F930
G3 X107.95 Y34.175 I0.15 J0.063 F930
; MOVEMENT_FINISH_CUTTING
G1 X108.5 F930
G3 X115.325 Y41 J6.825 F930
G1 Y108.5 F930
G3 X108.5 Y115.325 I-6.825 F930
G1 X41 F930
G3 X34.175 Y108.5 J-6.825 F930
G1 Y41 F930
G3 X41 Y34.175 I6.825 F930
G1 X107.95 F930
; MOVEMENT_LEAD_OUT
G1 X108.015 Y34.18 Z-1.39 F930
G1 X108.079 Y34.192 Z-1.379 F930
G1 X108.142 Y34.211 Z-1.369 F930
G1 X108.196 Y34.233 Z-1.339 F930
G1 X108.249 Y34.261 Z-1.309 F930
G1 X108.298 Y34.293 Z-1.279 F930
G1 X108.352 Y34.337 Z-1.208 F930
G1 X108.401 Y34.388 Z-1.138 F930
G1 X108.43 Y34.423 Z-1.05 F930
G1 X108.455 Y34.46 Z-0.961 F930
G1 X108.471 Y34.486 Z-0.765 F930
G1 Z-0.4 F930
; MOVEMENT_LINK_TRANSITION
G1 X97.5 Y46.7 F930
; MOVEMENT_LEAD_IN
G1 Z-2.165 F930
G1 X97.503 Z-2.236 F930
G1 X97.515 Z-2.306 F930
G1 X97.535 Z-2.375 F930
G1 X97.562 Z-2.441 F930
G1 X97.597 Z-2.503 F930
G1 X97.638 Z-2.561 F930
G1 X97.685 Z-2.614 F930
G1 X97.739 Z-2.661 F930
G1 X97.797 Z-2.703 F930
G1 X97.859 Z-2.737 F930
G1 X97.925 Z-2.764 F930
G1 X97.993 Z-2.784 F930
G1 X98.063 Z-2.796 F930
G1 X98.135 Z-2.8 F930
G1 X102.481 F930
G3 X102.8 Y47.019 J0.319 F930
G1 Y74.494 F930
G3 X88.926 Y79.03 I-7.678 F930
G2 X74.881 Y75.056 I-9.565 J7.002 F930
; MOVEMENT_CUTTING
G3 X74.761 Y75.08 I-0.121 J-0.296 F930
G1 X74.739 F930
G3 X74.42 Y74.761 J-0.319 F930
G1 Y74.739 F930
G3 X74.739 Y74.42 I0.319 F930
G1 X74.761 F930
G3 X75.08 Y74.739 J0.319 F930
G1 Y74.761 F930
G3 X74.881 Y75.056 I-0.319 F930
; MOVEMENT_LINK_TRANSITION
G2 X73.396 Y76.535 I1.028 J2.518 F930
G3 X71.34 Y76.127 I-0.987 J-0.408 F930
; MOVEMENT_CUTTING
G1 Y71.659 F930
G3 X71.659 Y71.34 I0.319 F930
G1 X77.841 F930
G3 X78.16 Y71.659 J0.319 F930
G1 Y77.841 F930
G3 X77.841 Y78.16 I-0.319 F930
G1 X71.659 F930
G3 X71.34 Y77.841 J-0.319 F930
G1 Y76.127 F930
; MOVEMENT_LINK_TRANSITION
G2 X69.8 Y73.817 I-2.502 F930
G3 X68.26 Y71.507 I0.962 J-2.31 F930
; MOVEMENT_CUTTING
G1 Y68.579 F930
G3 X68.579 Y68.26 I0.319 F930
G1 X80.921 F930
G3 X81.24 Y68.579 J0.319 F930
G1 Y80.921 F930
G3 X80.921 Y81.24 I-0.319 F930
G1 X68.579 F930
G3 X68.26 Y80.921 J-0.319 F930
G1 Y71.507 F930
; MOVEMENT_LINK_TRANSITION
G2 X66.72 Y69.197 I-2.503 F930
G3 X65.18 Y66.887 I0.963 J-2.31 F930
; MOVEMENT_CUTTING
G1 Y65.499 F930
G3 X65.499 Y65.18 I0.319 F930
G1 X84.001 F930
G3 X84.32 Y65.499 J0.319 F930
G1 Y84.001 F930
G3 X84.001 Y84.32 I-0.319 F930
G1 X65.499 F930
G3 X65.18 Y84.001 J-0.319 F930
G1 Y66.887 F930
; MOVEMENT_LINK_TRANSITION
G2 X63.789 Y64.659 I-2.479 F930
G3 X64.381 Y62.1 I0.592 J-1.211 F930
; MOVEMENT_CUTTING
G1 X87.081 F930
G3 X87.4 Y62.419 J0.319 F930
G1 Y87.081 F930
G3 X87.081 Y87.4 I-0.319 F930
G1 X62.419 F930
G3 X62.1 Y87.081 J-0.319 F930
G1 Y62.419 F930
G3 X62.419 Y62.1 I0.319 F930
G1 X64.381 F930
; MOVEMENT_LINK_TRANSITION
G2 X66.691 Y60.56 J-2.502 F930
G3 X69.001 Y59.02 I2.31 J0.962 F930
; MOVEMENT_CUTTING
G1 X90.161 F930
G3 X90.48 Y59.339 J0.319 F930
G1 Y90.161 F930
G3 X90.161 Y90.48 I-0.319 F930
G1 X59.339 F930
G3 X59.02 Y90.161 J-0.319 F930
G1 Y59.339 F930
G3 X59.339 Y59.02 I0.319 F930
G1 X69.001 F930
; MOVEMENT_LINK_TRANSITION
G2 X71.311 Y57.48 J-2.502 F930
G3 X73.621 Y55.94 I2.31 J0.963 F930
; MOVEMENT_CUTTING
G1 X93.241 F930
G3 X93.56 Y56.259 J0.319 F930
G1 Y93.241 F930
G3 X93.241 Y93.56 I-0.319 F930
G1 X56.259 F930
G3 X55.94 Y93.241 J-0.319 F930
G1 Y56.259 F930
G3 X56.259 Y55.94 I0.319 F930
G1 X73.621 F930
; MOVEMENT_LINK_TRANSITION
G2 X75.931 Y54.4 J-2.502 F930
G3 X78.241 Y52.86 I2.31 J0.962 F930
; MOVEMENT_CUTTING
G1 X96.321 F930
G3 X96.64 Y53.179 J0.319 F930
G1 Y96.321 F930
G3 X96.321 Y96.64 I-0.319 F930
G1 X53.179 F930
G3 X52.86 Y96.321 J-0.319 F930
G1 Y53.179 F930
G3 X53.179 Y52.86 I0.319 F930
G1 X78.241 F930
; MOVEMENT_LINK_TRANSITION
G2 X80.551 Y51.32 J-2.503 F930
G3 X82.861 Y49.78 I2.31 J0.963 F930
; MOVEMENT_CUTTING
G1 X99.401 F930
G3 X99.72 Y50.099 J0.319 F930
G1 Y99.401 F930
G3 X99.401 Y99.72 I-0.319 F930
G1 X50.099 F930
G3 X49.78 Y99.401 J-0.319 F930
G1 Y50.099 F930
G3 X50.099 Y49.78 I0.319 F930
G1 X82.861 F930
; MOVEMENT_LINK_TRANSITION
G2 X82.923 Y49.774 J-0.317 F930
G1 X98.096 Y46.706 F930
G3 X98.159 Y46.7 I0.063 J0.311 F930
; MOVEMENT_CUTTING
G1 X102.481 F930
G3 X102.8 Y47.019 J0.319 F930
G1 Y102.481 F930
G3 X102.481 Y102.8 I-0.319 F930
G1 X47.019 F930
G3 X46.7 Y102.481 J-0.319 F930
G1 Y47.019 F930
G3 X47.019 Y46.7 I0.319 F930
G1 X51.33 F930
; MOVEMENT_LINK_TRANSITION
G1 X55.16 F930
; MOVEMENT_CUTTING
G1 X94.33 F930
; MOVEMENT_LINK_TRANSITION
G2 X94.518 Y46.638 J-0.318 F930
G1 X98.535 Y43.682 F930
G3 X98.723 Y43.62 I0.188 J0.256 F930
; MOVEMENT_CUTTING
G1 X105.561 F930
G3 X105.88 Y43.939 J0.319 F930
G1 Y105.561 F930
G3 X105.561 Y105.88 I-0.319 F930
G1 X43.939 F930
G3 X43.62 Y105.561 J-0.319 F930
G1 Y43.939 F930
G3 X43.939 Y43.62 I0.319 F930
G1 X50.783 F930
; MOVEMENT_LINK_TRANSITION
G1 X55.724 F930
; MOVEMENT_CUTTING
G1 X93.782 F930
; MOVEMENT_LINK_TRANSITION
G2 X96.059 Y42.103 J-2.466 F930
G3 X98.335 Y40.585 I2.276 J0.948 F930
; MOVEMENT_CUTTING
G1 X108.5 F930
G3 X108.915 Y41 J0.415 F930
G1 Y108.5 F930
G3 X108.5 Y108.915 I-0.415 F930
G1 X41 F930
G3 X40.585 Y108.5 J-0.415 F930
G1 Y41 F930
G3 X41 Y40.585 I0.415 F930
G1 X98.335 F930
; MOVEMENT_LINK_TRANSITION
G2 X100.645 Y39.045 J-2.502 F930
G3 X102.955 Y37.505 I2.31 J0.963 F930
; MOVEMENT_CUTTING
G1 X108.5 F930
G3 X111.995 Y41 J3.495 F930
G1 Y108.5 F930
G3 X108.5 Y111.995 I-3.495 F930
G1 X41 F930
G3 X37.505 Y108.5 J-3.495 F930
G1 Y41 F930
G3 X41 Y37.505 I3.495 F930
G1 X102.955 F930
; MOVEMENT_LINK_TRANSITION
G2 X105.302 Y35.94 J-2.543 F930
G3 X107.65 Y34.375 I2.347 J0.978 F930
; MOVEMENT_CUTTING
G1 X108.5 F930
G3 X115.125 Y41 J6.625 F930
G1 Y108.5 F930
G3 X108.5 Y115.125 I-6.625 F930
G1 X41 F930
G3 X34.375 Y108.5 J-6.625 F930
G1 Y41 F930
G3 X41 Y34.375 I6.625 F930
G1 X107.65 F930
; MOVEMENT_LINK_TRANSITION
G2 X107.8 Y34.275 J-0.162 F930
G3 X107.95 Y34.175 I0.15 J0.063 F930
; MOVEMENT_FINISH_CUTTING
G1 X108.5 F930
G3 X115.325 Y41 J6.825 F930
G1 Y108.5 F930
G3 X108.5 Y115.325 I-6.825 F930
G1 X41 F930
G3 X34.175 Y108.5 J-6.825 F930
G1 Y41 F930
G3 X41 Y34.175 I6.825 F930
G1 X107.95 F930
; MOVEMENT_LEAD_OUT
G1 X108.015 Y34.18 Z-2.79 F930
G1 X108.079 Y34.192 Z-2.779 F930
G1 X108.142 Y34.211 Z-2.769 F930
G1 X108.196 Y34.233 Z-2.739 F930
G1 X108.249 Y34.261 Z-2.709 F930
G1 X108.298 Y34.293 Z-2.679 F930
G1 X108.352 Y34.337 Z-2.608 F930
G1 X108.401 Y34.388 Z-2.538 F930
G1 X108.43 Y34.423 Z-2.45 F930
G1 X108.455 Y34.46 Z-2.361 F930
G1 X108.471 Y34.486 Z-2.165 F930
G1 Z-1.8 F930
; MOVEMENT_LINK_TRANSITION
G1 X97.5 Y46.7 F930
; MOVEMENT_LEAD_IN
G1 Z-3.565 F930
G1 X97.503 Z-3.636 F930
G1 X97.515 Z-3.706 F930
G1 X97.535 Z-3.775 F930
G1 X97.562 Z-3.841 F930
G1 X97.597 Z-3.903 F930
G1 X97.638 Z-3.961 F930
G1 X97.685 Z-4.014 F930
G1 X97.739 Z-4.061 F930
G1 X97.797 Z-4.103 F930
G1 X97.859 Z-4.137 F930
G1 X97.925 Z-4.164 F930
G1 X97.993 Z-4.184 F930
G1 X98.063 Z-4.196 F930
G1 X98.135 Z-4.2 F930
G1 X102.481 F930
G3 X102.8 Y47.019 J0.319 F930
G1 Y74.494 F930
G3 X88.926 Y79.03 I-7.678 F930
G2 X74.881 Y75.056 I-9.565 J7.002 F930
; MOVEMENT_CUTTING
G3 X74.761 Y75.08 I-0.121 J-0.296 F930
G1 X74.739 F930
G3 X74.42 Y74.761 J-0.319 F930
G1 Y74.739 F930
G3 X74.739 Y74.42 I0.319 F930
G1 X74.761 F930
G3 X75.08 Y74.739 J0.319 F930
G1 Y74.761 F930
G3 X74.881 Y75.056 I-0.319 F930
; MOVEMENT_LINK_TRANSITION
G2 X73.396 Y76.535 I1.028 J2.518 F930
G3 X71.34 Y76.127 I-0.987 J-0.408 F930
; MOVEMENT_CUTTING
G1 Y71.659 F930
G3 X71.659 Y71.34 I0.319 F930
G1 X77.841 F930
G3 X78.16 Y71.659 J0.319 F930
G1 Y77.841 F930
G3 X77.841 Y78.16 I-0.319 F930
G1 X71.659 F930
G3 X71.34 Y77.841 J-0.319 F930
G1 Y76.127 F930
; MOVEMENT_LINK_TRANSITION
G2 X69.8 Y73.817 I-2.502 F930
G3 X68.26 Y71.507 I0.962 J-2.31 F930
; MOVEMENT_CUTTING
G1 Y68.579 F930
G3 X68.579 Y68.26 I0.319 F930
G1 X80.921 F930
G3 X81.24 Y68.579 J0.319 F930
G1 Y80.921 F930
G3 X80.921 Y81.24 I-0.319 F930
G1 X68.579 F930
G3 X68.26 Y80.921 J-0.319 F930
G1 Y71.507 F930
; MOVEMENT_LINK_TRANSITION
G2 X66.72 Y69.197 I-2.503 F930
G3 X65.18 Y66.887 I0.963 J-2.31 F930
; MOVEMENT_CUTTING
G1 Y65.499 F930
G3 X65.499 Y65.18 I0.319 F930
G1 X84.001 F930
G3 X84.32 Y65.499 J0.319 F930
G1 Y84.001 F930
G3 X84.001 Y84.32 I-0.319 F930
G1 X65.499 F930
G3 X65.18 Y84.001 J-0.319 F930
G1 Y66.887 F930
; MOVEMENT_LINK_TRANSITION
G2 X63.789 Y64.659 I-2.479 F930
G3 X64.381 Y62.1 I0.592 J-1.211 F930
; MOVEMENT_CUTTING
G1 X87.081 F930
G3 X87.4 Y62.419 J0.319 F930
G1 Y87.081 F930
G3 X87.081 Y87.4 I-0.319 F930
G1 X62.419 F930
G3 X62.1 Y87.081 J-0.319 F930
G1 Y62.419 F930
G3 X62.419 Y62.1 I0.319 F930
G1 X64.381 F930
; MOVEMENT_LINK_TRANSITION
G2 X66.691 Y60.56 J-2.502 F930
G3 X69.001 Y59.02 I2.31 J0.962 F930
; MOVEMENT_CUTTING
G1 X90.161 F930
G3 X90.48 Y59.339 J0.319 F930
G1 Y90.161 F930
G3 X90.161 Y90.48 I-0.319 F930
G1 X59.339 F930
G3 X59.02 Y90.161 J-0.319 F930
G1 Y59.339 F930
G3 X59.339 Y59.02 I0.319 F930
G1 X69.001 F930
; MOVEMENT_LINK_TRANSITION
G2 X71.311 Y57.48 J-2.502 F930
G3 X73.621 Y55.94 I2.31 J0.963 F930
; MOVEMENT_CUTTING
G1 X93.241 F930
G3 X93.56 Y56.259 J0.319 F930
G1 Y93.241 F930
G3 X93.241 Y93.56 I-0.319 F930
G1 X56.259 F930
G3 X55.94 Y93.241 J-0.319 F930
G1 Y56.259 F930
G3 X56.259 Y55.94 I0.319 F930
G1 X73.621 F930
; MOVEMENT_LINK_TRANSITION
G2 X75.931 Y54.4 J-2.502 F930
G3 X78.241 Y52.86 I2.31 J0.962 F930
; MOVEMENT_CUTTING
G1 X96.321 F930
G3 X96.64 Y53.179 J0.319 F930
G1 Y96.321 F930
G3 X96.321 Y96.64 I-0.319 F930
G1 X53.179 F930
G3 X52.86 Y96.321 J-0.319 F930
G1 Y53.179 F930
G3 X53.179 Y52.86 I0.319 F930
G1 X78.241 F930
; MOVEMENT_LINK_TRANSITION
G2 X80.551 Y51.32 J-2.503 F930
G3 X82.861 Y49.78 I2.31 J0.963 F930
; MOVEMENT_CUTTING
G1 X99.401 F930
G3 X99.72 Y50.099 J0.319 F930
G1 Y99.401 F930
G3 X99.401 Y99.72 I-0.319 F930
G1 X50.099 F930
G3 X49.78 Y99.401 J-0.319 F930
G1 Y50.099 F930
G3 X50.099 Y49.78 I0.319 F930
G1 X82.861 F930
; MOVEMENT_LINK_TRANSITION
G2 X82.923 Y49.774 J-0.317 F930
G1 X98.096 Y46.706 F930
G3 X98.159 Y46.7 I0.063 J0.311 F930
; MOVEMENT_CUTTING
G1 X102.481 F930
G3 X102.8 Y47.019 J0.319 F930
G1 Y102.481 F930
G3 X102.481 Y102.8 I-0.319 F930
G1 X47.019 F930
G3 X46.7 Y102.481 J-0.319 F930
G1 Y47.019 F930
G3 X47.019 Y46.7 I0.319 F930
G1 X51.33 F930
; MOVEMENT_LINK_TRANSITION
G1 X55.16 F930
; MOVEMENT_CUTTING
G1 X94.33 F930
; MOVEMENT_LINK_TRANSITION
G2 X94.518 Y46.638 J-0.318 F930
G1 X98.535 Y43.682 F930
G3 X98.723 Y43.62 I0.188 J0.256 F930
; MOVEMENT_CUTTING
G1 X105.561 F930
G3 X105.88 Y43.939 J0.319 F930
G1 Y105.561 F930
G3 X105.561 Y105.88 I-0.319 F930
G1 X43.939 F930
G3 X43.62 Y105.561 J-0.319 F930
G1 Y43.939 F930
G3 X43.939 Y43.62 I0.319 F930
G1 X50.783 F930
; MOVEMENT_LINK_TRANSITION
G1 X55.724 F930
; MOVEMENT_CUTTING
G1 X93.782 F930
; MOVEMENT_LINK_TRANSITION
G2 X96.059 Y42.103 J-2.466 F930
G3 X98.335 Y40.585 I2.276 J0.948 F930
; MOVEMENT_CUTTING
G1 X108.5 F930
G3 X108.915 Y41 J0.415 F930
G1 Y108.5 F930
G3 X108.5 Y108.915 I-0.415 F930
G1 X41 F930
G3 X40.585 Y108.5 J-0.415 F930
G1 Y41 F930
G3 X41 Y40.585 I0.415 F930
G1 X98.335 F930
; MOVEMENT_LINK_TRANSITION
G2 X100.645 Y39.045 J-2.502 F930
G3 X102.955 Y37.505 I2.31 J0.963 F930
; MOVEMENT_CUTTING
G1 X108.5 F930
G3 X111.995 Y41 J3.495 F930
G1 Y108.5 F930
G3 X108.5 Y111.995 I-3.495 F930
G1 X41 F930
G3 X37.505 Y108.5 J-3.495 F930
G1 Y41 F930
G3 X41 Y37.505 I3.495 F930
G1 X102.955 F930
; MOVEMENT_LINK_TRANSITION
G2 X105.302 Y35.94 J-2.543 F930
G3 X107.65 Y34.375 I2.347 J0.978 F930
; MOVEMENT_CUTTING
G1 X108.5 F930
G3 X115.125 Y41 J6.625 F930
G1 Y108.5 F930
G3 X108.5 Y115.125 I-6.625 F930
G1 X41 F930
G3 X34.375 Y108.5 J-6.625 F930
G1 Y41 F930
G3 X41 Y34.375 I6.625 F930
G1 X107.65 F930
; MOVEMENT_LINK_TRANSITION
G2 X107.8 Y34.275 J-0.162 F930
G3 X107.95 Y34.175 I0.15 J0.063 F930
; MOVEMENT_FINISH_CUTTING
G1 X108.5 F930
G3 X115.325 Y41 J6.825 F930
G1 Y108.5 F930
G3 X108.5 Y115.325 I-6.825 F930
G1 X41 F930
G3 X34.175 Y108.5 J-6.825 F930
G1 Y41 F930
G3 X41 Y34.175 I6.825 F930
G1 X107.95 F930
; MOVEMENT_LEAD_OUT
G1 X108.015 Y34.18 Z-4.19 F930
G1 X108.079 Y34.192 Z-4.179 F930
G1 X108.142 Y34.211 Z-4.169 F930
G1 X108.196 Y34.233 Z-4.139 F930
G1 X108.249 Y34.261 Z-4.109 F930
G1 X108.298 Y34.293 Z-4.079 F930
G1 X108.352 Y34.337 Z-4.008 F930
G1 X108.401 Y34.388 Z-3.938 F930
G1 X108.43 Y34.423 Z-3.85 F930
G1 X108.455 Y34.46 Z-3.761 F930
G1 X108.471 Y34.486 Z-3.565 F930
G1 Z-3.2 F930
; MOVEMENT_LINK_TRANSITION
G1 X97.5 Y46.7 F930
; MOVEMENT_LEAD_IN
G1 Z-4.965 F930
G1 X97.503 Z-5.036 F930
G1 X97.515 Z-5.106 F930
G1 X97.535 Z-5.175 F930
G1 X97.562 Z-5.241 F930
G1 X97.597 Z-5.303 F930
G1 X97.638 Z-5.361 F930
G1 X97.685 Z-5.414 F930
G1 X97.739 Z-5.461 F930
G1 X97.797 Z-5.503 F930
G1 X97.859 Z-5.537 F930
G1 X97.925 Z-5.564 F930
G1 X97.993 Z-5.584 F930
G1 X98.063 Z-5.596 F930
G1 X98.135 Z-5.6 F930
G1 X102.481 F930
G3 X102.8 Y47.019 J0.319 F930
G1 Y74.494 F930
G3 X88.926 Y79.03 I-7.678 F930
G2 X74.881 Y75.056 I-9.565 J7.002 F930
; MOVEMENT_CUTTING
G3 X74.761 Y75.08 I-0.121 J-0.296 F930
G1 X74.739 F930
G3 X74.42 Y74.761 J-0.319 F930
G1 Y74.739 F930
G3 X74.739 Y74.42 I0.319 F930
G1 X74.761 F930
G3 X75.08 Y74.739 J0.319 F930
G1 Y74.761 F930
G3 X74.881 Y75.056 I-0.319 F930
; MOVEMENT_LINK_TRANSITION
G2 X73.396 Y76.535 I1.028 J2.518 F930
G3 X71.34 Y76.127 I-0.987 J-0.408 F930
; MOVEMENT_CUTTING
G1 Y71.659 F930
G3 X71.659 Y71.34 I0.319 F930
G1 X77.841 F930
G3 X78.16 Y71.659 J0.319 F930
G1 Y77.841 F930
G3 X77.841 Y78.16 I-0.319 F930
G1 X71.659 F930
G3 X71.34 Y77.841 J-0.319 F930
G1 Y76.127 F930
; MOVEMENT_LINK_TRANSITION
G2 X69.8 Y73.817 I-2.502 F930
G3 X68.26 Y71.507 I0.962 J-2.31 F930
; MOVEMENT_CUTTING
G1 Y68.579 F930
G3 X68.579 Y68.26 I0.319 F930
G1 X80.921 F930
G3 X81.24 Y68.579 J0.319 F930
G1 Y80.921 F930
G3 X80.921 Y81.24 I-0.319 F930
G1 X68.579 F930
G3 X68.26 Y80.921 J-0.319 F930
G1 Y71.507 F930
; MOVEMENT_LINK_TRANSITION
G2 X66.72 Y69.197 I-2.503 F930
G3 X65.18 Y66.887 I0.963 J-2.31 F930
; MOVEMENT_CUTTING
G1 Y65.499 F930
G3 X65.499 Y65.18 I0.319 F930
G1 X84.001 F930
G3 X84.32 Y65.499 J0.319 F930
G1 Y84.001 F930
G3 X84.001 Y84.32 I-0.319 F930
G1 X65.499 F930
G3 X65.18 Y84.001 J-0.319 F930
G1 Y66.887 F930
; MOVEMENT_LINK_TRANSITION
G2 X63.789 Y64.659 I-2.479 F930
G3 X64.381 Y62.1 I0.592 J-1.211 F930
; MOVEMENT_CUTTING
G1 X87.081 F930
G3 X87.4 Y62.419 J0.319 F930
G1 Y87.081 F930
G3 X87.081 Y87.4 I-0.319 F930
G1 X62.419 F930
G3 X62.1 Y87.081 J-0.319 F930
G1 Y62.419 F930
G3 X62.419 Y62.1 I0.319 F930
G1 X64.381 F930
; MOVEMENT_LINK_TRANSITION
G2 X66.691 Y60.56 J-2.502 F930
G3 X69.001 Y59.02 I2.31 J0.962 F930
; MOVEMENT_CUTTING
G1 X90.161 F930
G3 X90.48 Y59.339 J0.319 F930
G1 Y90.161 F930
G3 X90.161 Y90.48 I-0.319 F930
G1 X59.339 F930
G3 X59.02 Y90.161 J-0.319 F930
G1 Y59.339 F930
G3 X59.339 Y59.02 I0.319 F930
G1 X69.001 F930
; MOVEMENT_LINK_TRANSITION
G2 X71.311 Y57.48 J-2.502 F930
G3 X73.621 Y55.94 I2.31 J0.963 F930
; MOVEMENT_CUTTING
G1 X93.241 F930
G3 X93.56 Y56.259 J0.319 F930
G1 Y93.241 F930
G3 X93.241 Y93.56 I-0.319 F930
G1 X56.259 F930
G3 X55.94 Y93.241 J-0.319 F930
G1 Y56.259 F930
G3 X56.259 Y55.94 I0.319 F930
G1 X73.621 F930
; MOVEMENT_LINK_TRANSITION
G2 X75.931 Y54.4 J-2.502 F930
G3 X78.241 Y52.86 I2.31 J0.962 F930
; MOVEMENT_CUTTING
G1 X96.321 F930
G3 X96.64 Y53.179 J0.319 F930
G1 Y96.321 F930
G3 X96.321 Y96.64 I-0.319 F930
G1 X53.179 F930
G3 X52.86 Y96.321 J-0.319 F930
G1 Y53.179 F930
G3 X53.179 Y52.86 I0.319 F930
G1 X78.241 F930
; MOVEMENT_LINK_TRANSITION
G2 X80.551 Y51.32 J-2.503 F930
G3 X82.861 Y49.78 I2.31 J0.963 F930
; MOVEMENT_CUTTING
G1 X99.401 F930
G3 X99.72 Y50.099 J0.319 F930
G1 Y99.401 F930
G3 X99.401 Y99.72 I-0.319 F930
G1 X50.099 F930
G3 X49.78 Y99.401 J-0.319 F930
G1 Y50.099 F930
G3 X50.099 Y49.78 I0.319 F930
G1 X82.861 F930
; MOVEMENT_LINK_TRANSITION
G2 X82.923 Y49.774 J-0.317 F930
G1 X98.096 Y46.706 F930
G3 X98.159 Y46.7 I0.063 J0.311 F930
; MOVEMENT_CUTTING
G1 X102.481 F930
G3 X102.8 Y47.019 J0.319 F930
G1 Y102.481 F930
G3 X102.481 Y102.8 I-0.319 F930
G1 X47.019 F930
G3 X46.7 Y102.481 J-0.319 F930
G1 Y47.019 F930
G3 X47.019 Y46.7 I0.319 F930
G1 X51.33 F930
; MOVEMENT_LINK_TRANSITION
G1 X55.16 F930
; MOVEMENT_CUTTING
G1 X94.33 F930
; MOVEMENT_LINK_TRANSITION
G2 X94.518 Y46.638 J-0.318 F930
G1 X98.535 Y43.682 F930
G3 X98.723 Y43.62 I0.188 J0.256 F930
; MOVEMENT_CUTTING
G1 X105.561 F930
G3 X105.88 Y43.939 J0.319 F930
G1 Y105.561 F930
G3 X105.561 Y105.88 I-0.319 F930
G1 X43.939 F930
G3 X43.62 Y105.561 J-0.319 F930
G1 Y43.939 F930
G3 X43.939 Y43.62 I0.319 F930
G1 X50.783 F930
; MOVEMENT_LINK_TRANSITION
G1 X55.724 F930
; MOVEMENT_CUTTING
G1 X93.782 F930
; MOVEMENT_LINK_TRANSITION
G2 X96.059 Y42.103 J-2.466 F930
G3 X98.335 Y40.585 I2.276 J0.948 F930
; MOVEMENT_CUTTING
G1 X108.5 F930
G3 X108.915 Y41 J0.415 F930
G1 Y108.5 F930
G3 X108.5 Y108.915 I-0.415 F930
G1 X41 F930
G3 X40.585 Y108.5 J-0.415 F930
G1 Y41 F930
G3 X41 Y40.585 I0.415 F930
G1 X98.335 F930
; MOVEMENT_LINK_TRANSITION
G2 X100.645 Y39.045 J-2.502 F930
G3 X102.955 Y37.505 I2.31 J0.963 F930
; MOVEMENT_CUTTING
G1 X108.5 F930
G3 X111.995 Y41 J3.495 F930
G1 Y108.5 F930
G3 X108.5 Y111.995 I-3.495 F930
G1 X41 F930
G3 X37.505 Y108.5 J-3.495 F930
G1 Y41 F930
G3 X41 Y37.505 I3.495 F930
G1 X102.955 F930
; MOVEMENT_LINK_TRANSITION
G2 X105.302 Y35.94 J-2.543 F930
G3 X107.65 Y34.375 I2.347 J0.978 F930
; MOVEMENT_CUTTING
G1 X108.5 F930
G3 X115.125 Y41 J6.625 F930
G1 Y108.5 F930
G3 X108.5 Y115.125 I-6.625 F930
G1 X41 F930
G3 X34.375 Y108.5 J-6.625 F930
G1 Y41 F930
G3 X41 Y34.375 I6.625 F930
G1 X107.65 F930
; MOVEMENT_LINK_TRANSITION
G2 X107.8 Y34.275 J-0.162 F930
G3 X107.95 Y34.175 I0.15 J0.063 F930
; MOVEMENT_FINISH_CUTTING
G1 X108.5 F930
G3 X115.325 Y41 J6.825 F930
G1 Y108.5 F930
G3 X108.5 Y115.325 I-6.825 F930
G1 X41 F930
G3 X34.175 Y108.5 J-6.825 F930
G1 Y41 F930
G3 X41 Y34.175 I6.825 F930
G1 X107.95 F930
; MOVEMENT_LEAD_OUT
G1 X108.015 Y34.18 Z-5.59 F930
G1 X108.079 Y34.192 Z-5.579 F930
G1 X108.142 Y34.211 Z-5.569 F930
G1 X108.196 Y34.233 Z-5.539 F930
G1 X108.249 Y34.261 Z-5.509 F930
G1 X108.298 Y34.293 Z-5.479 F930
G1 X108.352 Y34.337 Z-5.408 F930
G1 X108.401 Y34.388 Z-5.338 F930
G1 X108.43 Y34.423 Z-5.25 F930
G1 X108.455 Y34.46 Z-5.161 F930
G1 X108.471 Y34.486 Z-4.965 F930
G1 Z-4.6 F930
; MOVEMENT_LINK_TRANSITION
G1 X97.5 Y46.7 F930
; MOVEMENT_LEAD_IN
G1 Z-6.365 F930
G1 X97.503 Z-6.436 F930
G1 X97.515 Z-6.506 F930
G1 X97.535 Z-6.575 F930
G1 X97.562 Z-6.641 F930
G1 X97.597 Z-6.703 F930
G1 X97.638 Z-6.761 F930
G1 X97.685 Z-6.814 F930
G1 X97.739 Z-6.861 F930
G1 X97.797 Z-6.903 F930
G1 X97.859 Z-6.937 F930
G1 X97.925 Z-6.964 F930
G1 X97.993 Z-6.984 F930
G1 X98.063 Z-6.996 F930
G1 X98.135 Z-7 F930
G1 X102.481 F930
G3 X102.8 Y47.019 J0.319 F930
G1 Y74.494 F930
G3 X88.926 Y79.03 I-7.678 F930
G2 X74.881 Y75.056 I-9.565 J7.002 F930
; MOVEMENT_CUTTING
G3 X74.761 Y75.08 I-0.121 J-0.296 F930
G1 X74.739 F930
G3 X74.42 Y74.761 J-0.319 F930
G1 Y74.739 F930
G3 X74.739 Y74.42 I0.319 F930
G1 X74.761 F930
G3 X75.08 Y74.739 J0.319 F930
G1 Y74.761 F930
G3 X74.881 Y75.056 I-0.319 F930
; MOVEMENT_LINK_TRANSITION
G2 X73.396 Y76.535 I1.028 J2.518 F930
G3 X71.34 Y76.127 I-0.987 J-0.408 F930
; MOVEMENT_CUTTING
G1 Y71.659 F930
G3 X71.659 Y71.34 I0.319 F930
G1 X77.841 F930
G3 X78.16 Y71.659 J0.319 F930
G1 Y77.841 F930
G3 X77.841 Y78.16 I-0.319 F930
G1 X71.659 F930
G3 X71.34 Y77.841 J-0.319 F930
G1 Y76.127 F930
; MOVEMENT_LINK_TRANSITION
G2 X69.8 Y73.817 I-2.502 F930
G3 X68.26 Y71.507 I0.962 J-2.31 F930
; MOVEMENT_CUTTING
G1 Y68.579 F930
G3 X68.579 Y68.26 I0.319 F930
G1 X80.921 F930
G3 X81.24 Y68.579 J0.319 F930
G1 Y80.921 F930
G3 X80.921 Y81.24 I-0.319 F930
G1 X68.579 F930
G3 X68.26 Y80.921 J-0.319 F930
G1 Y71.507 F930
; MOVEMENT_LINK_TRANSITION
G2 X66.72 Y69.197 I-2.503 F930
G3 X65.18 Y66.887 I0.963 J-2.31 F930
; MOVEMENT_CUTTING
G1 Y65.499 F930
G3 X65.499 Y65.18 I0.319 F930
G1 X84.001 F930
G3 X84.32 Y65.499 J0.319 F930
G1 Y84.001 F930
G3 X84.001 Y84.32 I-0.319 F930
G1 X65.499 F930
G3 X65.18 Y84.001 J-0.319 F930
G1 Y66.887 F930
; MOVEMENT_LINK_TRANSITION
G2 X63.789 Y64.659 I-2.479 F930
G3 X64.381 Y62.1 I0.592 J-1.211 F930
; MOVEMENT_CUTTING
G1 X87.081 F930
G3 X87.4 Y62.419 J0.319 F930
G1 Y87.081 F930
G3 X87.081 Y87.4 I-0.319 F930
G1 X62.419 F930
G3 X62.1 Y87.081 J-0.319 F930
G1 Y62.419 F930
G3 X62.419 Y62.1 I0.319 F930
G1 X64.381 F930
; MOVEMENT_LINK_TRANSITION
G2 X66.691 Y60.56 J-2.502 F930
G3 X69.001 Y59.02 I2.31 J0.962 F930
; MOVEMENT_CUTTING
G1 X90.161 F930
G3 X90.48 Y59.339 J0.319 F930
G1 Y90.161 F930
G3 X90.161 Y90.48 I-0.319 F930
G1 X59.339 F930
G3 X59.02 Y90.161 J-0.319 F930
G1 Y59.339 F930
G3 X59.339 Y59.02 I0.319 F930
G1 X69.001 F930
; MOVEMENT_LINK_TRANSITION
G2 X71.311 Y57.48 J-2.502 F930
G3 X73.621 Y55.94 I2.31 J0.963 F930
; MOVEMENT_CUTTING
G1 X93.241 F930
G3 X93.56 Y56.259 J0.319 F930
G1 Y93.241 F930
G3 X93.241 Y93.56 I-0.319 F930
G1 X56.259 F930
G3 X55.94 Y93.241 J-0.319 F930
G1 Y56.259 F930
G3 X56.259 Y55.94 I0.319 F930
G1 X73.621 F930
; MOVEMENT_LINK_TRANSITION
G2 X75.931 Y54.4 J-2.502 F930
G3 X78.241 Y52.86 I2.31 J0.962 F930
; MOVEMENT_CUTTING
G1 X96.321 F930
G3 X96.64 Y53.179 J0.319 F930
G1 Y96.321 F930
G3 X96.321 Y96.64 I-0.319 F930
G1 X53.179 F930
G3 X52.86 Y96.321 J-0.319 F930
G1 Y53.179 F930
G3 X53.179 Y52.86 I0.319 F930
G1 X78.241 F930
; MOVEMENT_LINK_TRANSITION
G2 X80.551 Y51.32 J-2.503 F930
G3 X82.861 Y49.78 I2.31 J0.963 F930
; MOVEMENT_CUTTING
G1 X99.401 F930
G3 X99.72 Y50.099 J0.319 F930
G1 Y99.401 F930
G3 X99.401 Y99.72 I-0.319 F930
G1 X50.099 F930
G3 X49.78 Y99.401 J-0.319 F930
G1 Y50.099 F930
G3 X50.099 Y49.78 I0.319 F930
G1 X82.861 F930
; MOVEMENT_LINK_TRANSITION
G2 X82.923 Y49.774 J-0.317 F930
G1 X98.096 Y46.706 F930
G3 X98.159 Y46.7 I0.063 J0.311 F930
; MOVEMENT_CUTTING
G1 X102.481 F930
G3 X102.8 Y47.019 J0.319 F930
G1 Y102.481 F930
G3 X102.481 Y102.8 I-0.319 F930
G1 X47.019 F930
G3 X46.7 Y102.481 J-0.319 F930
G1 Y47.019 F930
G3 X47.019 Y46.7 I0.319 F930
G1 X51.33 F930
; MOVEMENT_LINK_TRANSITION
G1 X55.16 F930
; MOVEMENT_CUTTING
G1 X94.33 F930
; MOVEMENT_LINK_TRANSITION
G2 X94.518 Y46.638 J-0.318 F930
G1 X98.535 Y43.682 F930
G3 X98.723 Y43.62 I0.188 J0.256 F930
; MOVEMENT_CUTTING
G1 X105.561 F930
G3 X105.88 Y43.939 J0.319 F930
G1 Y105.561 F930
G3 X105.561 Y105.88 I-0.319 F930
G1 X43.939 F930
G3 X43.62 Y105.561 J-0.319 F930
G1 Y43.939 F930
G3 X43.939 Y43.62 I0.319 F930
G1 X50.783 F930
; MOVEMENT_LINK_TRANSITION
G1 X55.724 F930
; MOVEMENT_CUTTING
G1 X93.782 F930
; MOVEMENT_LINK_TRANSITION
G2 X96.059 Y42.103 J-2.466 F930
G3 X98.335 Y40.585 I2.276 J0.948 F930
; MOVEMENT_CUTTING
G1 X108.5 F930
G3 X108.915 Y41 J0.415 F930
G1 Y108.5 F930
G3 X108.5 Y108.915 I-0.415 F930
G1 X41 F930
G3 X40.585 Y108.5 J-0.415 F930
G1 Y41 F930
G3 X41 Y40.585 I0.415 F930
G1 X98.335 F930
; MOVEMENT_LINK_TRANSITION
G2 X100.645 Y39.045 J-2.502 F930
G3 X102.955 Y37.505 I2.31 J0.963 F930
; MOVEMENT_CUTTING
G1 X108.5 F930
G3 X111.995 Y41 J3.495 F930
G1 Y108.5 F930
G3 X108.5 Y111.995 I-3.495 F930
G1 X41 F930
G3 X37.505 Y108.5 J-3.495 F930
G1 Y41 F930
G3 X41 Y37.505 I3.495 F930
G1 X102.955 F930
; MOVEMENT_LINK_TRANSITION
G2 X105.302 Y35.94 J-2.543 F930
G3 X107.65 Y34.375 I2.347 J0.978 F930
; MOVEMENT_CUTTING
G1 X108.5 F930
G3 X115.125 Y41 J6.625 F930
G1 Y108.5 F930
G3 X108.5 Y115.125 I-6.625 F930
G1 X41 F930
G3 X34.375 Y108.5 J-6.625 F930
G1 Y41 F930
G3 X41 Y34.375 I6.625 F930
G1 X107.65 F930
; MOVEMENT_LINK_TRANSITION
G2 X107.8 Y34.275 J-0.162 F930
G3 X107.95 Y34.175 I0.15 J0.063 F930
; MOVEMENT_FINISH_CUTTING
G1 X108.5 F930
G3 X115.325 Y41 J6.825 F930
G1 Y108.5 F930
G3 X108.5 Y115.325 I-6.825 F930
G1 X41 F930
G3 X34.175 Y108.5 J-6.825 F930
G1 Y41 F930
G3 X41 Y34.175 I6.825 F930
G1 X107.95 F930
; MOVEMENT_LEAD_OUT
G1 X108.015 Y34.18 Z-6.99 F930
G1 X108.079 Y34.192 Z-6.979 F930
G1 X108.142 Y34.211 Z-6.969 F930
G1 X108.196 Y34.233 Z-6.939 F930
G1 X108.249 Y34.261 Z-6.909 F930
G1 X108.298 Y34.293 Z-6.879 F930
G1 X108.352 Y34.337 Z-6.808 F930
G1 X108.401 Y34.388 Z-6.738 F930
G1 X108.43 Y34.423 Z-6.65 F930
G1 X108.455 Y34.46 Z-6.561 F930
G1 X108.471 Y34.486 Z-6.365 F930
; MOVEMENT_CUTTING
G1 Z10 F930
; *** SECTION end ***
;
;When using Fusion for Personal Use, the feedrate of rapid
;moves is reduced to match the feedrate of cutting moves,
;which can increase machining time. Unrestricted rapid moves
;are available with a Fusion Subscription.
; *** SECTION begin ***
;   X Min: 50.591 - X Max: 98.909
;   Y Min: 42.091 - Y Max: 47.409
;   Z Min: -12.5 - Z Max: 10
; Bore3 - Milling - Tool: 5 -  flat end mill
; COMMAND_START_SPINDLE
; COMMAND_SPINDLE_CLOCKWISE
; COMMAND_COOLANT_ON
M117  Bore3
G1 X52.179 Y45.385 Z10 F930
G1 Z-5 F930
; MOVEMENT_LEAD_IN
G1 Z-6.365 F930
G1 X52.175 Z-6.436 F930
G1 X52.163 Z-6.506 F930
G1 X52.143 Z-6.575 F930
G1 X52.116 Z-6.641 F930
G1 X52.081 Z-6.703 F930
G1 X52.04 Z-6.761 F930
G1 X51.993 Z-6.814 F930
G1 X51.94 Z-6.861 F930
G1 X51.882 Z-6.903 F930
G1 X51.819 Z-6.937 F930
G1 X51.753 Z-6.964 F930
G1 X51.685 Z-6.984 F930
G1 X51.615 Z-6.996 F930
G1 X51.544 Z-7 F930
G1 X51.226 F930
G3 X50.591 Y44.75 J-0.635 F930
; MOVEMENT_CUTTING
G1 X50.595 Y44.604 Z-7.004 F930
G1 X50.607 Y44.459 Z-7.007 F930
G1 X50.627 Y44.315 Z-7.011 F930
G1 X50.655 Y44.172 Z-7.014 F930
G1 X50.691 Y44.03 Z-7.018 F930
G1 X50.734 Y43.891 Z-7.021 F930
G1 X50.785 Y43.754 Z-7.025 F930
G1 X50.843 Y43.621 Z-7.028 F930
G1 X50.908 Y43.491 Z-7.032 F930
G1 X50.981 Y43.364 Z-7.036 F930
G1 X51.06 Y43.242 Z-7.039 F930
G1 X51.146 Y43.124 Z-7.043 F930
G1 X51.238 Y43.011 Z-7.046 F930
G1 X51.337 Y42.904 Z-7.05 F930
G1 X51.441 Y42.802 Z-7.053 F930
G1 X51.55 Y42.706 Z-7.057 F930
G1 X51.665 Y42.615 Z-7.06 F930
G1 X51.784 Y42.532 Z-7.064 F930
G1 X51.908 Y42.455 Z-7.068 F930
G1 X52.036 Y42.385 Z-7.071 F930
G1 X52.167 Y42.322 Z-7.075 F930
G1 X52.302 Y42.266 Z-7.078 F930
G1 X52.439 Y42.218 Z-7.082 F930
G1 X52.579 Y42.177 Z-7.085 F930
G1 X52.721 Y42.144 Z-7.089 F930
G1 X52.865 Y42.119 Z-7.092 F930
G1 X53.01 Y42.102 Z-7.096 F930
G1 X53.155 Y42.093 Z-7.1 F930
G1 X53.301 Y42.092 Z-7.103 F930
G1 X53.447 Y42.099 Z-7.107 F930
G1 X53.592 Y42.113 Z-7.11 F930
G1 X53.736 Y42.136 Z-7.114 F930
G1 X53.878 Y42.166 Z-7.117 F930
G1 X54.019 Y42.205 Z-7.121 F930
G1 X54.157 Y42.251 Z-7.124 F930
G1 X54.293 Y42.304 Z-7.128 F930
G1 X54.425 Y42.365 Z-7.132 F930
G1 X54.554 Y42.433 Z-7.135 F930
G1 X54.679 Y42.508 Z-7.139 F930
G1 X54.8 Y42.59 Z-7.142 F930
G1 X54.916 Y42.678 Z-7.146 F930
G1 X55.027 Y42.772 Z-7.149 F930
G1 X55.133 Y42.873 Z-7.153 F930
G1 X55.233 Y42.978 Z-7.156 F930
G1 X55.327 Y43.09 Z-7.16 F930
G1 X55.415 Y43.206 Z-7.164 F930
G1 X55.496 Y43.327 Z-7.167 F930
G1 X55.571 Y43.452 Z-7.171 F930
G1 X55.638 Y43.581 Z-7.174 F930
G1 X55.699 Y43.714 Z-7.178 F930
G1 X55.752 Y43.85 Z-7.181 F930
G1 X55.797 Y43.988 Z-7.185 F930
G1 X55.835 Y44.129 Z-7.188 F930
G1 X55.865 Y44.271 Z-7.192 F930
G1 X55.888 Y44.416 Z-7.196 F930
G1 X55.902 Y44.561 Z-7.199 F930
G1 X55.908 Y44.706 Z-7.203 F930
G1 X55.907 Y44.852 Z-7.206 F930
G1 X55.897 Y44.997 Z-7.21 F930
G1 X55.88 Y45.142 Z-7.213 F930
G1 X55.854 Y45.286 Z-7.217 F930
G1 X55.821 Y45.427 Z-7.22 F930
G1 X55.78 Y45.567 Z-7.224 F930
G1 X55.731 Y45.705 Z-7.228 F930
G1 X55.675 Y45.839 Z-7.231 F930
G1 X55.612 Y45.971 Z-7.235 F930
G1 X55.542 Y46.098 Z-7.238 F930
G1 X55.464 Y46.222 Z-7.242 F930
G1 X55.38 Y46.341 Z-7.245 F930
G1 X55.29 Y46.455 Z-7.249 F930
G1 X55.193 Y46.564 Z-7.252 F930
G1 X55.091 Y46.668 Z-7.256 F930
G1 X54.983 Y46.766 Z-7.26 F930
G1 X54.87 Y46.858 Z-7.263 F930
G1 X54.752 Y46.944 Z-7.267 F930
G1 X54.63 Y47.023 Z-7.27 F930
G1 X54.503 Y47.095 Z-7.274 F930
G1 X54.373 Y47.16 Z-7.277 F930
G1 X54.239 Y47.218 Z-7.281 F930
G1 X54.102 Y47.268 Z-7.284 F930
G1 X53.963 Y47.311 Z-7.288 F930
G1 X53.821 Y47.347 Z-7.292 F930
G1 X53.678 Y47.374 Z-7.295 F930
G1 X53.534 Y47.394 Z-7.299 F930
G1 X53.389 Y47.405 Z-7.302 F930
G1 X53.243 Y47.409 Z-7.306 F930
G1 X53.097 Y47.404 Z-7.309 F930
G1 X52.952 Y47.392 Z-7.313 F930
G1 X52.808 Y47.372 Z-7.316 F930
G1 X52.665 Y47.344 Z-7.32 F930
G1 X52.523 Y47.308 Z-7.324 F930
G1 X52.384 Y47.264 Z-7.327 F930
G1 X52.248 Y47.213 Z-7.331 F930
G1 X52.114 Y47.154 Z-7.334 F930
G1 X51.984 Y47.088 Z-7.338 F930
G1 X51.858 Y47.015 Z-7.341 F930
G1 X51.736 Y46.936 Z-7.345 F930
G1 X51.619 Y46.849 Z-7.348 F930
G1 X51.506 Y46.757 Z-7.352 F930
G1 X51.399 Y46.658 Z-7.356 F930
G1 X51.297 Y46.554 Z-7.359 F930
G1 X51.201 Y46.444 Z-7.363 F930
G1 X51.111 Y46.329 Z-7.366 F930
G1 X51.028 Y46.21 Z-7.37 F930
G1 X50.951 Y46.086 Z-7.373 F930
G1 X50.881 Y45.958 Z-7.377 F930
G1 X50.819 Y45.826 Z-7.38 F930
G1 X50.763 Y45.691 Z-7.384 F930
G1 X50.716 Y45.554 Z-7.388 F930
G1 X50.675 Y45.414 Z-7.391 F930
G1 X50.643 Y45.272 Z-7.395 F930
G1 X50.618 Y45.128 Z-7.398 F930
G1 X50.601 Y44.983 Z-7.402 F930
G1 X50.593 Y44.838 Z-7.405 F930
G1 X50.592 Y44.692 Z-7.409 F930
G1 X50.599 Y44.546 Z-7.412 F930
G1 X50.614 Y44.401 Z-7.416 F930
G1 X50.637 Y44.257 Z-7.42 F930
G1 X50.668 Y44.115 Z-7.423 F930
G1 X50.707 Y43.974 Z-7.427 F930
G1 X50.753 Y43.836 Z-7.43 F930
G1 X50.807 Y43.701 Z-7.434 F930
G1 X50.868 Y43.569 Z-7.437 F930
G1 X50.937 Y43.44 Z-7.441 F930
G1 X51.012 Y43.315 Z-7.444 F930
G1 X51.094 Y43.194 Z-7.448 F930
G1 X51.182 Y43.079 Z-7.452 F930
G1 X51.277 Y42.968 Z-7.455 F930
G1 X51.378 Y42.862 Z-7.459 F930
G1 X51.484 Y42.763 Z-7.462 F930
G1 X51.595 Y42.669 Z-7.466 F930
G1 X51.712 Y42.581 Z-7.469 F930
G1 X51.833 Y42.5 Z-7.473 F930
G1 X51.958 Y42.426 Z-7.476 F930
G1 X52.088 Y42.359 Z-7.48 F930
G1 X52.221 Y42.299 Z-7.484 F930
G1 X52.356 Y42.246 Z-7.487 F930
G1 X52.495 Y42.201 Z-7.491 F930
G1 X52.636 Y42.163 Z-7.494 F930
G1 X52.779 Y42.133 Z-7.498 F930
G1 X52.923 Y42.111 Z-7.501 F930
G1 X53.068 Y42.098 Z-7.505 F930
G1 X53.213 Y42.092 Z-7.508 F930
G1 X53.359 Y42.093 Z-7.512 F930
G1 X53.504 Y42.103 Z-7.516 F930
G1 X53.649 Y42.121 Z-7.519 F930
G1 X53.793 Y42.147 Z-7.523 F930
G1 X53.934 Y42.181 Z-7.526 F930
G1 X54.074 Y42.222 Z-7.53 F930
G1 X54.211 Y42.271 Z-7.533 F930
G1 X54.346 Y42.328 Z-7.537 F930
G1 X54.477 Y42.391 Z-7.54 F930
G1 X54.604 Y42.462 Z-7.544 F930
G1 X54.728 Y42.54 Z-7.548 F930
G1 X54.847 Y42.624 Z-7.551 F930
G1 X54.961 Y42.715 Z-7.555 F930
G1 X55.07 Y42.811 Z-7.558 F930
G1 X55.173 Y42.914 Z-7.562 F930
G1 X55.271 Y43.022 Z-7.565 F930
G1 X55.362 Y43.136 Z-7.569 F930
G1 X55.448 Y43.254 Z-7.572 F930
G1 X55.526 Y43.376 Z-7.576 F930
G1 X55.598 Y43.503 Z-7.58 F930
G1 X55.663 Y43.634 Z-7.583 F930
G1 X55.721 Y43.768 Z-7.587 F930
G1 X55.771 Y43.905 Z-7.59 F930
G1 X55.813 Y44.044 Z-7.594 F930
G1 X55.848 Y44.186 Z-7.597 F930
G1 X55.875 Y44.329 Z-7.601 F930
G1 X55.894 Y44.473 Z-7.604 F930
G1 X55.905 Y44.619 Z-7.608 F930
G1 X55.909 Y44.764 Z-7.612 F930
G1 X55.904 Y44.91 Z-7.615 F930
G1 X55.891 Y45.055 Z-7.619 F930
G1 X55.87 Y45.199 Z-7.622 F930
G1 X55.842 Y45.342 Z-7.626 F930
G1 X55.806 Y45.484 Z-7.629 F930
G1 X55.762 Y45.622 Z-7.633 F930
G1 X55.71 Y45.759 Z-7.636 F930
G1 X55.651 Y45.892 Z-7.64 F930
G1 X55.585 Y46.022 Z-7.644 F930
G1 X55.512 Y46.148 Z-7.647 F930
G1 X55.432 Y46.27 Z-7.651 F930
G1 X55.345 Y46.387 Z-7.654 F930
G1 X55.252 Y46.499 Z-7.658 F930
G1 X55.153 Y46.606 Z-7.661 F930
G1 X55.049 Y46.708 Z-7.665 F930
G1 X54.939 Y46.804 Z-7.668 F930
G1 X54.824 Y46.893 Z-7.672 F930
G1 X54.704 Y46.976 Z-7.676 F930
G1 X54.58 Y47.052 Z-7.679 F930
G1 X54.451 Y47.122 Z-7.683 F930
G1 X54.32 Y47.184 Z-7.686 F930
G1 X54.185 Y47.239 Z-7.69 F930
G1 X54.047 Y47.287 Z-7.693 F930
G1 X53.907 Y47.326 Z-7.697 F930
G1 X53.765 Y47.358 Z-7.7 F930
G1 X53.621 Y47.383 Z-7.704 F930
G1 X53.476 Y47.399 Z-7.707 F930
G1 X53.33 Y47.408 Z-7.711 F930
G1 X53.185 Z-7.715 F930
G1 X53.039 Y47.4 Z-7.718 F930
G1 X52.894 Y47.385 Z-7.722 F930
G1 X52.75 Y47.361 Z-7.725 F930
G1 X52.608 Y47.33 Z-7.729 F930
G1 X52.468 Y47.291 Z-7.732 F930
G1 X52.33 Y47.244 Z-7.736 F930
G1 X52.194 Y47.19 Z-7.739 F930
G1 X52.062 Y47.129 Z-7.743 F930
G1 X51.934 Y47.06 Z-7.747 F930
G1 X51.809 Y46.984 Z-7.75 F930
G1 X51.689 Y46.902 Z-7.754 F930
G1 X51.573 Y46.813 Z-7.757 F930
G1 X51.463 Y46.718 Z-7.761 F930
G1 X51.357 Y46.617 Z-7.764 F930
G1 X51.258 Y46.511 Z-7.768 F930
G1 X51.164 Y46.399 Z-7.771 F930
G1 X51.077 Y46.282 Z-7.775 F930
G1 X50.996 Y46.161 Z-7.779 F930
G1 X50.923 Y46.035 Z-7.782 F930
G1 X50.856 Y45.906 Z-7.786 F930
G1 X50.796 Y45.773 Z-7.789 F930
G1 X50.744 Y45.637 Z-7.793 F930
G1 X50.699 Y45.498 Z-7.796 F930
G1 X50.662 Y45.357 Z-7.8 F930
G1 X50.632 Y45.214 Z-7.803 F930
G1 X50.611 Y45.07 Z-7.807 F930
G1 X50.597 Y44.925 Z-7.811 F930
G1 X50.591 Y44.78 Z-7.814 F930
G1 X50.594 Y44.634 Z-7.818 F930
G1 X50.604 Y44.488 Z-7.821 F930
G1 X50.622 Y44.344 Z-7.825 F930
G1 X50.649 Y44.2 Z-7.828 F930
G1 X50.683 Y44.059 Z-7.832 F930
G1 X50.724 Y43.919 Z-7.835 F930
G1 X50.774 Y43.782 Z-7.839 F930
G1 X50.831 Y43.648 Z-7.843 F930
G1 X50.895 Y43.517 Z-7.846 F930
G1 X50.966 Y43.39 Z-7.85 F930
G1 X51.044 Y43.266 Z-7.853 F930
G1 X51.128 Y43.148 Z-7.857 F930
G1 X51.219 Y43.034 Z-7.86 F930
G1 X51.316 Y42.925 Z-7.864 F930
G1 X51.419 Y42.822 Z-7.867 F930
G1 X51.528 Y42.724 Z-7.871 F930
G1 X51.641 Y42.633 Z-7.875 F930
G1 X51.76 Y42.548 Z-7.878 F930
G1 X51.883 Y42.47 Z-7.882 F930
G1 X52.01 Y42.398 Z-7.885 F930
G1 X52.14 Y42.334 Z-7.889 F930
G1 X52.274 Y42.277 Z-7.892 F930
G1 X52.411 Y42.227 Z-7.896 F930
G1 X52.551 Y42.185 Z-7.899 F930
G1 X52.693 Y42.15 Z-7.903 F930
G1 X52.836 Y42.124 Z-7.907 F930
G1 X52.98 Y42.105 Z-7.91 F930
G1 X53.126 Y42.094 Z-7.914 F930
G1 X53.271 Y42.091 Z-7.917 F930
G1 X53.417 Y42.097 Z-7.921 F930
G1 X53.562 Y42.11 Z-7.924 F930
G1 X53.707 Y42.131 Z-7.928 F930
G1 X53.849 Y42.16 Z-7.931 F930
G1 X53.99 Y42.196 Z-7.935 F930
G1 X54.129 Y42.241 Z-7.939 F930
G1 X54.265 Y42.293 Z-7.942 F930
G1 X54.399 Y42.352 Z-7.946 F930
G1 X54.528 Y42.419 Z-7.949 F930
G1 X54.654 Y42.492 Z-7.953 F930
G1 X54.776 Y42.573 Z-7.956 F930
G1 X54.893 Y42.659 Z-7.96 F930
G1 X55.005 Y42.753 Z-7.963 F930
G1 X55.112 Y42.852 Z-7.967 F930
G1 X55.213 Y42.957 Z-7.971 F930
G1 X55.308 Y43.067 Z-7.974 F930
G1 X55.397 Y43.182 Z-7.978 F930
G1 X55.48 Y43.302 Z-7.981 F930
G1 X55.556 Y43.427 Z-7.985 F930
G1 X55.625 Y43.555 Z-7.988 F930
G1 X55.687 Y43.687 Z-7.992 F930
G1 X55.742 Y43.822 Z-7.995 F930
G1 X55.789 Y43.96 Z-7.999 F930
G1 X55.828 Y44.1 Z-8.003 F930
G1 X55.86 Y44.242 Z-8.006 F930
G1 X55.884 Y44.386 Z-8.01 F930
G1 X55.9 Y44.531 Z-8.013 F930
G1 X55.908 Y44.677 Z-8.017 F930
G1 Y44.822 Z-8.02 F930
G1 X55.9 Y44.968 Z-8.024 F930
G1 X55.884 Y45.113 Z-8.027 F930
G1 X55.86 Y45.257 Z-8.031 F930
G1 X55.828 Y45.399 Z-8.035 F930
G1 X55.789 Y45.539 Z-8.038 F930
G1 X55.742 Y45.677 Z-8.042 F930
G1 X55.687 Y45.812 Z-8.045 F930
G1 X55.625 Y45.944 Z-8.049 F930
G1 X55.556 Y46.073 Z-8.052 F930
G1 X55.48 Y46.197 Z-8.056 F930
G1 X55.398 Y46.317 Z-8.059 F930
G1 X55.309 Y46.432 Z-8.063 F930
G1 X55.213 Y46.543 Z-8.067 F930
G1 X55.112 Y46.648 Z-8.07 F930
G1 X55.005 Y46.747 Z-8.074 F930
G1 X54.893 Y46.84 Z-8.077 F930
G1 X54.776 Y46.927 Z-8.081 F930
G1 X54.655 Y47.007 Z-8.084 F930
G1 X54.529 Y47.081 Z-8.088 F930
G1 X54.399 Y47.147 Z-8.091 F930
G1 X54.266 Y47.207 Z-8.095 F930
G1 X54.13 Y47.259 Z-8.099 F930
G1 X53.991 Y47.303 Z-8.102 F930
G1 X53.85 Y47.34 Z-8.106 F930
G1 X53.707 Y47.369 Z-8.109 F930
G1 X53.563 Y47.39 Z-8.113 F930
G1 X53.418 Y47.403 Z-8.116 F930
G1 X53.272 Y47.409 Z-8.12 F930
G1 X53.127 Y47.406 Z-8.123 F930
G1 X52.981 Y47.395 Z-8.127 F930
G1 X52.837 Y47.376 Z-8.131 F930
G1 X52.693 Y47.35 Z-8.134 F930
G1 X52.552 Y47.315 Z-8.138 F930
G1 X52.412 Y47.273 Z-8.141 F930
G1 X52.275 Y47.224 Z-8.145 F930
G1 X52.141 Y47.166 Z-8.148 F930
G1 X52.01 Y47.102 Z-8.152 F930
G1 X51.883 Y47.031 Z-8.155 F930
G1 X51.76 Y46.952 Z-8.159 F930
G1 X51.642 Y46.867 Z-8.163 F930
G1 X51.528 Y46.776 Z-8.166 F930
G1 X51.42 Y46.679 Z-8.17 F930
G1 X51.317 Y46.576 Z-8.173 F930
G1 X51.22 Y46.467 Z-8.177 F930
G1 X51.129 Y46.353 Z-8.18 F930
G1 X51.044 Y46.234 Z-8.184 F930
G1 X50.966 Y46.111 Z-8.187 F930
G1 X50.895 Y45.984 Z-8.191 F930
G1 X50.831 Y45.853 Z-8.195 F930
G1 X50.774 Y45.719 Z-8.198 F930
G1 X50.725 Y45.582 Z-8.202 F930
G1 X50.683 Y45.442 Z-8.205 F930
G1 X50.649 Y45.3 Z-8.209 F930
G1 X50.623 Y45.157 Z-8.212 F930
G1 X50.604 Y45.012 Z-8.216 F930
G1 X50.594 Y44.867 Z-8.219 F930
G1 X50.591 Y44.721 Z-8.223 F930
G1 X50.597 Y44.576 Z-8.227 F930
G1 X50.611 Y44.431 Z-8.23 F930
G1 X50.632 Y44.286 Z-8.234 F930
G1 X50.661 Y44.144 Z-8.237 F930
G1 X50.698 Y44.003 Z-8.241 F930
G1 X50.743 Y43.864 Z-8.244 F930
G1 X50.796 Y43.728 Z-8.248 F930
G1 X50.855 Y43.595 Z-8.251 F930
G1 X50.922 Y43.466 Z-8.255 F930
G1 X50.996 Y43.34 Z-8.259 F930
G1 X51.077 Y43.218 Z-8.262 F930
G1 X51.164 Y43.102 Z-8.266 F930
G1 X51.257 Y42.99 Z-8.269 F930
G1 X51.357 Y42.883 Z-8.273 F930
G1 X51.462 Y42.782 Z-8.276 F930
G1 X51.572 Y42.687 Z-8.28 F930
G1 X51.688 Y42.598 Z-8.283 F930
G1 X51.808 Y42.516 Z-8.287 F930
G1 X51.933 Y42.44 Z-8.291 F930
G1 X52.061 Y42.372 Z-8.294 F930
G1 X52.193 Y42.31 Z-8.298 F930
G1 X52.329 Y42.256 Z-8.301 F930
G1 X52.467 Y42.209 Z-8.305 F930
G1 X52.607 Y42.17 Z-8.308 F930
G1 X52.75 Y42.139 Z-8.312 F930
G1 X52.893 Y42.115 Z-8.315 F930
G1 X53.038 Y42.1 Z-8.319 F930
G1 X53.184 Y42.092 Z-8.323 F930
G1 X53.33 Z-8.326 F930
G1 X53.475 Y42.101 Z-8.33 F930
G1 X53.62 Y42.117 Z-8.333 F930
G1 X53.764 Y42.141 Z-8.337 F930
G1 X53.906 Y42.173 Z-8.34 F930
G1 X54.046 Y42.213 Z-8.344 F930
G1 X54.184 Y42.261 Z-8.347 F930
G1 X54.319 Y42.316 Z-8.351 F930
G1 X54.451 Y42.378 Z-8.355 F930
G1 X54.579 Y42.447 Z-8.358 F930
G1 X54.703 Y42.523 Z-8.362 F930
G1 X54.823 Y42.606 Z-8.365 F930
G1 X54.938 Y42.696 Z-8.369 F930
G1 X55.048 Y42.791 Z-8.372 F930
G1 X55.153 Y42.893 Z-8.376 F930
G1 X55.252 Y43 Z-8.379 F930
G1 X55.344 Y43.112 Z-8.383 F930
G1 X55.431 Y43.229 Z-8.387 F930
G1 X55.511 Y43.351 Z-8.39 F930
G1 X55.584 Y43.477 Z-8.394 F930
G1 X55.651 Y43.607 Z-8.397 F930
G1 X55.71 Y43.74 Z-8.401 F930
G1 X55.761 Y43.877 Z-8.404 F930
G1 X55.805 Y44.016 Z-8.408 F930
G1 X55.842 Y44.157 Z-8.411 F930
G1 X55.87 Y44.3 Z-8.415 F930
G1 X55.891 Y44.444 Z-8.419 F930
G1 X55.904 Y44.589 Z-8.422 F930
G1 X55.909 Y44.735 Z-8.426 F930
G1 X55.906 Y44.881 Z-8.429 F930
G1 X55.894 Y45.026 Z-8.433 F930
G1 X55.875 Y45.17 Z-8.436 F930
G1 X55.848 Y45.314 Z-8.44 F930
G1 X55.814 Y45.455 Z-8.443 F930
G1 X55.771 Y45.595 Z-8.447 F930
G1 X55.721 Y45.731 Z-8.451 F930
G1 X55.663 Y45.865 Z-8.454 F930
G1 X55.599 Y45.996 Z-8.458 F930
G1 X55.527 Y46.123 Z-8.461 F930
G1 X55.448 Y46.245 Z-8.465 F930
G1 X55.363 Y46.364 Z-8.468 F930
G1 X55.271 Y46.477 Z-8.472 F930
G1 X55.174 Y46.585 Z-8.475 F930
G1 X55.07 Y46.688 Z-8.479 F930
G1 X54.961 Y46.785 Z-8.483 F930
G1 X54.847 Y46.875 Z-8.486 F930
G1 X54.728 Y46.96 Z-8.49 F930
G1 X54.605 Y47.037 Z-8.493 F930
G1 X54.478 Y47.108 Z-8.497 F930
G1 X54.347 Y47.172 Z-8.5 F930
G1 X54.212 Y47.229 Z-8.504 F930
G1 X54.075 Y47.278 Z-8.507 F930
G1 X53.935 Y47.319 Z-8.511 F930
G1 X53.793 Y47.353 Z-8.515 F930
G1 X53.65 Y47.378 Z-8.518 F930
G1 X53.505 Y47.396 Z-8.522 F930
G1 X53.36 Y47.406 Z-8.525 F930
G1 X53.214 Y47.409 Z-8.529 F930
G1 X53.069 Y47.403 Z-8.532 F930
G1 X52.924 Y47.389 Z-8.536 F930
G1 X52.779 Y47.367 Z-8.539 F930
G1 X52.637 Y47.337 Z-8.543 F930
G1 X52.496 Y47.3 Z-8.547 F930
G1 X52.357 Y47.254 Z-8.55 F930
G1 X52.221 Y47.202 Z-8.554 F930
G1 X52.089 Y47.142 Z-8.557 F930
G1 X51.959 Y47.074 Z-8.561 F930
G1 X51.834 Y47 Z-8.564 F930
G1 X51.713 Y46.919 Z-8.568 F930
G1 X51.596 Y46.832 Z-8.571 F930
G1 X51.485 Y46.738 Z-8.575 F930
G1 X51.378 Y46.638 Z-8.579 F930
G1 X51.278 Y46.533 Z-8.582 F930
G1 X51.183 Y46.422 Z-8.586 F930
G1 X51.094 Y46.306 Z-8.589 F930
G1 X51.012 Y46.186 Z-8.593 F930
G1 X50.937 Y46.061 Z-8.596 F930
G1 X50.869 Y45.932 Z-8.6 F930
G1 X50.807 Y45.8 Z-8.603 F930
G1 X50.754 Y45.665 Z-8.607 F930
G1 X50.707 Y45.526 Z-8.611 F930
G1 X50.668 Y45.386 Z-8.614 F930
G1 X50.637 Y45.243 Z-8.618 F930
G1 X50.614 Y45.1 Z-8.621 F930
G1 X50.599 Y44.955 Z-8.625 F930
G1 X50.592 Y44.809 Z-8.628 F930
G1 X50.593 Y44.663 Z-8.632 F930
G1 X50.601 Y44.518 Z-8.635 F930
G1 X50.618 Y44.373 Z-8.639 F930
G1 X50.643 Y44.229 Z-8.643 F930
G1 X50.675 Y44.087 Z-8.646 F930
G1 X50.715 Y43.947 Z-8.65 F930
G1 X50.763 Y43.809 Z-8.653 F930
G1 X50.818 Y43.675 Z-8.657 F930
G1 X50.881 Y43.543 Z-8.66 F930
G1 X50.951 Y43.415 Z-8.664 F930
G1 X51.027 Y43.291 Z-8.667 F930
G1 X51.111 Y43.171 Z-8.671 F930
G1 X51.2 Y43.056 Z-8.675 F930
G1 X51.296 Y42.947 Z-8.678 F930
G1 X51.398 Y42.842 Z-8.682 F930
G1 X51.505 Y42.744 Z-8.685 F930
G1 X51.618 Y42.651 Z-8.689 F930
G1 X51.735 Y42.565 Z-8.692 F930
G1 X51.857 Y42.485 Z-8.696 F930
G1 X51.984 Y42.412 Z-8.699 F930
G1 X52.114 Y42.346 Z-8.703 F930
G1 X52.247 Y42.288 Z-8.707 F930
G1 X52.383 Y42.236 Z-8.71 F930
G1 X52.523 Y42.193 Z-8.714 F930
G1 X52.664 Y42.157 Z-8.717 F930
G1 X52.807 Y42.128 Z-8.721 F930
G1 X52.951 Y42.108 Z-8.724 F930
G1 X53.096 Y42.096 Z-8.728 F930
G1 X53.242 Y42.091 Z-8.731 F930
G1 X53.388 Y42.095 Z-8.735 F930
G1 X53.533 Y42.106 Z-8.739 F930
G1 X53.677 Y42.126 Z-8.742 F930
G1 X53.821 Y42.153 Z-8.746 F930
G1 X53.962 Y42.188 Z-8.749 F930
G1 X54.101 Y42.231 Z-8.753 F930
G1 X54.238 Y42.282 Z-8.756 F930
G1 X54.372 Y42.34 Z-8.76 F930
G1 X54.502 Y42.405 Z-8.763 F930
G1 X54.629 Y42.477 Z-8.767 F930
G1 X54.751 Y42.556 Z-8.771 F930
G1 X54.869 Y42.641 Z-8.774 F930
G1 X54.982 Y42.733 Z-8.778 F930
G1 X55.09 Y42.831 Z-8.781 F930
G1 X55.193 Y42.935 Z-8.785 F930
G1 X55.289 Y43.044 Z-8.788 F930
G1 X55.38 Y43.158 Z-8.792 F930
G1 X55.464 Y43.278 Z-8.795 F930
G1 X55.541 Y43.401 Z-8.799 F930
G1 X55.612 Y43.529 Z-8.803 F930
G1 X55.675 Y43.66 Z-8.806 F930
G1 X55.731 Y43.794 Z-8.81 F930
G1 X55.78 Y43.932 Z-8.813 F930
G1 X55.821 Y44.072 Z-8.817 F930
G1 X55.854 Y44.214 Z-8.82 F930
G1 X55.88 Y44.357 Z-8.824 F930
G1 X55.897 Y44.502 Z-8.827 F930
G1 X55.907 Y44.647 Z-8.831 F930
G1 X55.908 Y44.793 Z-8.835 F930
G1 X55.902 Y44.939 Z-8.838 F930
G1 X55.888 Y45.084 Z-8.842 F930
G1 X55.865 Y45.228 Z-8.845 F930
G1 X55.835 Y45.37 Z-8.849 F930
G1 X55.798 Y45.511 Z-8.852 F930
G1 X55.752 Y45.649 Z-8.856 F930
G1 X55.699 Y45.785 Z-8.859 F930
G1 X55.639 Y45.918 Z-8.863 F930
G1 X55.571 Y46.047 Z-8.867 F930
G1 X55.496 Y46.172 Z-8.87 F930
G1 X55.415 Y46.293 Z-8.874 F930
G1 X55.327 Y46.41 Z-8.877 F930
G1 X55.233 Y46.521 Z-8.881 F930
G1 X55.133 Y46.627 Z-8.884 F930
G1 X55.027 Y46.727 Z-8.888 F930
G1 X54.916 Y46.822 Z-8.891 F930
G1 X54.8 Y46.91 Z-8.895 F930
G1 X54.68 Y46.992 Z-8.899 F930
G1 X54.555 Y47.067 Z-8.902 F930
G1 X54.426 Y47.135 Z-8.906 F930
G1 X54.293 Y47.195 Z-8.909 F930
G1 X54.158 Y47.249 Z-8.913 F930
G1 X54.02 Y47.295 Z-8.916 F930
G1 X53.879 Y47.333 Z-8.92 F930
G1 X53.736 Y47.364 Z-8.923 F930
G1 X53.592 Y47.387 Z-8.927 F930
G1 X53.447 Y47.401 Z-8.931 F930
G1 X53.302 Y47.408 Z-8.934 F930
G1 X53.156 Y47.407 Z-8.938 F930
G1 X53.011 Y47.398 Z-8.941 F930
G1 X52.866 Y47.381 Z-8.945 F930
G1 X52.722 Y47.356 Z-8.948 F930
G1 X52.58 Y47.323 Z-8.952 F930
G1 X52.44 Y47.282 Z-8.955 F930
G1 X52.303 Y47.234 Z-8.959 F930
G1 X52.168 Y47.179 Z-8.963 F930
G1 X52.037 Y47.116 Z-8.966 F930
G1 X51.909 Y47.046 Z-8.97 F930
G1 X51.785 Y46.969 Z-8.973 F930
G1 X51.666 Y46.885 Z-8.977 F930
G1 X51.551 Y46.795 Z-8.98 F930
G1 X51.441 Y46.699 Z-8.984 F930
G1 X51.337 Y46.597 Z-8.987 F930
G1 X51.239 Y46.489 Z-8.991 F930
G1 X51.147 Y46.376 Z-8.995 F930
G1 X51.061 Y46.259 Z-8.998 F930
G1 X50.981 Y46.137 Z-9.002 F930
G1 X50.909 Y46.01 Z-9.005 F930
G1 X50.843 Y45.88 Z-9.009 F930
G1 X50.785 Y45.746 Z-9.012 F930
G1 X50.734 Y45.61 Z-9.016 F930
G1 X50.691 Y45.471 Z-9.019 F930
G1 X50.655 Y45.329 Z-9.023 F930
G1 X50.627 Y45.186 Z-9.027 F930
G1 X50.607 Y45.042 Z-9.03 F930
G1 X50.595 Y44.897 Z-9.034 F930
G1 X50.591 Y44.751 Z-9.037 F930
G1 X50.595 Y44.605 Z-9.041 F930
G1 X50.607 Y44.46 Z-9.044 F930
G1 X50.627 Y44.316 Z-9.048 F930
G1 X50.655 Y44.172 Z-9.051 F930
G1 X50.69 Y44.031 Z-9.055 F930
G1 X50.734 Y43.892 Z-9.059 F930
G1 X50.784 Y43.755 Z-9.062 F930
G1 X50.843 Y43.622 Z-9.066 F930
G1 X50.908 Y43.491 Z-9.069 F930
G1 X50.98 Y43.365 Z-9.073 F930
G1 X51.06 Y43.243 Z-9.076 F930
G1 X51.146 Y43.125 Z-9.08 F930
G1 X51.238 Y43.012 Z-9.083 F930
G1 X51.336 Y42.904 Z-9.087 F930
G1 X51.44 Y42.802 Z-9.09 F930
G1 X51.55 Y42.706 Z-9.094 F930
G1 X51.664 Y42.616 Z-9.098 F930
G1 X51.783 Y42.532 Z-9.101 F930
G1 X51.907 Y42.455 Z-9.105 F930
G1 X52.035 Y42.385 Z-9.108 F930
G1 X52.166 Y42.322 Z-9.112 F930
G1 X52.301 Y42.266 Z-9.115 F930
G1 X52.439 Y42.218 Z-9.119 F930
G1 X52.579 Y42.177 Z-9.122 F930
G1 X52.721 Y42.144 Z-9.126 F930
G1 X52.864 Y42.119 Z-9.13 F930
G1 X53.009 Y42.102 Z-9.133 F930
G1 X53.154 Y42.093 Z-9.137 F930
G1 X53.3 Y42.092 Z-9.14 F930
G1 X53.446 Y42.098 Z-9.144 F930
G1 X53.591 Y42.113 Z-9.147 F930
G1 X53.735 Y42.136 Z-9.151 F930
G1 X53.877 Y42.166 Z-9.154 F930
G1 X54.018 Y42.205 Z-9.158 F930
G1 X54.156 Y42.25 Z-9.162 F930
G1 X54.292 Y42.304 Z-9.165 F930
G1 X54.424 Y42.365 Z-9.169 F930
G1 X54.553 Y42.433 Z-9.172 F930
G1 X54.678 Y42.507 Z-9.176 F930
G1 X54.799 Y42.589 Z-9.179 F930
G1 X54.915 Y42.677 Z-9.183 F930
G1 X55.026 Y42.772 Z-9.186 F930
G1 X55.132 Y42.872 Z-9.19 F930
G1 X55.232 Y42.978 Z-9.194 F930
G1 X55.326 Y43.089 Z-9.197 F930
G1 X55.414 Y43.205 Z-9.201 F930
G1 X55.495 Y43.326 Z-9.204 F930
G1 X55.57 Y43.451 Z-9.208 F930
G1 X55.638 Y43.581 Z-9.211 F930
G1 X55.698 Y43.713 Z-9.215 F930
G1 X55.751 Y43.849 Z-9.218 F930
G1 X55.797 Y43.987 Z-9.222 F930
G1 X55.835 Y44.128 Z-9.226 F930
G1 X55.865 Y44.271 Z-9.229 F930
G1 X55.888 Y44.415 Z-9.233 F930
G1 X55.902 Y44.56 Z-9.236 F930
G1 X55.908 Y44.705 Z-9.24 F930
G1 X55.907 Y44.851 Z-9.243 F930
G1 X55.897 Y44.996 Z-9.247 F930
G1 X55.88 Y45.141 Z-9.25 F930
G1 X55.854 Y45.285 Z-9.254 F930
G1 X55.821 Y45.427 Z-9.258 F930
G1 X55.78 Y45.567 Z-9.261 F930
G1 X55.732 Y45.704 Z-9.265 F930
G1 X55.676 Y45.838 Z-9.268 F930
G1 X55.612 Y45.97 Z-9.272 F930
G1 X55.542 Y46.097 Z-9.275 F930
G1 X55.465 Y46.221 Z-9.279 F930
G1 X55.381 Y46.34 Z-9.282 F930
G1 X55.29 Y46.455 Z-9.286 F930
G1 X55.194 Y46.564 Z-9.29 F930
G1 X55.092 Y46.668 Z-9.293 F930
G1 X54.984 Y46.766 Z-9.297 F930
G1 X54.871 Y46.858 Z-9.3 F930
G1 X54.753 Y46.943 Z-9.304 F930
G1 X54.63 Y47.022 Z-9.307 F930
G1 X54.504 Y47.095 Z-9.311 F930
G1 X54.373 Y47.16 Z-9.314 F930
G1 X54.24 Y47.218 Z-9.318 F930
G1 X54.103 Y47.268 Z-9.322 F930
G1 X53.964 Y47.311 Z-9.325 F930
G1 X53.822 Y47.346 Z-9.329 F930
G1 X53.679 Y47.374 Z-9.332 F930
G1 X53.535 Y47.393 Z-9.336 F930
G1 X53.389 Y47.405 Z-9.339 F930
G1 X53.244 Y47.409 Z-9.343 F930
G1 X53.098 Y47.404 Z-9.346 F930
G1 X52.953 Y47.392 Z-9.35 F930
G1 X52.808 Y47.372 Z-9.354 F930
G1 X52.665 Y47.344 Z-9.357 F930
G1 X52.524 Y47.308 Z-9.361 F930
G1 X52.385 Y47.264 Z-9.364 F930
G1 X52.249 Y47.213 Z-9.368 F930
G1 X52.115 Y47.154 Z-9.371 F930
G1 X51.985 Y47.089 Z-9.375 F930
G1 X51.859 Y47.016 Z-9.378 F930
G1 X51.737 Y46.936 Z-9.382 F930
G1 X51.619 Y46.85 Z-9.386 F930
G1 X51.507 Y46.757 Z-9.389 F930
G1 X51.399 Y46.659 Z-9.393 F930
G1 X51.297 Y46.555 Z-9.396 F930
G1 X51.202 Y46.445 Z-9.4 F930
G1 X51.112 Y46.33 Z-9.403 F930
G1 X51.028 Y46.211 Z-9.407 F930
G1 X50.952 Y46.087 Z-9.41 F930
G1 X50.882 Y45.959 Z-9.414 F930
G1 X50.819 Y45.827 Z-9.418 F930
G1 X50.764 Y45.692 Z-9.421 F930
G1 X50.716 Y45.555 Z-9.425 F930
G1 X50.676 Y45.414 Z-9.428 F930
G1 X50.643 Y45.272 Z-9.432 F930
G1 X50.618 Y45.129 Z-9.435 F930
G1 X50.602 Y44.984 Z-9.439 F930
G1 X50.593 Y44.839 Z-9.442 F930
G1 X50.592 Y44.693 Z-9.446 F930
G1 X50.599 Y44.547 Z-9.45 F930
G1 X50.614 Y44.402 Z-9.453 F930
G1 X50.637 Y44.258 Z-9.457 F930
G1 X50.668 Y44.116 Z-9.46 F930
G1 X50.707 Y43.975 Z-9.464 F930
G1 X50.753 Y43.837 Z-9.467 F930
G1 X50.807 Y43.702 Z-9.471 F930
G1 X50.868 Y43.569 Z-9.474 F930
G1 X50.936 Y43.441 Z-9.478 F930
G1 X51.011 Y43.316 Z-9.482 F930
G1 X51.093 Y43.195 Z-9.485 F930
G1 X51.182 Y43.079 Z-9.489 F930
G1 X51.276 Y42.969 Z-9.492 F930
G1 X51.377 Y42.863 Z-9.496 F930
G1 X51.483 Y42.763 Z-9.499 F930
G1 X51.595 Y42.669 Z-9.503 F930
G1 X51.711 Y42.582 Z-9.506 F930
G1 X51.832 Y42.501 Z-9.51 F930
G1 X51.958 Y42.426 Z-9.514 F930
G1 X52.087 Y42.359 Z-9.517 F930
G1 X52.22 Y42.299 Z-9.521 F930
G1 X52.356 Y42.246 Z-9.524 F930
G1 X52.494 Y42.201 Z-9.528 F930
G1 X52.635 Y42.163 Z-9.531 F930
G1 X52.778 Y42.134 Z-9.535 F930
G1 X52.922 Y42.112 Z-9.538 F930
G1 X53.067 Y42.098 Z-9.542 F930
G1 X53.212 Y42.092 Z-9.546 F930
G1 X53.358 Y42.093 Z-9.549 F930
G1 X53.504 Y42.103 Z-9.553 F930
G1 X53.648 Y42.121 Z-9.556 F930
G1 X53.792 Y42.147 Z-9.56 F930
G1 X53.934 Y42.181 Z-9.563 F930
G1 X54.073 Y42.222 Z-9.567 F930
G1 X54.211 Y42.271 Z-9.57 F930
G1 X54.345 Y42.327 Z-9.574 F930
G1 X54.476 Y42.391 Z-9.578 F930
G1 X54.604 Y42.462 Z-9.581 F930
G1 X54.727 Y42.539 Z-9.585 F930
G1 X54.846 Y42.623 Z-9.588 F930
G1 X54.96 Y42.714 Z-9.592 F930
G1 X55.069 Y42.811 Z-9.595 F930
G1 X55.173 Y42.913 Z-9.599 F930
G1 X55.27 Y43.022 Z-9.602 F930
G1 X55.362 Y43.135 Z-9.606 F930
G1 X55.447 Y43.253 Z-9.61 F930
G1 X55.526 Y43.376 Z-9.613 F930
G1 X55.598 Y43.503 Z-9.617 F930
G1 X55.663 Y43.633 Z-9.62 F930
G1 X55.72 Y43.767 Z-9.624 F930
G1 X55.77 Y43.904 Z-9.627 F930
G1 X55.813 Y44.043 Z-9.631 F930
G1 X55.848 Y44.185 Z-9.634 F930
G1 X55.875 Y44.328 Z-9.638 F930
G1 X55.894 Y44.472 Z-9.642 F930
G1 X55.905 Y44.618 Z-9.645 F930
G1 X55.909 Y44.763 Z-9.649 F930
G1 X55.904 Y44.909 Z-9.652 F930
G1 X55.891 Y45.054 Z-9.656 F930
G1 X55.871 Y45.199 Z-9.659 F930
G1 X55.842 Y45.342 Z-9.663 F930
G1 X55.806 Y45.483 Z-9.666 F930
G1 X55.762 Y45.622 Z-9.67 F930
G1 X55.71 Y45.758 Z-9.674 F930
G1 X55.651 Y45.891 Z-9.677 F930
G1 X55.585 Y46.021 Z-9.681 F930
G1 X55.512 Y46.147 Z-9.684 F930
G1 X55.432 Y46.269 Z-9.688 F930
G1 X55.346 Y46.386 Z-9.691 F930
G1 X55.253 Y46.499 Z-9.695 F930
G1 X55.154 Y46.606 Z-9.698 F930
G1 X55.049 Y46.707 Z-9.702 F930
G1 X54.939 Y46.803 Z-9.706 F930
G1 X54.824 Y46.893 Z-9.709 F930
G1 X54.705 Y46.976 Z-9.713 F930
G1 X54.58 Y47.052 Z-9.716 F930
G1 X54.452 Y47.121 Z-9.72 F930
G1 X54.32 Y47.184 Z-9.723 F930
G1 X54.186 Y47.239 Z-9.727 F930
G1 X54.048 Y47.286 Z-9.73 F930
G1 X53.908 Y47.326 Z-9.734 F930
G1 X53.765 Y47.358 Z-9.738 F930
G1 X53.622 Y47.383 Z-9.741 F930
G1 X53.477 Y47.399 Z-9.745 F930
G1 X53.331 Y47.408 Z-9.748 F930
G1 X53.186 Z-9.752 F930
G1 X53.04 Y47.4 Z-9.755 F930
G1 X52.895 Y47.385 Z-9.759 F930
G1 X52.751 Y47.362 Z-9.762 F930
G1 X52.609 Y47.33 Z-9.766 F930
G1 X52.468 Y47.291 Z-9.77 F930
G1 X52.33 Y47.245 Z-9.773 F930
G1 X52.195 Y47.191 Z-9.777 F930
G1 X52.063 Y47.129 Z-9.78 F930
G1 X51.934 Y47.06 Z-9.784 F930
G1 X51.81 Y46.985 Z-9.787 F930
G1 X51.689 Y46.903 Z-9.791 F930
G1 X51.574 Y46.814 Z-9.794 F930
G1 X51.463 Y46.719 Z-9.798 F930
G1 X51.358 Y46.618 Z-9.802 F930
G1 X51.258 Y46.511 Z-9.805 F930
G1 X51.165 Y46.4 Z-9.809 F930
G1 X51.078 Y46.283 Z-9.812 F930
G1 X50.997 Y46.162 Z-9.816 F930
G1 X50.923 Y46.036 Z-9.819 F930
G1 X50.856 Y45.907 Z-9.823 F930
G1 X50.796 Y45.774 Z-9.826 F930
G1 X50.744 Y45.638 Z-9.83 F930
G1 X50.699 Y45.499 Z-9.834 F930
G1 X50.662 Y45.358 Z-9.837 F930
G1 X50.632 Y45.215 Z-9.841 F930
G1 X50.611 Y45.071 Z-9.844 F930
G1 X50.597 Y44.926 Z-9.848 F930
G1 X50.591 Y44.78 Z-9.851 F930
G1 X50.594 Y44.635 Z-9.855 F930
G1 X50.604 Y44.489 Z-9.858 F930
G1 X50.622 Y44.345 Z-9.862 F930
G1 X50.648 Y44.201 Z-9.866 F930
G1 X50.682 Y44.06 Z-9.869 F930
G1 X50.724 Y43.92 Z-9.873 F930
G1 X50.773 Y43.783 Z-9.876 F930
G1 X50.83 Y43.648 Z-9.88 F930
G1 X50.894 Y43.518 Z-9.883 F930
G1 X50.965 Y43.39 Z-9.887 F930
G1 X51.043 Y43.267 Z-9.89 F930
G1 X51.128 Y43.148 Z-9.894 F930
G1 X51.219 Y43.035 Z-9.898 F930
G1 X51.316 Y42.926 Z-9.901 F930
G1 X51.419 Y42.823 Z-9.905 F930
G1 X51.527 Y42.725 Z-9.908 F930
G1 X51.641 Y42.634 Z-9.912 F930
G1 X51.759 Y42.549 Z-9.915 F930
G1 X51.882 Y42.47 Z-9.919 F930
G1 X52.009 Y42.399 Z-9.922 F930
G1 X52.14 Y42.334 Z-9.926 F930
G1 X52.274 Y42.277 Z-9.93 F930
G1 X52.411 Y42.227 Z-9.933 F930
G1 X52.55 Y42.185 Z-9.937 F930
G1 X52.692 Y42.151 Z-9.94 F930
G1 X52.835 Y42.124 Z-9.944 F930
G1 X52.98 Y42.105 Z-9.947 F930
G1 X53.125 Y42.094 Z-9.951 F930
G1 X53.271 Y42.091 Z-9.954 F930
G1 X53.416 Y42.096 Z-9.958 F930
G1 X53.561 Y42.11 Z-9.962 F930
G1 X53.706 Y42.131 Z-9.965 F930
G1 X53.848 Y42.159 Z-9.969 F930
G1 X53.99 Y42.196 Z-9.972 F930
G1 X54.128 Y42.241 Z-9.976 F930
G1 X54.265 Y42.292 Z-9.979 F930
G1 X54.398 Y42.352 Z-9.983 F930
G1 X54.527 Y42.418 Z-9.986 F930
G1 X54.653 Y42.492 Z-9.99 F930
G1 X54.775 Y42.572 Z-9.994 F930
G1 X54.892 Y42.659 Z-9.997 F930
G1 X55.004 Y42.752 Z-10.001 F930
G1 X55.111 Y42.851 Z-10.004 F930
G1 X55.212 Y42.956 Z-10.008 F930
G1 X55.308 Y43.066 Z-10.011 F930
G1 X55.397 Y43.181 Z-10.015 F930
G1 X55.479 Y43.301 Z-10.018 F930
G1 X55.556 Y43.426 Z-10.022 F930
G1 X55.625 Y43.554 Z-10.026 F930
G1 X55.687 Y43.686 Z-10.029 F930
G1 X55.741 Y43.821 Z-10.033 F930
G1 X55.788 Y43.959 Z-10.036 F930
G1 X55.828 Y44.099 Z-10.04 F930
G1 X55.86 Y44.242 Z-10.043 F930
G1 X55.884 Y44.385 Z-10.047 F930
G1 X55.9 Y44.53 Z-10.05 F930
G1 X55.908 Y44.676 Z-10.054 F930
G1 Y44.822 Z-10.058 F930
G1 X55.9 Y44.967 Z-10.061 F930
G1 X55.884 Y45.112 Z-10.065 F930
G1 X55.86 Y45.256 Z-10.068 F930
G1 X55.829 Y45.398 Z-10.072 F930
G1 X55.789 Y45.538 Z-10.075 F930
G1 X55.742 Y45.676 Z-10.079 F930
G1 X55.688 Y45.812 Z-10.082 F930
G1 X55.626 Y45.943 Z-10.086 F930
G1 X55.557 Y46.072 Z-10.09 F930
G1 X55.481 Y46.196 Z-10.093 F930
G1 X55.398 Y46.316 Z-10.097 F930
G1 X55.309 Y46.432 Z-10.1 F930
G1 X55.214 Y46.542 Z-10.104 F930
G1 X55.113 Y46.647 Z-10.107 F930
G1 X55.006 Y46.746 Z-10.111 F930
G1 X54.894 Y46.839 Z-10.114 F930
G1 X54.777 Y46.926 Z-10.118 F930
G1 X54.656 Y47.007 Z-10.122 F930
G1 X54.53 Y47.08 Z-10.125 F930
G1 X54.4 Y47.147 Z-10.129 F930
G1 X54.267 Y47.207 Z-10.132 F930
G1 X54.131 Y47.259 Z-10.136 F930
G1 X53.992 Y47.303 Z-10.139 F930
G1 X53.851 Y47.34 Z-10.143 F930
G1 X53.708 Y47.369 Z-10.146 F930
G1 X53.564 Y47.39 Z-10.15 F930
G1 X53.419 Y47.403 Z-10.154 F930
G1 X53.273 Y47.409 Z-10.157 F930
G1 X53.128 Y47.406 Z-10.161 F930
G1 X52.982 Y47.395 Z-10.164 F930
G1 X52.838 Y47.377 Z-10.168 F930
G1 X52.694 Y47.35 Z-10.171 F930
G1 X52.553 Y47.316 Z-10.175 F930
G1 X52.413 Y47.274 Z-10.178 F930
G1 X52.276 Y47.224 Z-10.182 F930
G1 X52.142 Y47.167 Z-10.186 F930
G1 X52.011 Y47.103 Z-10.189 F930
G1 X51.884 Y47.031 Z-10.193 F930
G1 X51.761 Y46.953 Z-10.196 F930
G1 X51.643 Y46.868 Z-10.2 F930
G1 X51.529 Y46.777 Z-10.203 F930
G1 X51.421 Y46.679 Z-10.207 F930
G1 X51.318 Y46.576 Z-10.21 F930
G1 X51.22 Y46.468 Z-10.214 F930
G1 X51.129 Y46.354 Z-10.218 F930
G1 X51.045 Y46.235 Z-10.221 F930
G1 X50.967 Y46.112 Z-10.225 F930
G1 X50.895 Y45.985 Z-10.228 F930
G1 X50.831 Y45.854 Z-10.232 F930
G1 X50.774 Y45.72 Z-10.235 F930
G1 X50.725 Y45.583 Z-10.239 F930
G1 X50.683 Y45.443 Z-10.242 F930
G1 X50.649 Y45.301 Z-10.246 F930
G1 X50.623 Y45.158 Z-10.25 F930
G1 X50.604 Y45.013 Z-10.253 F930
G1 X50.594 Y44.868 Z-10.257 F930
G1 X50.591 Y44.722 Z-10.26 F930
G1 X50.597 Y44.577 Z-10.264 F930
G1 X50.61 Y44.431 Z-10.267 F930
G1 X50.632 Y44.287 Z-10.271 F930
G1 X50.661 Y44.145 Z-10.274 F930
G1 X50.698 Y44.004 Z-10.278 F930
G1 X50.743 Y43.865 Z-10.282 F930
G1 X50.795 Y43.729 Z-10.285 F930
G1 X50.855 Y43.596 Z-10.289 F930
G1 X50.922 Y43.466 Z-10.292 F930
G1 X50.996 Y43.341 Z-10.296 F930
G1 X51.076 Y43.219 Z-10.299 F930
G1 X51.163 Y43.102 Z-10.303 F930
G1 X51.257 Y42.991 Z-10.306 F930
G1 X51.356 Y42.884 Z-10.31 F930
G1 X51.461 Y42.783 Z-10.314 F930
G1 X51.572 Y42.688 Z-10.317 F930
G1 X51.687 Y42.599 Z-10.321 F930
G1 X51.807 Y42.517 Z-10.324 F930
G1 X51.932 Y42.441 Z-10.328 F930
G1 X52.061 Y42.372 Z-10.331 F930
G1 X52.193 Y42.311 Z-10.335 F930
G1 X52.328 Y42.256 Z-10.338 F930
G1 X52.466 Y42.209 Z-10.342 F930
G1 X52.606 Y42.17 Z-10.346 F930
G1 X52.749 Y42.139 Z-10.349 F930
G1 X52.892 Y42.115 Z-10.353 F930
G1 X53.037 Y42.1 Z-10.356 F930
G1 X53.183 Y42.092 Z-10.36 F930
G1 X53.329 Z-10.363 F930
G1 X53.474 Y42.101 Z-10.367 F930
G1 X53.619 Y42.117 Z-10.37 F930
G1 X53.763 Y42.141 Z-10.374 F930
G1 X53.905 Y42.173 Z-10.378 F930
G1 X54.045 Y42.213 Z-10.381 F930
G1 X54.183 Y42.26 Z-10.385 F930
G1 X54.318 Y42.315 Z-10.388 F930
G1 X54.45 Y42.377 Z-10.392 F930
G1 X54.578 Y42.447 Z-10.395 F930
G1 X54.702 Y42.523 Z-10.399 F930
G1 X54.822 Y42.606 Z-10.402 F930
G1 X54.937 Y42.695 Z-10.406 F930
G1 X55.047 Y42.791 Z-10.41 F930
G1 X55.152 Y42.892 Z-10.413 F930
G1 X55.251 Y42.999 Z-10.417 F930
G1 X55.344 Y43.112 Z-10.42 F930
G1 X55.431 Y43.229 Z-10.424 F930
G1 X55.511 Y43.351 Z-10.427 F930
G1 X55.584 Y43.477 Z-10.431 F930
G1 X55.65 Y43.606 Z-10.434 F930
G1 X55.709 Y43.74 Z-10.438 F930
G1 X55.761 Y43.876 Z-10.441 F930
G1 X55.805 Y44.015 Z-10.445 F930
G1 X55.842 Y44.156 Z-10.449 F930
G1 X55.87 Y44.299 Z-10.452 F930
G1 X55.891 Y44.443 Z-10.456 F930
G1 X55.904 Y44.588 Z-10.459 F930
G1 X55.909 Y44.734 Z-10.463 F930
G1 X55.906 Y44.88 Z-10.466 F930
G1 X55.894 Y45.025 Z-10.47 F930
G1 X55.875 Y45.169 Z-10.473 F930
G1 X55.849 Y45.313 Z-10.477 F930
G1 X55.814 Y45.454 Z-10.481 F930
G1 X55.771 Y45.594 Z-10.484 F930
G1 X55.721 Y45.731 Z-10.488 F930
G1 X55.664 Y45.865 Z-10.491 F930
G1 X55.599 Y45.995 Z-10.495 F930
G1 X55.527 Y46.122 Z-10.498 F930
G1 X55.449 Y46.245 Z-10.502 F930
G1 X55.364 Y46.363 Z-10.505 F930
G1 X55.272 Y46.476 Z-10.509 F930
G1 X55.174 Y46.585 Z-10.513 F930
G1 X55.071 Y46.687 Z-10.516 F930
G1 X54.962 Y46.784 Z-10.52 F930
G1 X54.848 Y46.875 Z-10.523 F930
G1 X54.729 Y46.959 Z-10.527 F930
G1 X54.606 Y47.037 Z-10.53 F930
G1 X54.479 Y47.108 Z-10.534 F930
G1 X54.347 Y47.172 Z-10.537 F930
G1 X54.213 Y47.228 Z-10.541 F930
G1 X54.076 Y47.277 Z-10.545 F930
G1 X53.936 Y47.319 Z-10.548 F930
G1 X53.794 Y47.352 Z-10.552 F930
G1 X53.651 Y47.378 Z-10.555 F930
G1 X53.506 Y47.396 Z-10.559 F930
G1 X53.361 Y47.406 Z-10.562 F930
G1 X53.215 Y47.409 Z-10.566 F930
G1 X53.069 Y47.403 Z-10.569 F930
G1 X52.924 Y47.389 Z-10.573 F930
G1 X52.78 Y47.367 Z-10.577 F930
G1 X52.638 Y47.337 Z-10.58 F930
G1 X52.497 Y47.3 Z-10.584 F930
G1 X52.358 Y47.255 Z-10.587 F930
G1 X52.222 Y47.202 Z-10.591 F930
G1 X52.089 Y47.142 Z-10.594 F930
G1 X51.96 Y47.075 Z-10.598 F930
G1 X51.835 Y47.001 Z-10.601 F930
G1 X51.713 Y46.92 Z-10.605 F930
G1 X51.597 Y46.832 Z-10.609 F930
G1 X51.485 Y46.739 Z-10.612 F930
G1 X51.379 Y46.639 Z-10.616 F930
G1 X51.278 Y46.533 Z-10.619 F930
G1 X51.183 Y46.423 Z-10.623 F930
G1 X51.095 Y46.307 Z-10.626 F930
G1 X51.013 Y46.187 Z-10.63 F930
G1 X50.937 Y46.062 Z-10.633 F930
G1 X50.869 Y45.933 Z-10.637 F930
G1 X50.808 Y45.801 Z-10.641 F930
G1 X50.754 Y45.665 Z-10.644 F930
G1 X50.707 Y45.527 Z-10.648 F930
G1 X50.669 Y45.387 Z-10.651 F930
G1 X50.638 Y45.244 Z-10.655 F930
G1 X50.614 Y45.1 Z-10.658 F930
G1 X50.599 Y44.955 Z-10.662 F930
G1 X50.592 Y44.81 Z-10.665 F930
G1 X50.593 Y44.664 Z-10.669 F930
G1 X50.601 Y44.519 Z-10.673 F930
G1 X50.618 Y44.374 Z-10.676 F930
G1 X50.643 Y44.23 Z-10.68 F930
G1 X50.675 Y44.088 Z-10.683 F930
G1 X50.715 Y43.948 Z-10.687 F930
G1 X50.763 Y43.81 Z-10.69 F930
G1 X50.818 Y43.675 Z-10.694 F930
G1 X50.881 Y43.544 Z-10.697 F930
G1 X50.95 Y43.416 Z-10.701 F930
G1 X51.027 Y43.292 Z-10.705 F930
G1 X51.11 Y43.172 Z-10.708 F930
G1 X51.2 Y43.057 Z-10.712 F930
G1 X51.296 Y42.947 Z-10.715 F930
G1 X51.397 Y42.843 Z-10.719 F930
G1 X51.505 Y42.744 Z-10.722 F930
G1 X51.617 Y42.652 Z-10.726 F930
G1 X51.735 Y42.565 Z-10.729 F930
G1 X51.857 Y42.486 Z-10.733 F930
G1 X51.983 Y42.413 Z-10.737 F930
G1 X52.113 Y42.347 Z-10.74 F930
G1 X52.246 Y42.288 Z-10.744 F930
G1 X52.383 Y42.237 Z-10.747 F930
G1 X52.522 Y42.193 Z-10.751 F930
G1 X52.663 Y42.157 Z-10.754 F930
G1 X52.806 Y42.129 Z-10.758 F930
G1 X52.95 Y42.108 Z-10.761 F930
G1 X53.095 Y42.096 Z-10.765 F930
G1 X53.241 Y42.091 Z-10.769 F930
G1 X53.387 Y42.095 Z-10.772 F930
G1 X53.532 Y42.106 Z-10.776 F930
G1 X53.677 Y42.126 Z-10.779 F930
G1 X53.82 Y42.153 Z-10.783 F930
G1 X53.961 Y42.188 Z-10.786 F930
G1 X54.1 Y42.231 Z-10.79 F930
G1 X54.237 Y42.281 Z-10.793 F930
G1 X54.371 Y42.339 Z-10.797 F930
G1 X54.501 Y42.404 Z-10.801 F930
G1 X54.628 Y42.476 Z-10.804 F930
G1 X54.751 Y42.555 Z-10.808 F930
G1 X54.869 Y42.641 Z-10.811 F930
G1 X54.982 Y42.733 Z-10.815 F930
G1 X55.09 Y42.831 Z-10.818 F930
G1 X55.192 Y42.934 Z-10.822 F930
G1 X55.289 Y43.043 Z-10.825 F930
G1 X55.379 Y43.158 Z-10.829 F930
G1 X55.463 Y43.277 Z-10.833 F930
G1 X55.541 Y43.4 Z-10.836 F930
G1 X55.611 Y43.528 Z-10.84 F930
G1 X55.675 Y43.659 Z-10.843 F930
G1 X55.731 Y43.794 Z-10.847 F930
G1 X55.779 Y43.931 Z-10.85 F930
G1 X55.821 Y44.071 Z-10.854 F930
G1 X55.854 Y44.213 Z-10.857 F930
G1 X55.879 Y44.356 Z-10.861 F930
G1 X55.897 Y44.501 Z-10.865 F930
G1 X55.907 Y44.646 Z-10.868 F930
G1 X55.908 Y44.792 Z-10.872 F930
G1 X55.902 Y44.938 Z-10.875 F930
G1 X55.888 Y45.083 Z-10.879 F930
G1 X55.866 Y45.227 Z-10.882 F930
G1 X55.836 Y45.369 Z-10.886 F930
G1 X55.798 Y45.51 Z-10.889 F930
G1 X55.752 Y45.649 Z-10.893 F930
G1 X55.699 Y45.784 Z-10.897 F930
G1 X55.639 Y45.917 Z-10.9 F930
G1 X55.571 Y46.046 Z-10.904 F930
G1 X55.497 Y46.171 Z-10.907 F930
G1 X55.416 Y46.292 Z-10.911 F930
G1 X55.328 Y46.409 Z-10.914 F930
G1 X55.234 Y46.52 Z-10.918 F930
G1 X55.134 Y46.626 Z-10.921 F930
G1 X55.028 Y46.727 Z-10.925 F930
G1 X54.917 Y46.821 Z-10.929 F930
G1 X54.801 Y46.909 Z-10.932 F930
G1 X54.681 Y46.991 Z-10.936 F930
G1 X54.556 Y47.066 Z-10.939 F930
G1 X54.427 Y47.134 Z-10.943 F930
G1 X54.294 Y47.195 Z-10.946 F930
G1 X54.159 Y47.249 Z-10.95 F930
G1 X54.02 Y47.295 Z-10.953 F930
G1 X53.88 Y47.333 Z-10.957 F930
G1 X53.737 Y47.364 Z-10.961 F930
G1 X53.593 Y47.386 Z-10.964 F930
G1 X53.448 Y47.401 Z-10.968 F930
G1 X53.303 Y47.408 Z-10.971 F930
G1 X53.157 Y47.407 Z-10.975 F930
G1 X53.012 Y47.398 Z-10.978 F930
G1 X52.867 Y47.381 Z-10.982 F930
G1 X52.723 Y47.356 Z-10.985 F930
G1 X52.581 Y47.323 Z-10.989 F930
G1 X52.441 Y47.283 Z-10.993 F930
G1 X52.304 Y47.235 Z-10.996 F930
G1 X52.169 Y47.179 Z-11 F930
G1 X52.037 Y47.116 Z-11.003 F930
G1 X51.91 Y47.046 Z-11.007 F930
G1 X51.786 Y46.969 Z-11.01 F930
G1 X51.666 Y46.886 Z-11.014 F930
G1 X51.552 Y46.796 Z-11.017 F930
G1 X51.442 Y46.699 Z-11.021 F930
G1 X51.338 Y46.597 Z-11.025 F930
G1 X51.24 Y46.49 Z-11.028 F930
G1 X51.147 Y46.377 Z-11.032 F930
G1 X51.061 Y46.259 Z-11.035 F930
G1 X50.982 Y46.137 Z-11.039 F930
G1 X50.909 Y46.011 Z-11.042 F930
G1 X50.844 Y45.881 Z-11.046 F930
G1 X50.785 Y45.747 Z-11.049 F930
G1 X50.734 Y45.611 Z-11.053 F930
G1 X50.691 Y45.471 Z-11.057 F930
G1 X50.655 Y45.33 Z-11.06 F930
G1 X50.627 Y45.187 Z-11.064 F930
G1 X50.607 Y45.043 Z-11.067 F930
G1 X50.595 Y44.897 Z-11.071 F930
G1 X50.591 Y44.752 Z-11.074 F930
G1 X50.595 Y44.606 Z-11.078 F930
G1 X50.607 Y44.461 Z-11.081 F930
G1 X50.627 Y44.316 Z-11.085 F930
G1 X50.655 Y44.173 Z-11.089 F930
G1 X50.69 Y44.032 Z-11.092 F930
G1 X50.733 Y43.893 Z-11.096 F930
G1 X50.784 Y43.756 Z-11.099 F930
G1 X50.842 Y43.622 Z-11.103 F930
G1 X50.908 Y43.492 Z-11.106 F930
G1 X50.98 Y43.366 Z-11.11 F930
G1 X51.059 Y43.243 Z-11.113 F930
G1 X51.145 Y43.126 Z-11.117 F930
G1 X51.237 Y43.013 Z-11.121 F930
G1 X51.336 Y42.905 Z-11.124 F930
G1 X51.44 Y42.803 Z-11.128 F930
G1 X51.549 Y42.707 Z-11.131 F930
G1 X51.663 Y42.616 Z-11.135 F930
G1 X51.783 Y42.533 Z-11.138 F930
G1 X51.906 Y42.456 Z-11.142 F930
G1 X52.034 Y42.386 Z-11.145 F930
G1 X52.166 Y42.322 Z-11.149 F930
G1 X52.3 Y42.267 Z-11.153 F930
G1 X52.438 Y42.218 Z-11.156 F930
G1 X52.578 Y42.178 Z-11.16 F930
G1 X52.72 Y42.145 Z-11.163 F930
G1 X52.863 Y42.12 Z-11.167 F930
G1 X53.008 Y42.102 Z-11.17 F930
G1 X53.153 Y42.093 Z-11.174 F930
G1 X53.299 Y42.092 Z-11.177 F930
G1 X53.445 Y42.098 Z-11.181 F930
G1 X53.59 Y42.113 Z-11.185 F930
G1 X53.734 Y42.136 Z-11.188 F930
G1 X53.876 Y42.166 Z-11.192 F930
G1 X54.017 Y42.204 Z-11.195 F930
G1 X54.155 Y42.25 Z-11.199 F930
G1 X54.291 Y42.304 Z-11.202 F930
G1 X54.423 Y42.364 Z-11.206 F930
G1 X54.552 Y42.432 Z-11.209 F930
G1 X54.678 Y42.507 Z-11.213 F930
G1 X54.798 Y42.589 Z-11.217 F930
G1 X54.914 Y42.677 Z-11.22 F930
G1 X55.026 Y42.771 Z-11.224 F930
G1 X55.131 Y42.871 Z-11.227 F930
G1 X55.231 Y42.977 Z-11.231 F930
G1 X55.326 Y43.088 Z-11.234 F930
G1 X55.414 Y43.205 Z-11.238 F930
G1 X55.495 Y43.326 Z-11.241 F930
G1 X55.57 Y43.451 Z-11.245 F930
G1 X55.637 Y43.58 Z-11.249 F930
G1 X55.698 Y43.712 Z-11.252 F930
G1 X55.751 Y43.848 Z-11.256 F930
G1 X55.797 Y43.986 Z-11.259 F930
G1 X55.835 Y44.127 Z-11.263 F930
G1 X55.865 Y44.27 Z-11.266 F930
G1 X55.887 Y44.414 Z-11.27 F930
G1 X55.902 Y44.559 Z-11.273 F930
G1 X55.908 Y44.704 Z-11.277 F930
G1 X55.907 Y44.85 Z-11.281 F930
G1 X55.897 Y44.996 Z-11.284 F930
G1 X55.88 Y45.14 Z-11.288 F930
G1 X55.855 Y45.284 Z-11.291 F930
G1 X55.821 Y45.426 Z-11.295 F930
G1 X55.781 Y45.566 Z-11.298 F930
G1 X55.732 Y45.703 Z-11.302 F930
G1 X55.676 Y45.838 Z-11.305 F930
G1 X55.613 Y45.969 Z-11.309 F930
G1 X55.542 Y46.097 Z-11.313 F930
G1 X55.465 Y46.22 Z-11.316 F930
G1 X55.381 Y46.339 Z-11.32 F930
G1 X55.291 Y46.454 Z-11.323 F930
G1 X55.195 Y46.563 Z-11.327 F930
G1 X55.092 Y46.667 Z-11.33 F930
G1 X54.985 Y46.765 Z-11.334 F930
G1 X54.871 Y46.857 Z-11.337 F930
G1 X54.754 Y46.943 Z-11.341 F930
G1 X54.631 Y47.022 Z-11.345 F930
G1 X54.505 Y47.094 Z-11.348 F930
G1 X54.374 Y47.159 Z-11.352 F930
G1 X54.241 Y47.217 Z-11.355 F930
G1 X54.104 Y47.268 Z-11.359 F930
G1 X53.965 Y47.311 Z-11.362 F930
G1 X53.823 Y47.346 Z-11.366 F930
G1 X53.68 Y47.374 Z-11.369 F930
G1 X53.536 Y47.393 Z-11.373 F930
G1 X53.39 Y47.405 Z-11.377 F930
G1 X53.245 Y47.409 Z-11.38 F930
G1 X53.099 Y47.404 Z-11.384 F930
G1 X52.954 Y47.392 Z-11.387 F930
G1 X52.809 Y47.372 Z-11.391 F930
G1 X52.666 Y47.344 Z-11.394 F930
G1 X52.525 Y47.308 Z-11.398 F930
G1 X52.386 Y47.264 Z-11.401 F930
G1 X52.249 Y47.213 Z-11.405 F930
G1 X52.116 Y47.155 Z-11.409 F930
G1 X51.986 Y47.089 Z-11.412 F930
G1 X51.86 Y47.016 Z-11.416 F930
G1 X51.738 Y46.937 Z-11.419 F930
G1 X51.62 Y46.85 Z-11.423 F930
G1 X51.507 Y46.758 Z-11.426 F930
G1 X51.4 Y46.659 Z-11.43 F930
G1 X51.298 Y46.555 Z-11.433 F930
G1 X51.202 Y46.446 Z-11.437 F930
G1 X51.112 Y46.331 Z-11.441 F930
G1 X51.029 Y46.211 Z-11.444 F930
G1 X50.952 Y46.087 Z-11.448 F930
G1 X50.882 Y45.959 Z-11.451 F930
G1 X50.82 Y45.828 Z-11.455 F930
G1 X50.764 Y45.693 Z-11.458 F930
G1 X50.716 Y45.555 Z-11.462 F930
G1 X50.676 Y45.415 Z-11.465 F930
G1 X50.643 Y45.273 Z-11.469 F930
G1 X50.618 Y45.13 Z-11.473 F930
G1 X50.602 Y44.985 Z-11.476 F930
G1 X50.593 Y44.839 Z-11.48 F930
G1 X50.592 Y44.694 Z-11.483 F930
G1 X50.599 Y44.548 Z-11.487 F930
G1 X50.614 Y44.403 Z-11.49 F930
G1 X50.637 Y44.259 Z-11.494 F930
G1 X50.668 Y44.117 Z-11.497 F930
G1 X50.706 Y43.976 Z-11.501 F930
G1 X50.753 Y43.838 Z-11.505 F930
G1 X50.806 Y43.702 Z-11.508 F930
G1 X50.867 Y43.57 Z-11.512 F930
G1 X50.936 Y43.441 Z-11.515 F930
G1 X51.011 Y43.316 Z-11.519 F930
G1 X51.093 Y43.196 Z-11.522 F930
G1 X51.181 Y43.08 Z-11.526 F930
G1 X51.276 Y42.969 Z-11.529 F930
G1 X51.376 Y42.864 Z-11.533 F930
G1 X51.483 Y42.764 Z-11.537 F930
G1 X51.594 Y42.67 Z-11.54 F930
G1 X51.71 Y42.582 Z-11.544 F930
G1 X51.832 Y42.501 Z-11.547 F930
G1 X51.957 Y42.427 Z-11.551 F930
G1 X52.086 Y42.359 Z-11.554 F930
G1 X52.219 Y42.299 Z-11.558 F930
G1 X52.355 Y42.246 Z-11.561 F930
G1 X52.493 Y42.201 Z-11.565 F930
G1 X52.634 Y42.164 Z-11.569 F930
G1 X52.777 Y42.134 Z-11.572 F930
G1 X52.921 Y42.112 Z-11.576 F930
G1 X53.066 Y42.098 Z-11.579 F930
G1 X53.212 Y42.092 Z-11.583 F930
G1 X53.357 Y42.093 Z-11.586 F930
G1 X53.503 Y42.103 Z-11.59 F930
G1 X53.647 Y42.121 Z-11.593 F930
G1 X53.791 Y42.147 Z-11.597 F930
G1 X53.933 Y42.18 Z-11.601 F930
G1 X54.072 Y42.222 Z-11.604 F930
G1 X54.21 Y42.271 Z-11.608 F930
G1 X54.344 Y42.327 Z-11.611 F930
G1 X54.475 Y42.39 Z-11.615 F930
G1 X54.603 Y42.461 Z-11.618 F930
G1 X54.726 Y42.539 Z-11.622 F930
G1 X54.845 Y42.623 Z-11.625 F930
G1 X54.959 Y42.714 Z-11.629 F930
G1 X55.068 Y42.81 Z-11.633 F930
G1 X55.172 Y42.913 Z-11.636 F930
G1 X55.27 Y43.021 Z-11.64 F930
G1 X55.361 Y43.134 Z-11.643 F930
G1 X55.447 Y43.252 Z-11.647 F930
G1 X55.526 Y43.375 Z-11.65 F930
G1 X55.597 Y43.502 Z-11.654 F930
G1 X55.662 Y43.632 Z-11.657 F930
G1 X55.72 Y43.766 Z-11.661 F930
G1 X55.77 Y43.903 Z-11.665 F930
G1 X55.813 Y44.042 Z-11.668 F930
G1 X55.848 Y44.184 Z-11.672 F930
G1 X55.875 Y44.327 Z-11.675 F930
G1 X55.894 Y44.472 Z-11.679 F930
G1 X55.905 Y44.617 Z-11.682 F930
G1 X55.909 Y44.763 Z-11.686 F930
G1 X55.904 Y44.908 Z-11.689 F930
G1 X55.891 Y45.053 Z-11.693 F930
G1 X55.871 Y45.198 Z-11.697 F930
G1 X55.842 Y45.341 Z-11.7 F930
G1 X55.806 Y45.482 Z-11.704 F930
G1 X55.762 Y45.621 Z-11.707 F930
G1 X55.711 Y45.757 Z-11.711 F930
G1 X55.652 Y45.89 Z-11.714 F930
G1 X55.586 Y46.02 Z-11.718 F930
G1 X55.512 Y46.146 Z-11.721 F930
G1 X55.433 Y46.268 Z-11.725 F930
G1 X55.346 Y46.386 Z-11.729 F930
G1 X55.253 Y46.498 Z-11.732 F930
G1 X55.155 Y46.605 Z-11.736 F930
G1 X55.05 Y46.707 Z-11.739 F930
G1 X54.94 Y46.802 Z-11.743 F930
G1 X54.825 Y46.892 Z-11.746 F930
G1 X54.705 Y46.975 Z-11.75 F930
G1 X54.581 Y47.052 Z-11.753 F930
G1 X54.453 Y47.121 Z-11.757 F930
G1 X54.321 Y47.183 Z-11.761 F930
G1 X54.186 Y47.238 Z-11.764 F930
G1 X54.049 Y47.286 Z-11.768 F930
G1 X53.908 Y47.326 Z-11.771 F930
G1 X53.766 Y47.358 Z-11.775 F930
G1 X53.623 Y47.383 Z-11.778 F930
G1 X53.478 Y47.399 Z-11.782 F930
G1 X53.332 Y47.407 Z-11.785 F930
G1 X53.186 Y47.408 Z-11.789 F930
G1 X53.041 Y47.401 Z-11.793 F930
G1 X52.896 Y47.385 Z-11.796 F930
G1 X52.752 Y47.362 Z-11.8 F930
G1 X52.61 Y47.331 Z-11.803 F930
G1 X52.469 Y47.292 Z-11.807 F930
G1 X52.331 Y47.245 Z-11.81 F930
G1 X52.196 Y47.191 Z-11.814 F930
G1 X52.064 Y47.129 Z-11.817 F930
G1 X51.935 Y47.061 Z-11.821 F930
G1 X51.81 Y46.985 Z-11.824 F930
G1 X51.69 Y46.903 Z-11.828 F930
G1 X51.574 Y46.814 Z-11.832 F930
G1 X51.464 Y46.719 Z-11.835 F930
G1 X51.359 Y46.619 Z-11.839 F930
G1 X51.259 Y46.512 Z-11.842 F930
G1 X51.165 Y46.4 Z-11.846 F930
G1 X51.078 Y46.284 Z-11.849 F930
G1 X50.997 Y46.162 Z-11.853 F930
G1 X50.923 Y46.037 Z-11.856 F930
G1 X50.856 Y45.907 Z-11.86 F930
G1 X50.797 Y45.774 Z-11.864 F930
G1 X50.744 Y45.638 Z-11.867 F930
G1 X50.699 Y45.5 Z-11.871 F930
G1 X50.662 Y45.359 Z-11.874 F930
G1 X50.632 Y45.216 Z-11.878 F930
G1 X50.611 Y45.072 Z-11.881 F930
G1 X50.597 Y44.927 Z-11.885 F930
G1 X50.591 Y44.781 Z-11.888 F930
G1 X50.594 Y44.636 Z-11.892 F930
G1 X50.604 Y44.49 Z-11.896 F930
G1 X50.622 Y44.346 Z-11.899 F930
G1 X50.648 Y44.202 Z-11.903 F930
G1 X50.682 Y44.06 Z-11.906 F930
G1 X50.724 Y43.921 Z-11.91 F930
G1 X50.773 Y43.784 Z-11.913 F930
G1 X50.83 Y43.649 Z-11.917 F930
G1 X50.894 Y43.518 Z-11.92 F930
G1 X50.965 Y43.391 Z-11.924 F930
G1 X51.043 Y43.268 Z-11.928 F930
G1 X51.127 Y43.149 Z-11.931 F930
G1 X51.218 Y43.035 Z-11.935 F930
G1 X51.315 Y42.926 Z-11.938 F930
G1 X51.418 Y42.823 Z-11.942 F930
G1 X51.526 Y42.726 Z-11.945 F930
G1 X51.64 Y42.634 Z-11.949 F930
G1 X51.758 Y42.549 Z-11.952 F930
G1 X51.881 Y42.471 Z-11.956 F930
G1 X52.008 Y42.399 Z-11.96 F930
G1 X52.139 Y42.335 Z-11.963 F930
G1 X52.273 Y42.277 Z-11.967 F930
G1 X52.41 Y42.228 Z-11.97 F930
G1 X52.549 Y42.185 Z-11.974 F930
G1 X52.691 Y42.151 Z-11.977 F930
G1 X52.834 Y42.124 Z-11.981 F930
G1 X52.979 Y42.105 Z-11.984 F930
G1 X53.124 Y42.094 Z-11.988 F930
G1 X53.27 Y42.091 Z-11.992 F930
G1 X53.415 Y42.096 Z-11.995 F930
G1 X53.561 Y42.109 Z-11.999 F930
G1 X53.705 Y42.13 Z-12.002 F930
G1 X53.848 Y42.159 Z-12.006 F930
G1 X53.989 Y42.196 Z-12.009 F930
G1 X54.128 Y42.24 Z-12.013 F930
G1 X54.264 Y42.292 Z-12.016 F930
G1 X54.397 Y42.351 Z-12.02 F930
G1 X54.527 Y42.418 Z-12.024 F930
G1 X54.653 Y42.491 Z-12.027 F930
G1 X54.774 Y42.572 Z-12.031 F930
G1 X54.891 Y42.658 Z-12.034 F930
G1 X55.003 Y42.751 Z-12.038 F930
G1 X55.11 Y42.85 Z-12.041 F930
G1 X55.212 Y42.955 Z-12.045 F930
G1 X55.307 Y43.065 Z-12.048 F930
G1 X55.396 Y43.181 Z-12.052 F930
G1 X55.479 Y43.301 Z-12.056 F930
G1 X55.555 Y43.425 Z-12.059 F930
G1 X55.624 Y43.553 Z-12.063 F930
G1 X55.686 Y43.685 Z-12.066 F930
G1 X55.741 Y43.82 Z-12.07 F930
G1 X55.788 Y43.958 Z-12.073 F930
G1 X55.828 Y44.099 Z-12.077 F930
G1 X55.86 Y44.241 Z-12.08 F930
G1 X55.884 Y44.385 Z-12.084 F930
G1 X55.9 Y44.529 Z-12.088 F930
G1 X55.908 Y44.675 Z-12.091 F930
G1 Y44.821 Z-12.095 F930
G1 X55.9 Y44.966 Z-12.098 F930
G1 X55.884 Y45.111 Z-12.102 F930
G1 X55.86 Y45.255 Z-12.105 F930
G1 X55.829 Y45.397 Z-12.109 F930
G1 X55.789 Y45.538 Z-12.112 F930
G1 X55.742 Y45.675 Z-12.116 F930
G1 X55.688 Y45.811 Z-12.12 F930
G1 X55.626 Y45.943 Z-12.123 F930
G1 X55.557 Y46.071 Z-12.127 F930
G1 X55.481 Y46.196 Z-12.13 F930
G1 X55.399 Y46.316 Z-12.134 F930
G1 X55.31 Y46.431 Z-12.137 F930
G1 X55.215 Y46.541 Z-12.141 F930
G1 X55.113 Y46.646 Z-12.144 F930
G1 X55.007 Y46.746 Z-12.148 F930
G1 X54.895 Y46.839 Z-12.152 F930
G1 X54.778 Y46.926 Z-12.155 F930
G1 X54.656 Y47.006 Z-12.159 F930
G1 X54.531 Y47.08 Z-12.162 F930
G1 X54.401 Y47.147 Z-12.166 F930
G1 X54.268 Y47.206 Z-12.169 F930
G1 X54.132 Y47.258 Z-12.173 F930
G1 X53.993 Y47.303 Z-12.176 F930
G1 X53.852 Y47.34 Z-12.18 F930
G1 X53.709 Y47.369 Z-12.184 F930
G1 X53.565 Y47.39 Z-12.187 F930
G1 X53.42 Y47.403 Z-12.191 F930
G1 X53.274 Y47.409 Z-12.194 F930
G1 X53.128 Y47.406 Z-12.198 F930
G1 X52.983 Y47.395 Z-12.201 F930
G1 X52.838 Y47.377 Z-12.205 F930
G1 X52.695 Y47.35 Z-12.208 F930
G1 X52.554 Y47.316 Z-12.212 F930
G1 X52.414 Y47.274 Z-12.216 F930
G1 X52.277 Y47.224 Z-12.219 F930
G1 X52.143 Y47.167 Z-12.223 F930
G1 X52.012 Y47.103 Z-12.226 F930
G1 X51.885 Y47.032 Z-12.23 F930
G1 X51.762 Y46.953 Z-12.233 F930
G1 X51.643 Y46.868 Z-12.237 F930
G1 X51.53 Y46.777 Z-12.24 F930
G1 X51.421 Y46.68 Z-12.244 F930
G1 X51.318 Y46.577 Z-12.248 F930
G1 X51.221 Y46.468 Z-12.251 F930
G1 X51.13 Y46.354 Z-12.255 F930
G1 X51.045 Y46.236 Z-12.258 F930
G1 X50.967 Y46.113 Z-12.262 F930
G1 X50.896 Y45.986 Z-12.265 F930
G1 X50.832 Y45.855 Z-12.269 F930
G1 X50.775 Y45.721 Z-12.272 F930
G1 X50.725 Y45.583 Z-12.276 F930
G1 X50.683 Y45.444 Z-12.28 F930
G1 X50.649 Y45.302 Z-12.283 F930
G1 X50.623 Y45.159 Z-12.287 F930
G1 X50.604 Y45.014 Z-12.29 F930
G1 X50.594 Y44.869 Z-12.294 F930
G1 X50.591 Y44.723 Z-12.297 F930
G1 X50.597 Y44.578 Z-12.301 F930
G1 X50.61 Y44.432 Z-12.304 F930
G1 X50.632 Y44.288 Z-12.308 F930
G1 X50.661 Y44.145 Z-12.312 F930
G1 X50.698 Y44.004 Z-12.315 F930
G1 X50.743 Y43.866 Z-12.319 F930
G1 X50.795 Y43.73 Z-12.322 F930
G1 X50.854 Y43.597 Z-12.326 F930
G1 X50.921 Y43.467 Z-12.329 F930
G1 X50.995 Y43.341 Z-12.333 F930
G1 X51.076 Y43.22 Z-12.336 F930
G1 X51.163 Y43.103 Z-12.34 F930
G1 X51.256 Y42.991 Z-12.344 F930
G1 X51.356 Y42.885 Z-12.347 F930
G1 X51.461 Y42.784 Z-12.351 F930
G1 X51.571 Y42.688 Z-12.354 F930
G1 X51.687 Y42.6 Z-12.358 F930
G1 X51.807 Y42.517 Z-12.361 F930
G1 X51.931 Y42.441 Z-12.365 F930
G1 X52.06 Y42.373 Z-12.368 F930
G1 X52.192 Y42.311 Z-12.372 F930
G1 X52.327 Y42.257 Z-12.376 F930
G1 X52.465 Y42.21 Z-12.379 F930
G1 X52.605 Y42.171 Z-12.383 F930
G1 X52.748 Y42.139 Z-12.386 F930
G1 X52.892 Y42.116 Z-12.39 F930
G1 X53.037 Y42.1 Z-12.393 F930
G1 X53.182 Y42.092 Z-12.397 F930
G1 X53.328 Z-12.4 F930
G1 X53.473 Y42.101 Z-12.404 F930
G1 X53.618 Y42.117 Z-12.408 F930
G1 X53.762 Y42.141 Z-12.411 F930
G1 X53.904 Y42.173 Z-12.415 F930
G1 X54.044 Y42.213 Z-12.418 F930
G1 X54.182 Y42.26 Z-12.422 F930
G1 X54.317 Y42.315 Z-12.425 F930
G1 X54.449 Y42.377 Z-12.429 F930
G1 X54.577 Y42.446 Z-12.432 F930
G1 X54.702 Y42.522 Z-12.436 F930
G1 X54.821 Y42.605 Z-12.44 F930
G1 X54.937 Y42.695 Z-12.443 F930
G1 X55.047 Y42.79 Z-12.447 F930
G1 X55.151 Y42.892 Z-12.45 F930
G1 X55.25 Y42.999 Z-12.454 F930
G1 X55.343 Y43.111 Z-12.457 F930
G1 X55.43 Y43.228 Z-12.461 F930
G1 X55.51 Y43.35 Z-12.464 F930
G1 X55.583 Y43.476 Z-12.468 F930
G1 X55.65 Y43.606 Z-12.472 F930
G1 X55.709 Y43.739 Z-12.475 F930
G1 X55.761 Y43.875 Z-12.479 F930
G1 X55.805 Y44.014 Z-12.482 F930
G1 X55.841 Y44.155 Z-12.486 F930
G1 X55.87 Y44.298 Z-12.489 F930
G1 X55.891 Y44.442 Z-12.493 F930
G1 X55.904 Y44.587 Z-12.496 F930
G1 X55.909 Y44.733 Z-12.5 F930
G3 X50.591 Y44.767 I-2.659 J0.017 F930
G3 X55.909 Y44.733 I2.659 J-0.017 F930
; MOVEMENT_LEAD_OUT
G3 X55.278 Y45.372 I-0.635 J0.004 F930
G1 X54.96 Y45.374 F930
G1 X54.889 Y45.375 Z-12.496 F930
G1 X54.819 Z-12.484 F930
G1 X54.751 Z-12.464 F930
G1 X54.685 Y45.376 Z-12.437 F930
G1 X54.622 Z-12.403 F930
G1 X54.564 Y45.377 Z-12.361 F930
G1 X54.511 Z-12.314 F930
G1 X54.464 Z-12.261 F930
G1 X54.423 Y45.378 Z-12.203 F930
G1 X54.388 Z-12.141 F930
G1 X54.361 Z-12.075 F930
G1 X54.341 Z-12.006 F930
G1 X54.329 Z-11.936 F930
G1 X54.325 Z-11.865 F930
; MOVEMENT_CUTTING
G1 Z5 F930
G1 X95.179 Y45.385 F930
G1 Z-5 F930
; MOVEMENT_LEAD_IN
G1 Z-6.365 F930
G1 X95.175 Z-6.436 F930
G1 X95.163 Z-6.506 F930
G1 X95.143 Z-6.575 F930
G1 X95.116 Z-6.641 F930
G1 X95.081 Z-6.703 F930
G1 X95.04 Z-6.761 F930
G1 X94.993 Z-6.814 F930
G1 X94.94 Z-6.861 F930
G1 X94.882 Z-6.903 F930
G1 X94.819 Z-6.937 F930
G1 X94.753 Z-6.964 F930
G1 X94.685 Z-6.984 F930
G1 X94.615 Z-6.996 F930
G1 X94.544 Z-7 F930
G1 X94.226 F930
G3 X93.591 Y44.75 J-0.635 F930
; MOVEMENT_CUTTING
G1 X93.595 Y44.604 Z-7.004 F930
G1 X93.607 Y44.459 Z-7.007 F930
G1 X93.627 Y44.315 Z-7.011 F930
G1 X93.655 Y44.172 Z-7.014 F930
G1 X93.691 Y44.03 Z-7.018 F930
G1 X93.734 Y43.891 Z-7.021 F930
G1 X93.785 Y43.754 Z-7.025 F930
G1 X93.843 Y43.621 Z-7.028 F930
G1 X93.908 Y43.491 Z-7.032 F930
G1 X93.981 Y43.364 Z-7.036 F930
G1 X94.06 Y43.242 Z-7.039 F930
G1 X94.146 Y43.124 Z-7.043 F930
G1 X94.238 Y43.011 Z-7.046 F930
G1 X94.337 Y42.904 Z-7.05 F930
G1 X94.441 Y42.802 Z-7.053 F930
G1 X94.55 Y42.706 Z-7.057 F930
G1 X94.665 Y42.615 Z-7.06 F930
G1 X94.784 Y42.532 Z-7.064 F930
G1 X94.908 Y42.455 Z-7.068 F930
G1 X95.036 Y42.385 Z-7.071 F930
G1 X95.167 Y42.322 Z-7.075 F930
G1 X95.302 Y42.266 Z-7.078 F930
G1 X95.439 Y42.218 Z-7.082 F930
G1 X95.579 Y42.177 Z-7.085 F930
G1 X95.721 Y42.144 Z-7.089 F930
G1 X95.865 Y42.119 Z-7.092 F930
G1 X96.01 Y42.102 Z-7.096 F930
G1 X96.155 Y42.093 Z-7.1 F930
G1 X96.301 Y42.092 Z-7.103 F930
G1 X96.447 Y42.099 Z-7.107 F930
G1 X96.592 Y42.113 Z-7.11 F930
G1 X96.736 Y42.136 Z-7.114 F930
G1 X96.878 Y42.166 Z-7.117 F930
G1 X97.019 Y42.205 Z-7.121 F930
G1 X97.157 Y42.251 Z-7.124 F930
G1 X97.293 Y42.304 Z-7.128 F930
G1 X97.425 Y42.365 Z-7.132 F930
G1 X97.554 Y42.433 Z-7.135 F930
G1 X97.679 Y42.508 Z-7.139 F930
G1 X97.8 Y42.59 Z-7.142 F930
G1 X97.916 Y42.678 Z-7.146 F930
G1 X98.027 Y42.772 Z-7.149 F930
G1 X98.133 Y42.873 Z-7.153 F930
G1 X98.233 Y42.978 Z-7.156 F930
G1 X98.327 Y43.09 Z-7.16 F930
G1 X98.415 Y43.206 Z-7.164 F930
G1 X98.496 Y43.327 Z-7.167 F930
G1 X98.571 Y43.452 Z-7.171 F930
G1 X98.638 Y43.581 Z-7.174 F930
G1 X98.699 Y43.714 Z-7.178 F930
G1 X98.752 Y43.85 Z-7.181 F930
G1 X98.797 Y43.988 Z-7.185 F930
G1 X98.835 Y44.129 Z-7.188 F930
G1 X98.865 Y44.271 Z-7.192 F930
G1 X98.888 Y44.416 Z-7.196 F930
G1 X98.902 Y44.561 Z-7.199 F930
G1 X98.908 Y44.706 Z-7.203 F930
G1 X98.907 Y44.852 Z-7.206 F930
G1 X98.897 Y44.997 Z-7.21 F930
G1 X98.88 Y45.142 Z-7.213 F930
G1 X98.854 Y45.286 Z-7.217 F930
G1 X98.821 Y45.427 Z-7.22 F930
G1 X98.78 Y45.567 Z-7.224 F930
G1 X98.731 Y45.705 Z-7.228 F930
G1 X98.675 Y45.839 Z-7.231 F930
G1 X98.612 Y45.971 Z-7.235 F930
G1 X98.542 Y46.098 Z-7.238 F930
G1 X98.464 Y46.222 Z-7.242 F930
G1 X98.38 Y46.341 Z-7.245 F930
G1 X98.29 Y46.455 Z-7.249 F930
G1 X98.193 Y46.564 Z-7.252 F930
G1 X98.091 Y46.668 Z-7.256 F930
G1 X97.983 Y46.766 Z-7.26 F930
G1 X97.87 Y46.858 Z-7.263 F930
G1 X97.752 Y46.944 Z-7.267 F930
G1 X97.63 Y47.023 Z-7.27 F930
G1 X97.503 Y47.095 Z-7.274 F930
G1 X97.373 Y47.16 Z-7.277 F930
G1 X97.239 Y47.218 Z-7.281 F930
G1 X97.102 Y47.268 Z-7.284 F930
G1 X96.963 Y47.311 Z-7.288 F930
G1 X96.821 Y47.347 Z-7.292 F930
G1 X96.678 Y47.374 Z-7.295 F930
G1 X96.534 Y47.394 Z-7.299 F930
G1 X96.389 Y47.405 Z-7.302 F930
G1 X96.243 Y47.409 Z-7.306 F930
G1 X96.097 Y47.404 Z-7.309 F930
G1 X95.952 Y47.392 Z-7.313 F930
G1 X95.808 Y47.372 Z-7.316 F930
G1 X95.665 Y47.344 Z-7.32 F930
G1 X95.523 Y47.308 Z-7.324 F930
G1 X95.384 Y47.264 Z-7.327 F930
G1 X95.248 Y47.213 Z-7.331 F930
G1 X95.114 Y47.154 Z-7.334 F930
G1 X94.984 Y47.088 Z-7.338 F930
G1 X94.858 Y47.015 Z-7.341 F930
G1 X94.736 Y46.936 Z-7.345 F930
G1 X94.619 Y46.849 Z-7.348 F930
G1 X94.506 Y46.757 Z-7.352 F930
G1 X94.399 Y46.658 Z-7.356 F930
G1 X94.297 Y46.554 Z-7.359 F930
G1 X94.201 Y46.444 Z-7.363 F930
G1 X94.111 Y46.329 Z-7.366 F930
G1 X94.028 Y46.21 Z-7.37 F930
G1 X93.951 Y46.086 Z-7.373 F930
G1 X93.881 Y45.958 Z-7.377 F930
G1 X93.819 Y45.826 Z-7.38 F930
G1 X93.763 Y45.691 Z-7.384 F930
G1 X93.716 Y45.554 Z-7.388 F930
G1 X93.675 Y45.414 Z-7.391 F930
G1 X93.643 Y45.272 Z-7.395 F930
G1 X93.618 Y45.128 Z-7.398 F930
G1 X93.601 Y44.983 Z-7.402 F930
G1 X93.593 Y44.838 Z-7.405 F930
G1 X93.592 Y44.692 Z-7.409 F930
G1 X93.599 Y44.546 Z-7.412 F930
G1 X93.614 Y44.401 Z-7.416 F930
G1 X93.637 Y44.257 Z-7.42 F930
G1 X93.668 Y44.115 Z-7.423 F930
G1 X93.707 Y43.974 Z-7.427 F930
G1 X93.753 Y43.836 Z-7.43 F930
G1 X93.807 Y43.701 Z-7.434 F930
G1 X93.868 Y43.569 Z-7.437 F930
G1 X93.937 Y43.44 Z-7.441 F930
G1 X94.012 Y43.315 Z-7.444 F930
G1 X94.094 Y43.194 Z-7.448 F930
G1 X94.182 Y43.079 Z-7.452 F930
G1 X94.277 Y42.968 Z-7.455 F930
G1 X94.378 Y42.862 Z-7.459 F930
G1 X94.484 Y42.763 Z-7.462 F930
G1 X94.595 Y42.669 Z-7.466 F930
G1 X94.712 Y42.581 Z-7.469 F930
G1 X94.833 Y42.5 Z-7.473 F930
G1 X94.958 Y42.426 Z-7.476 F930
G1 X95.088 Y42.359 Z-7.48 F930
G1 X95.221 Y42.299 Z-7.484 F930
G1 X95.356 Y42.246 Z-7.487 F930
G1 X95.495 Y42.201 Z-7.491 F930
G1 X95.636 Y42.163 Z-7.494 F930
G1 X95.779 Y42.133 Z-7.498 F930
G1 X95.923 Y42.111 Z-7.501 F930
G1 X96.068 Y42.098 Z-7.505 F930
G1 X96.213 Y42.092 Z-7.508 F930
G1 X96.359 Y42.093 Z-7.512 F930
G1 X96.504 Y42.103 Z-7.516 F930
G1 X96.649 Y42.121 Z-7.519 F930
G1 X96.793 Y42.147 Z-7.523 F930
G1 X96.934 Y42.181 Z-7.526 F930
G1 X97.074 Y42.222 Z-7.53 F930
G1 X97.211 Y42.271 Z-7.533 F930
G1 X97.346 Y42.328 Z-7.537 F930
G1 X97.477 Y42.391 Z-7.54 F930
G1 X97.604 Y42.462 Z-7.544 F930
G1 X97.728 Y42.54 Z-7.548 F930
G1 X97.847 Y42.624 Z-7.551 F930
G1 X97.961 Y42.715 Z-7.555 F930
G1 X98.07 Y42.811 Z-7.558 F930
G1 X98.173 Y42.914 Z-7.562 F930
G1 X98.271 Y43.022 Z-7.565 F930
G1 X98.363 Y43.136 Z-7.569 F930
G1 X98.448 Y43.254 Z-7.572 F930
G1 X98.526 Y43.376 Z-7.576 F930
G1 X98.598 Y43.503 Z-7.58 F930
G1 X98.663 Y43.634 Z-7.583 F930
G1 X98.721 Y43.768 Z-7.587 F930
G1 X98.771 Y43.905 Z-7.59 F930
G1 X98.813 Y44.044 Z-7.594 F930
G1 X98.848 Y44.186 Z-7.597 F930
G1 X98.875 Y44.329 Z-7.601 F930
G1 X98.894 Y44.473 Z-7.604 F930
G1 X98.906 Y44.619 Z-7.608 F930
G1 X98.909 Y44.764 Z-7.612 F930
G1 X98.904 Y44.91 Z-7.615 F930
G1 X98.891 Y45.055 Z-7.619 F930
G1 X98.87 Y45.199 Z-7.622 F930
G1 X98.842 Y45.342 Z-7.626 F930
G1 X98.806 Y45.484 Z-7.629 F930
G1 X98.762 Y45.622 Z-7.633 F930
G1 X98.71 Y45.759 Z-7.636 F930
G1 X98.651 Y45.892 Z-7.64 F930
G1 X98.585 Y46.022 Z-7.644 F930
G1 X98.512 Y46.148 Z-7.647 F930
G1 X98.432 Y46.27 Z-7.651 F930
G1 X98.345 Y46.387 Z-7.654 F930
G1 X98.252 Y46.499 Z-7.658 F930
G1 X98.153 Y46.606 Z-7.661 F930
G1 X98.049 Y46.708 Z-7.665 F930
G1 X97.939 Y46.804 Z-7.668 F930
G1 X97.824 Y46.893 Z-7.672 F930
G1 X97.704 Y46.976 Z-7.676 F930
G1 X97.58 Y47.052 Z-7.679 F930
G1 X97.451 Y47.122 Z-7.683 F930
G1 X97.32 Y47.184 Z-7.686 F930
G1 X97.185 Y47.239 Z-7.69 F930
G1 X97.047 Y47.287 Z-7.693 F930
G1 X96.907 Y47.326 Z-7.697 F930
G1 X96.765 Y47.358 Z-7.7 F930
G1 X96.621 Y47.383 Z-7.704 F930
G1 X96.476 Y47.399 Z-7.707 F930
G1 X96.33 Y47.408 Z-7.711 F930
G1 X96.185 Z-7.715 F930
G1 X96.039 Y47.4 Z-7.718 F930
G1 X95.894 Y47.385 Z-7.722 F930
G1 X95.75 Y47.361 Z-7.725 F930
G1 X95.608 Y47.33 Z-7.729 F930
G1 X95.468 Y47.291 Z-7.732 F930
G1 X95.33 Y47.244 Z-7.736 F930
G1 X95.194 Y47.19 Z-7.739 F930
G1 X95.062 Y47.129 Z-7.743 F930
G1 X94.934 Y47.06 Z-7.747 F930
G1 X94.809 Y46.984 Z-7.75 F930
G1 X94.689 Y46.902 Z-7.754 F930
G1 X94.573 Y46.813 Z-7.757 F930
G1 X94.463 Y46.718 Z-7.761 F930
G1 X94.357 Y46.617 Z-7.764 F930
G1 X94.258 Y46.511 Z-7.768 F930
G1 X94.164 Y46.399 Z-7.771 F930
G1 X94.077 Y46.282 Z-7.775 F930
G1 X93.996 Y46.161 Z-7.779 F930
G1 X93.923 Y46.035 Z-7.782 F930
G1 X93.856 Y45.906 Z-7.786 F930
G1 X93.796 Y45.773 Z-7.789 F930
G1 X93.744 Y45.637 Z-7.793 F930
G1 X93.699 Y45.498 Z-7.796 F930
G1 X93.662 Y45.357 Z-7.8 F930
G1 X93.632 Y45.214 Z-7.803 F930
G1 X93.611 Y45.07 Z-7.807 F930
G1 X93.597 Y44.925 Z-7.811 F930
G1 X93.591 Y44.78 Z-7.814 F930
G1 X93.594 Y44.634 Z-7.818 F930
G1 X93.604 Y44.488 Z-7.821 F930
G1 X93.622 Y44.344 Z-7.825 F930
G1 X93.649 Y44.2 Z-7.828 F930
G1 X93.683 Y44.059 Z-7.832 F930
G1 X93.724 Y43.919 Z-7.835 F930
G1 X93.774 Y43.782 Z-7.839 F930
G1 X93.831 Y43.648 Z-7.843 F930
G1 X93.895 Y43.517 Z-7.846 F930
G1 X93.966 Y43.39 Z-7.85 F930
G1 X94.044 Y43.266 Z-7.853 F930
G1 X94.128 Y43.148 Z-7.857 F930
G1 X94.219 Y43.034 Z-7.86 F930
G1 X94.316 Y42.925 Z-7.864 F930
G1 X94.419 Y42.822 Z-7.867 F930
G1 X94.528 Y42.724 Z-7.871 F930
G1 X94.641 Y42.633 Z-7.875 F930
G1 X94.76 Y42.548 Z-7.878 F930
G1 X94.883 Y42.47 Z-7.882 F930
G1 X95.01 Y42.398 Z-7.885 F930
G1 X95.14 Y42.334 Z-7.889 F930
G1 X95.274 Y42.277 Z-7.892 F930
G1 X95.411 Y42.227 Z-7.896 F930
G1 X95.551 Y42.185 Z-7.899 F930
G1 X95.693 Y42.15 Z-7.903 F930
G1 X95.836 Y42.124 Z-7.907 F930
G1 X95.98 Y42.105 Z-7.91 F930
G1 X96.126 Y42.094 Z-7.914 F930
G1 X96.271 Y42.091 Z-7.917 F930
G1 X96.417 Y42.097 Z-7.921 F930
G1 X96.562 Y42.11 Z-7.924 F930
G1 X96.707 Y42.131 Z-7.928 F930
G1 X96.849 Y42.16 Z-7.931 F930
G1 X96.99 Y42.196 Z-7.935 F930
G1 X97.129 Y42.241 Z-7.939 F930
G1 X97.265 Y42.293 Z-7.942 F930
G1 X97.399 Y42.352 Z-7.946 F930
G1 X97.528 Y42.419 Z-7.949 F930
G1 X97.654 Y42.492 Z-7.953 F930
G1 X97.776 Y42.573 Z-7.956 F930
G1 X97.893 Y42.659 Z-7.96 F930
G1 X98.005 Y42.753 Z-7.963 F930
G1 X98.112 Y42.852 Z-7.967 F930
G1 X98.213 Y42.957 Z-7.971 F930
G1 X98.308 Y43.067 Z-7.974 F930
G1 X98.397 Y43.182 Z-7.978 F930
G1 X98.48 Y43.302 Z-7.981 F930
G1 X98.556 Y43.427 Z-7.985 F930
G1 X98.625 Y43.555 Z-7.988 F930
G1 X98.687 Y43.687 Z-7.992 F930
G1 X98.742 Y43.822 Z-7.995 F930
G1 X98.789 Y43.96 Z-7.999 F930
G1 X98.828 Y44.1 Z-8.003 F930
G1 X98.86 Y44.242 Z-8.006 F930
G1 X98.884 Y44.386 Z-8.01 F930
G1 X98.9 Y44.531 Z-8.013 F930
G1 X98.908 Y44.677 Z-8.017 F930
G1 Y44.822 Z-8.02 F930
G1 X98.9 Y44.968 Z-8.024 F930
G1 X98.884 Y45.113 Z-8.027 F930
G1 X98.86 Y45.257 Z-8.031 F930
G1 X98.828 Y45.399 Z-8.035 F930
G1 X98.789 Y45.539 Z-8.038 F930
G1 X98.742 Y45.677 Z-8.042 F930
G1 X98.687 Y45.812 Z-8.045 F930
G1 X98.625 Y45.944 Z-8.049 F930
G1 X98.556 Y46.073 Z-8.052 F930
G1 X98.48 Y46.197 Z-8.056 F930
G1 X98.398 Y46.317 Z-8.059 F930
G1 X98.309 Y46.432 Z-8.063 F930
G1 X98.213 Y46.543 Z-8.067 F930
G1 X98.112 Y46.648 Z-8.07 F930
G1 X98.005 Y46.747 Z-8.074 F930
G1 X97.893 Y46.84 Z-8.077 F930
G1 X97.776 Y46.927 Z-8.081 F930
G1 X97.655 Y47.007 Z-8.084 F930
G1 X97.529 Y47.081 Z-8.088 F930
G1 X97.399 Y47.148 Z-8.091 F930
G1 X97.266 Y47.207 Z-8.095 F930
G1 X97.13 Y47.259 Z-8.099 F930
G1 X96.991 Y47.303 Z-8.102 F930
G1 X96.85 Y47.34 Z-8.106 F930
G1 X96.707 Y47.369 Z-8.109 F930
G1 X96.563 Y47.39 Z-8.113 F930
G1 X96.418 Y47.403 Z-8.116 F930
G1 X96.272 Y47.409 Z-8.12 F930
G1 X96.127 Y47.406 Z-8.123 F930
G1 X95.981 Y47.395 Z-8.127 F930
G1 X95.837 Y47.376 Z-8.131 F930
G1 X95.693 Y47.35 Z-8.134 F930
G1 X95.552 Y47.315 Z-8.138 F930
G1 X95.412 Y47.273 Z-8.141 F930
G1 X95.275 Y47.224 Z-8.145 F930
G1 X95.141 Y47.166 Z-8.148 F930
G1 X95.01 Y47.102 Z-8.152 F930
G1 X94.883 Y47.031 Z-8.155 F930
G1 X94.76 Y46.952 Z-8.159 F930
G1 X94.642 Y46.867 Z-8.163 F930
G1 X94.528 Y46.776 Z-8.166 F930
G1 X94.42 Y46.679 Z-8.17 F930
G1 X94.317 Y46.576 Z-8.173 F930
G1 X94.22 Y46.467 Z-8.177 F930
G1 X94.129 Y46.353 Z-8.18 F930
G1 X94.044 Y46.234 Z-8.184 F930
G1 X93.966 Y46.111 Z-8.187 F930
G1 X93.895 Y45.984 Z-8.191 F930
G1 X93.831 Y45.853 Z-8.195 F930
G1 X93.774 Y45.719 Z-8.198 F930
G1 X93.725 Y45.582 Z-8.202 F930
G1 X93.683 Y45.442 Z-8.205 F930
G1 X93.649 Y45.3 Z-8.209 F930
G1 X93.623 Y45.157 Z-8.212 F930
G1 X93.604 Y45.012 Z-8.216 F930
G1 X93.594 Y44.867 Z-8.219 F930
G1 X93.591 Y44.721 Z-8.223 F930
G1 X93.597 Y44.576 Z-8.227 F930
G1 X93.611 Y44.431 Z-8.23 F930
G1 X93.632 Y44.286 Z-8.234 F930
G1 X93.661 Y44.144 Z-8.237 F930
G1 X93.698 Y44.003 Z-8.241 F930
G1 X93.743 Y43.864 Z-8.244 F930
G1 X93.796 Y43.728 Z-8.248 F930
G1 X93.855 Y43.595 Z-8.251 F930
G1 X93.922 Y43.466 Z-8.255 F930
G1 X93.996 Y43.34 Z-8.259 F930
G1 X94.077 Y43.218 Z-8.262 F930
G1 X94.164 Y43.102 Z-8.266 F930
G1 X94.257 Y42.99 Z-8.269 F930
G1 X94.357 Y42.883 Z-8.273 F930
G1 X94.462 Y42.782 Z-8.276 F930
G1 X94.572 Y42.687 Z-8.28 F930
G1 X94.688 Y42.598 Z-8.283 F930
G1 X94.808 Y42.516 Z-8.287 F930
G1 X94.933 Y42.44 Z-8.291 F930
G1 X95.061 Y42.372 Z-8.294 F930
G1 X95.193 Y42.31 Z-8.298 F930
G1 X95.329 Y42.256 Z-8.301 F930
G1 X95.467 Y42.209 Z-8.305 F930
G1 X95.607 Y42.17 Z-8.308 F930
G1 X95.75 Y42.139 Z-8.312 F930
G1 X95.893 Y42.115 Z-8.315 F930
G1 X96.038 Y42.1 Z-8.319 F930
G1 X96.184 Y42.092 Z-8.323 F930
G1 X96.33 Z-8.326 F930
G1 X96.475 Y42.101 Z-8.33 F930
G1 X96.62 Y42.117 Z-8.333 F930
G1 X96.764 Y42.141 Z-8.337 F930
G1 X96.906 Y42.173 Z-8.34 F930
G1 X97.046 Y42.213 Z-8.344 F930
G1 X97.184 Y42.261 Z-8.347 F930
G1 X97.319 Y42.316 Z-8.351 F930
G1 X97.451 Y42.378 Z-8.355 F930
G1 X97.579 Y42.447 Z-8.358 F930
G1 X97.703 Y42.523 Z-8.362 F930
G1 X97.823 Y42.606 Z-8.365 F930
G1 X97.938 Y42.696 Z-8.369 F930
G1 X98.048 Y42.791 Z-8.372 F930
G1 X98.153 Y42.893 Z-8.376 F930
G1 X98.252 Y43 Z-8.379 F930
G1 X98.344 Y43.112 Z-8.383 F930
G1 X98.431 Y43.229 Z-8.387 F930
G1 X98.511 Y43.351 Z-8.39 F930
G1 X98.584 Y43.477 Z-8.394 F930
G1 X98.651 Y43.607 Z-8.397 F930
G1 X98.71 Y43.74 Z-8.401 F930
G1 X98.761 Y43.877 Z-8.404 F930
G1 X98.805 Y44.016 Z-8.408 F930
G1 X98.842 Y44.157 Z-8.411 F930
G1 X98.87 Y44.3 Z-8.415 F930
G1 X98.891 Y44.444 Z-8.419 F930
G1 X98.904 Y44.589 Z-8.422 F930
G1 X98.909 Y44.735 Z-8.426 F930
G1 X98.906 Y44.881 Z-8.429 F930
G1 X98.894 Y45.026 Z-8.433 F930
G1 X98.875 Y45.17 Z-8.436 F930
G1 X98.848 Y45.314 Z-8.44 F930
G1 X98.814 Y45.455 Z-8.443 F930
G1 X98.771 Y45.595 Z-8.447 F930
G1 X98.721 Y45.731 Z-8.451 F930
G1 X98.663 Y45.865 Z-8.454 F930
G1 X98.599 Y45.996 Z-8.458 F930
G1 X98.527 Y46.123 Z-8.461 F930
G1 X98.448 Y46.245 Z-8.465 F930
G1 X98.363 Y46.364 Z-8.468 F930
G1 X98.271 Y46.477 Z-8.472 F930
G1 X98.174 Y46.585 Z-8.475 F930
G1 X98.07 Y46.688 Z-8.479 F930
G1 X97.961 Y46.785 Z-8.483 F930
G1 X97.847 Y46.875 Z-8.486 F930
G1 X97.728 Y46.96 Z-8.49 F930
G1 X97.605 Y47.038 Z-8.493 F930
G1 X97.478 Y47.108 Z-8.497 F930
G1 X97.347 Y47.172 Z-8.5 F930
G1 X97.212 Y47.229 Z-8.504 F930
G1 X97.075 Y47.278 Z-8.507 F930
G1 X96.935 Y47.319 Z-8.511 F930
G1 X96.793 Y47.353 Z-8.515 F930
G1 X96.65 Y47.378 Z-8.518 F930
G1 X96.505 Y47.396 Z-8.522 F930
G1 X96.36 Y47.406 Z-8.525 F930
G1 X96.214 Y47.409 Z-8.529 F930
G1 X96.069 Y47.403 Z-8.532 F930
G1 X95.924 Y47.389 Z-8.536 F930
G1 X95.779 Y47.367 Z-8.539 F930
G1 X95.637 Y47.337 Z-8.543 F930
G1 X95.496 Y47.3 Z-8.547 F930
G1 X95.357 Y47.254 Z-8.55 F930
G1 X95.221 Y47.202 Z-8.554 F930
G1 X95.089 Y47.142 Z-8.557 F930
G1 X94.959 Y47.074 Z-8.561 F930
G1 X94.834 Y47 Z-8.564 F930
G1 X94.713 Y46.919 Z-8.568 F930
G1 X94.596 Y46.832 Z-8.571 F930
G1 X94.484 Y46.738 Z-8.575 F930
G1 X94.378 Y46.638 Z-8.579 F930
G1 X94.278 Y46.533 Z-8.582 F930
G1 X94.183 Y46.422 Z-8.586 F930
G1 X94.094 Y46.306 Z-8.589 F930
G1 X94.012 Y46.186 Z-8.593 F930
G1 X93.937 Y46.061 Z-8.596 F930
G1 X93.869 Y45.932 Z-8.6 F930
G1 X93.807 Y45.8 Z-8.603 F930
G1 X93.753 Y45.665 Z-8.607 F930
G1 X93.707 Y45.526 Z-8.611 F930
G1 X93.668 Y45.386 Z-8.614 F930
G1 X93.637 Y45.243 Z-8.618 F930
G1 X93.614 Y45.1 Z-8.621 F930
G1 X93.599 Y44.955 Z-8.625 F930
G1 X93.592 Y44.809 Z-8.628 F930
G1 X93.593 Y44.663 Z-8.632 F930
G1 X93.601 Y44.518 Z-8.635 F930
G1 X93.618 Y44.373 Z-8.639 F930
G1 X93.643 Y44.229 Z-8.643 F930
G1 X93.675 Y44.087 Z-8.646 F930
G1 X93.715 Y43.947 Z-8.65 F930
G1 X93.763 Y43.809 Z-8.653 F930
G1 X93.818 Y43.675 Z-8.657 F930
G1 X93.881 Y43.543 Z-8.66 F930
G1 X93.951 Y43.415 Z-8.664 F930
G1 X94.027 Y43.291 Z-8.667 F930
G1 X94.111 Y43.171 Z-8.671 F930
G1 X94.2 Y43.056 Z-8.675 F930
G1 X94.296 Y42.947 Z-8.678 F930
G1 X94.398 Y42.842 Z-8.682 F930
G1 X94.505 Y42.744 Z-8.685 F930
G1 X94.618 Y42.651 Z-8.689 F930
G1 X94.735 Y42.565 Z-8.692 F930
G1 X94.857 Y42.485 Z-8.696 F930
G1 X94.984 Y42.412 Z-8.699 F930
G1 X95.114 Y42.346 Z-8.703 F930
G1 X95.247 Y42.288 Z-8.707 F930
G1 X95.383 Y42.236 Z-8.71 F930
G1 X95.523 Y42.193 Z-8.714 F930
G1 X95.664 Y42.157 Z-8.717 F930
G1 X95.807 Y42.128 Z-8.721 F930
G1 X95.951 Y42.108 Z-8.724 F930
G1 X96.096 Y42.096 Z-8.728 F930
G1 X96.242 Y42.091 Z-8.731 F930
G1 X96.388 Y42.095 Z-8.735 F930
G1 X96.533 Y42.106 Z-8.739 F930
G1 X96.677 Y42.126 Z-8.742 F930
G1 X96.821 Y42.153 Z-8.746 F930
G1 X96.962 Y42.188 Z-8.749 F930
G1 X97.101 Y42.231 Z-8.753 F930
G1 X97.238 Y42.282 Z-8.756 F930
G1 X97.372 Y42.34 Z-8.76 F930
G1 X97.502 Y42.405 Z-8.763 F930
G1 X97.629 Y42.477 Z-8.767 F930
G1 X97.751 Y42.556 Z-8.771 F930
G1 X97.869 Y42.641 Z-8.774 F930
G1 X97.982 Y42.733 Z-8.778 F930
G1 X98.09 Y42.831 Z-8.781 F930
G1 X98.193 Y42.935 Z-8.785 F930
G1 X98.289 Y43.044 Z-8.788 F930
G1 X98.38 Y43.158 Z-8.792 F930
G1 X98.464 Y43.278 Z-8.795 F930
G1 X98.541 Y43.401 Z-8.799 F930
G1 X98.612 Y43.529 Z-8.803 F930
G1 X98.675 Y43.66 Z-8.806 F930
G1 X98.731 Y43.794 Z-8.81 F930
G1 X98.78 Y43.932 Z-8.813 F930
G1 X98.821 Y44.072 Z-8.817 F930
G1 X98.854 Y44.214 Z-8.82 F930
G1 X98.88 Y44.357 Z-8.824 F930
G1 X98.897 Y44.502 Z-8.827 F930
G1 X98.907 Y44.647 Z-8.831 F930
G1 X98.908 Y44.793 Z-8.835 F930
G1 X98.902 Y44.939 Z-8.838 F930
G1 X98.888 Y45.084 Z-8.842 F930
G1 X98.865 Y45.228 Z-8.845 F930
G1 X98.835 Y45.37 Z-8.849 F930
G1 X98.798 Y45.511 Z-8.852 F930
G1 X98.752 Y45.649 Z-8.856 F930
G1 X98.699 Y45.785 Z-8.859 F930
G1 X98.639 Y45.918 Z-8.863 F930
G1 X98.571 Y46.047 Z-8.867 F930
G1 X98.496 Y46.172 Z-8.87 F930
G1 X98.415 Y46.293 Z-8.874 F930
G1 X98.327 Y46.41 Z-8.877 F930
G1 X98.233 Y46.521 Z-8.881 F930
G1 X98.133 Y46.627 Z-8.884 F930
G1 X98.027 Y46.727 Z-8.888 F930
G1 X97.916 Y46.822 Z-8.891 F930
G1 X97.8 Y46.91 Z-8.895 F930
G1 X97.68 Y46.992 Z-8.899 F930
G1 X97.555 Y47.067 Z-8.902 F930
G1 X97.426 Y47.135 Z-8.906 F930
G1 X97.293 Y47.195 Z-8.909 F930
G1 X97.158 Y47.249 Z-8.913 F930
G1 X97.02 Y47.295 Z-8.916 F930
G1 X96.879 Y47.333 Z-8.92 F930
G1 X96.736 Y47.364 Z-8.923 F930
G1 X96.592 Y47.387 Z-8.927 F930
G1 X96.447 Y47.401 Z-8.931 F930
G1 X96.302 Y47.408 Z-8.934 F930
G1 X96.156 Y47.407 Z-8.938 F930
G1 X96.011 Y47.398 Z-8.941 F930
G1 X95.866 Y47.381 Z-8.945 F930
G1 X95.722 Y47.356 Z-8.948 F930
G1 X95.58 Y47.323 Z-8.952 F930
G1 X95.44 Y47.282 Z-8.955 F930
G1 X95.303 Y47.234 Z-8.959 F930
G1 X95.168 Y47.179 Z-8.963 F930
G1 X95.037 Y47.116 Z-8.966 F930
G1 X94.909 Y47.046 Z-8.97 F930
G1 X94.785 Y46.969 Z-8.973 F930
G1 X94.666 Y46.885 Z-8.977 F930
G1 X94.551 Y46.795 Z-8.98 F930
G1 X94.441 Y46.699 Z-8.984 F930
