;Fusion CAM 2.0.20494
; Posts processor: MPCNC.cps
; Gcode generated: Monday, October 28, 2024 11:38:49 PM GMT
; Document: test v22
; Setup: Front Contour
;When using Fusion for Personal Use, the feedrate of rapid
;moves is reduced to match the feedrate of cutting moves,
;which can increase machining time. Unrestricted rapid moves
;are available with a Fusion Subscription.
; 
; Ranges Table:
;   X: Min=6.675 Max=144.73 Size=138.055
;   Y: Min=6.675 Max=142.825 Size=136.15
;   Z: Min=-12.5 Max=10 Size=22.5
; 
; Tools Table:
;  T5 D=6.35 CR=0 - ZMIN=-12.5 - flat end mill 
; 
; Feedrate and Scaling Properties:
;   Feed: Travel speed X/Y = 2500
;   Feed: Travel Speed Z = 300
;   Feed: Enforce Feedrate = true
;   Feed: Scale Feedrate = false
;   Feed: Max XY Cut Speed = 930
;   Feed: Max Z Cut Speed = 270
;   Feed: Max Toolpath Speed = 930
; 
; G1->G0 Mapping Properties:
;   Map: First G1 -> G0 Rapid = false
;   Map: G1s -> G0 Rapids = false
;   Map: SafeZ Mode = Retract : default = 15
;   Map: Allow Rapid Z = false
; 
; *** START begin ***
;   Set Absolute Positioning
;   Units = mm
;   Disable stepper timeout
G90
G21
M84 S0
; *** START end ***
; 
; *** SECTION begin ***
;   X Min: 6.675 - X Max: 144.73
;   Y Min: 6.675 - Y Max: 142.825
;   Z Min: -12.5 - Z Max: 10
; 2D Contour2 - Milling - Tool: 5 -  flat end mill
; COMMAND_START_SPINDLE
; COMMAND_SPINDLE_CLOCKWISE
; >>> Spindle Speed: Manual
M0 Turn ON 10000RPM
; COMMAND_COOLANT_ON
M117  2D Contour2
; MOVEMENT_CUTTING
G1 X144.73 Y75.385 Z10 F930
G1 Z5 F930
; MOVEMENT_PLUNGE
G1 Z1 F254
G1 Z-0.365 F254
; MOVEMENT_LEAD_IN
G1 X144.726 Z-0.436 F930
G1 X144.714 Z-0.506 F930
G1 X144.694 Z-0.575 F930
G1 X144.667 Z-0.641 F930
G1 X144.633 Z-0.703 F930
G1 X144.591 Z-0.761 F930
G1 X144.544 Z-0.814 F930
G1 X144.491 Z-0.861 F930
G1 X144.433 Z-0.903 F930
G1 X144.371 Z-0.937 F930
G1 X144.305 Z-0.964 F930
G1 X144.236 Z-0.984 F930
G1 X144.166 Z-0.996 F930
G1 X144.095 Z-1 F930
G1 X143.46 F930
G3 X142.825 Y74.75 J-0.635 F930
; MOVEMENT_CUTTING
G1 Y23.828 F930
G2 X140.972 Y19.356 I-6.325 J0.001 F930
G1 X130.144 Y8.528 F930
G2 X125.672 Y6.675 I-4.473 J4.472 F930
G1 X23.828 F930
G2 X19.356 Y8.528 J6.325 F930
G1 X8.528 Y19.356 F930
G2 X6.675 Y23.828 I4.472 J4.472 F930
G1 Y125.672 F930
G2 X8.528 Y130.144 I6.325 J-0.001 F930
G1 X19.356 Y140.972 F930
G2 X23.828 Y142.825 I4.473 J-4.473 F930
G1 X125.673 F930
G2 X130.144 Y140.972 I-0.001 J-6.325 F930
G1 X140.972 Y130.144 F930
G2 X142.825 Y125.672 I-4.473 J-4.473 F930
G1 Y74.75 F930
; MOVEMENT_LINK_TRANSITION
G2 X142.35 Y74.037 I-0.772 F930
G3 X141.875 Y73.325 I0.297 J-0.713 F930
; MOVEMENT_CUTTING
G1 Y23.828 F930
G2 X140.3 Y20.028 I-5.375 F930
G1 X129.473 Y9.199 F930
G2 X125.672 Y7.625 I-3.801 J3.801 F930
G1 X23.828 F930
G2 X20.028 Y9.199 J5.375 F930
G1 X9.199 Y20.028 F930
G2 X7.625 Y23.828 I3.801 J3.801 F930
G1 Y125.672 F930
G2 X9.199 Y129.473 I5.375 F930
G1 X20.028 Y140.3 F930
G2 X23.828 Y141.875 I3.801 J-3.8 F930
G1 X125.672 F930
G2 X129.473 Y140.3 J-5.375 F930
G1 X140.3 Y129.473 F930
G2 X141.875 Y125.673 I-3.8 J-3.801 F930
G1 Y73.325 F930
; MOVEMENT_LINK_TRANSITION
G2 X141.775 Y73.175 I-0.163 F930
G3 X141.675 Y73.025 I0.063 J-0.15 F930
; MOVEMENT_FINISH_CUTTING
G1 Y23.828 F930
G2 X140.159 Y20.169 I-5.175 F930
G1 X129.331 Y9.341 F930
G2 X125.672 Y7.825 I-3.659 J3.659 F930
G1 X23.828 F930
G2 X20.169 Y9.341 J5.175 F930
G1 X9.341 Y20.169 F930
G2 X7.825 Y23.828 I3.659 J3.659 F930
G1 Y125.672 F930
G2 X9.341 Y129.331 I5.175 F930
G1 X20.169 Y140.159 F930
G2 X23.828 Y141.675 I3.66 J-3.659 F930
G1 X125.672 F930
G2 X129.331 Y140.159 J-5.175 F930
G1 X140.159 Y129.331 F930
G2 X141.675 Y125.673 I-3.659 J-3.66 F930
G1 Y73.025 F930
; MOVEMENT_LEAD_OUT
G3 X142.31 Y72.39 I0.635 F930
G1 X142.945 F930
G1 X143.016 Z-0.996 F930
G1 X143.086 Z-0.984 F930
G1 X143.155 Z-0.964 F930
G1 X143.221 Z-0.937 F930
G1 X143.283 Z-0.903 F930
G1 X143.341 Z-0.861 F930
G1 X143.394 Z-0.814 F930
G1 X143.441 Z-0.761 F930
G1 X143.483 Z-0.703 F930
G1 X143.517 Z-0.641 F930
G1 X143.544 Z-0.575 F930
G1 X143.564 Z-0.506 F930
G1 X143.576 Z-0.436 F930
G1 X143.58 Z-0.365 F930
; MOVEMENT_CUTTING
G1 Z5 F930
G1 X144.73 Y75.385 F930
; MOVEMENT_PLUNGE
G1 Z0 F254
G1 Z-1.365 F254
; MOVEMENT_LEAD_IN
G1 X144.726 Z-1.436 F930
G1 X144.714 Z-1.506 F930
G1 X144.694 Z-1.575 F930
G1 X144.667 Z-1.641 F930
G1 X144.633 Z-1.703 F930
G1 X144.591 Z-1.761 F930
G1 X144.544 Z-1.814 F930
G1 X144.491 Z-1.861 F930
G1 X144.433 Z-1.903 F930
G1 X144.371 Z-1.937 F930
G1 X144.305 Z-1.964 F930
G1 X144.236 Z-1.984 F930
G1 X144.166 Z-1.996 F930
G1 X144.095 Z-2 F930
G1 X143.46 F930
G3 X142.825 Y74.75 J-0.635 F930
; MOVEMENT_CUTTING
G1 Y23.828 F930
G2 X140.972 Y19.356 I-6.325 J0.001 F930
G1 X130.144 Y8.528 F930
G2 X125.672 Y6.675 I-4.473 J4.472 F930
G1 X23.828 F930
G2 X19.356 Y8.528 J6.325 F930
G1 X8.528 Y19.356 F930
G2 X6.675 Y23.828 I4.472 J4.472 F930
G1 Y125.672 F930
G2 X8.528 Y130.144 I6.325 J-0.001 F930
G1 X19.356 Y140.972 F930
G2 X23.828 Y142.825 I4.473 J-4.473 F930
G1 X125.673 F930
G2 X130.144 Y140.972 I-0.001 J-6.325 F930
G1 X140.972 Y130.144 F930
G2 X142.825 Y125.672 I-4.473 J-4.473 F930
G1 Y74.75 F930
; MOVEMENT_LINK_TRANSITION
G2 X142.35 Y74.037 I-0.772 F930
G3 X141.875 Y73.325 I0.297 J-0.713 F930
; MOVEMENT_CUTTING
G1 Y23.828 F930
G2 X140.3 Y20.028 I-5.375 F930
G1 X129.473 Y9.199 F930
G2 X125.672 Y7.625 I-3.801 J3.801 F930
G1 X23.828 F930
G2 X20.028 Y9.199 J5.375 F930
G1 X9.199 Y20.028 F930
G2 X7.625 Y23.828 I3.801 J3.801 F930
G1 Y125.672 F930
G2 X9.199 Y129.473 I5.375 F930
G1 X20.028 Y140.3 F930
G2 X23.828 Y141.875 I3.801 J-3.8 F930
G1 X125.672 F930
G2 X129.473 Y140.3 J-5.375 F930
G1 X140.3 Y129.473 F930
G2 X141.875 Y125.673 I-3.8 J-3.801 F930
G1 Y73.325 F930
; MOVEMENT_LINK_TRANSITION
G2 X141.775 Y73.175 I-0.163 F930
G3 X141.675 Y73.025 I0.063 J-0.15 F930
; MOVEMENT_FINISH_CUTTING
G1 Y23.828 F930
G2 X140.159 Y20.169 I-5.175 F930
G1 X129.331 Y9.341 F930
G2 X125.672 Y7.825 I-3.659 J3.659 F930
G1 X23.828 F930
G2 X20.169 Y9.341 J5.175 F930
G1 X9.341 Y20.169 F930
G2 X7.825 Y23.828 I3.659 J3.659 F930
G1 Y125.672 F930
G2 X9.341 Y129.331 I5.175 F930
G1 X20.169 Y140.159 F930
G2 X23.828 Y141.675 I3.66 J-3.659 F930
G1 X125.672 F930
G2 X129.331 Y140.159 J-5.175 F930
G1 X140.159 Y129.331 F930
G2 X141.675 Y125.673 I-3.659 J-3.66 F930
G1 Y73.025 F930
; MOVEMENT_LEAD_OUT
G3 X142.31 Y72.39 I0.635 F930
G1 X142.945 F930
G1 X143.016 Z-1.996 F930
G1 X143.086 Z-1.984 F930
G1 X143.155 Z-1.964 F930
G1 X143.221 Z-1.937 F930
G1 X143.283 Z-1.903 F930
G1 X143.341 Z-1.861 F930
G1 X143.394 Z-1.814 F930
G1 X143.441 Z-1.761 F930
G1 X143.483 Z-1.703 F930
G1 X143.517 Z-1.641 F930
G1 X143.544 Z-1.575 F930
G1 X143.564 Z-1.506 F930
G1 X143.576 Z-1.436 F930
G1 X143.58 Z-1.365 F930
; MOVEMENT_CUTTING
G1 Z5 F930
G1 X144.73 Y75.385 F930
; MOVEMENT_PLUNGE
G1 Z-1 F254
G1 Z-2.365 F254
; MOVEMENT_LEAD_IN
G1 X144.726 Z-2.436 F930
G1 X144.714 Z-2.506 F930
G1 X144.694 Z-2.575 F930
G1 X144.667 Z-2.641 F930
G1 X144.633 Z-2.703 F930
G1 X144.591 Z-2.761 F930
G1 X144.544 Z-2.814 F930
G1 X144.491 Z-2.861 F930
G1 X144.433 Z-2.903 F930
G1 X144.371 Z-2.937 F930
G1 X144.305 Z-2.964 F930
G1 X144.236 Z-2.984 F930
G1 X144.166 Z-2.996 F930
G1 X144.095 Z-3 F930
G1 X143.46 F930
G3 X142.825 Y74.75 J-0.635 F930
; MOVEMENT_CUTTING
G1 Y23.828 F930
G2 X140.972 Y19.356 I-6.325 J0.001 F930
G1 X130.144 Y8.528 F930
G2 X125.672 Y6.675 I-4.473 J4.472 F930
G1 X23.828 F930
G2 X19.356 Y8.528 J6.325 F930
G1 X8.528 Y19.356 F930
G2 X6.675 Y23.828 I4.472 J4.472 F930
G1 Y125.672 F930
G2 X8.528 Y130.144 I6.325 J-0.001 F930
G1 X19.356 Y140.972 F930
G2 X23.828 Y142.825 I4.473 J-4.473 F930
G1 X125.673 F930
G2 X130.144 Y140.972 I-0.001 J-6.325 F930
G1 X140.972 Y130.144 F930
G2 X142.825 Y125.672 I-4.473 J-4.473 F930
G1 Y74.75 F930
; MOVEMENT_LINK_TRANSITION
G2 X142.35 Y74.037 I-0.772 F930
G3 X141.875 Y73.325 I0.297 J-0.713 F930
; MOVEMENT_CUTTING
G1 Y23.828 F930
G2 X140.3 Y20.028 I-5.375 F930
G1 X129.473 Y9.199 F930
G2 X125.672 Y7.625 I-3.801 J3.801 F930
G1 X23.828 F930
G2 X20.028 Y9.199 J5.375 F930
G1 X9.199 Y20.028 F930
G2 X7.625 Y23.828 I3.801 J3.801 F930
G1 Y125.672 F930
G2 X9.199 Y129.473 I5.375 F930
G1 X20.028 Y140.3 F930
G2 X23.828 Y141.875 I3.801 J-3.8 F930
G1 X125.672 F930
G2 X129.473 Y140.3 J-5.375 F930
G1 X140.3 Y129.473 F930
G2 X141.875 Y125.673 I-3.8 J-3.801 F930
G1 Y73.325 F930
; MOVEMENT_LINK_TRANSITION
G2 X141.775 Y73.175 I-0.163 F930
G3 X141.675 Y73.025 I0.063 J-0.15 F930
; MOVEMENT_FINISH_CUTTING
G1 Y23.828 F930
G2 X140.159 Y20.169 I-5.175 F930
G1 X129.331 Y9.341 F930
G2 X125.672 Y7.825 I-3.659 J3.659 F930
G1 X23.828 F930
G2 X20.169 Y9.341 J5.175 F930
G1 X9.341 Y20.169 F930
G2 X7.825 Y23.828 I3.659 J3.659 F930
G1 Y125.672 F930
G2 X9.341 Y129.331 I5.175 F930
G1 X20.169 Y140.159 F930
G2 X23.828 Y141.675 I3.66 J-3.659 F930
G1 X125.672 F930
G2 X129.331 Y140.159 J-5.175 F930
G1 X140.159 Y129.331 F930
G2 X141.675 Y125.673 I-3.659 J-3.66 F930
G1 Y73.025 F930
; MOVEMENT_LEAD_OUT
G3 X142.31 Y72.39 I0.635 F930
G1 X142.945 F930
G1 X143.016 Z-2.996 F930
G1 X143.086 Z-2.984 F930
G1 X143.155 Z-2.964 F930
G1 X143.221 Z-2.937 F930
G1 X143.283 Z-2.903 F930
G1 X143.341 Z-2.861 F930
G1 X143.394 Z-2.814 F930
G1 X143.441 Z-2.761 F930
G1 X143.483 Z-2.703 F930
G1 X143.517 Z-2.641 F930
G1 X143.544 Z-2.575 F930
G1 X143.564 Z-2.506 F930
G1 X143.576 Z-2.436 F930
G1 X143.58 Z-2.365 F930
; MOVEMENT_CUTTING
G1 Z5 F930
G1 X144.73 Y75.385 F930
; MOVEMENT_PLUNGE
G1 Z-2 F254
G1 Z-3.365 F254
; MOVEMENT_LEAD_IN
G1 X144.726 Z-3.436 F930
G1 X144.714 Z-3.506 F930
G1 X144.694 Z-3.575 F930
G1 X144.667 Z-3.641 F930
G1 X144.633 Z-3.703 F930
G1 X144.591 Z-3.761 F930
G1 X144.544 Z-3.814 F930
G1 X144.491 Z-3.861 F930
G1 X144.433 Z-3.903 F930
G1 X144.371 Z-3.937 F930
G1 X144.305 Z-3.964 F930
G1 X144.236 Z-3.984 F930
G1 X144.166 Z-3.996 F930
G1 X144.095 Z-4 F930
G1 X143.46 F930
G3 X142.825 Y74.75 J-0.635 F930
; MOVEMENT_CUTTING
G1 Y23.828 F930
G2 X140.972 Y19.356 I-6.325 J0.001 F930
G1 X130.144 Y8.528 F930
G2 X125.672 Y6.675 I-4.473 J4.472 F930
G1 X23.828 F930
G2 X19.356 Y8.528 J6.325 F930
G1 X8.528 Y19.356 F930
G2 X6.675 Y23.828 I4.472 J4.472 F930
G1 Y125.672 F930
G2 X8.528 Y130.144 I6.325 J-0.001 F930
G1 X19.356 Y140.972 F930
G2 X23.828 Y142.825 I4.473 J-4.473 F930
G1 X125.673 F930
G2 X130.144 Y140.972 I-0.001 J-6.325 F930
G1 X140.972 Y130.144 F930
G2 X142.825 Y125.672 I-4.473 J-4.473 F930
G1 Y74.75 F930
; MOVEMENT_LINK_TRANSITION
G2 X142.35 Y74.037 I-0.772 F930
G3 X141.875 Y73.325 I0.297 J-0.713 F930
; MOVEMENT_CUTTING
G1 Y23.828 F930
G2 X140.3 Y20.028 I-5.375 F930
G1 X129.473 Y9.199 F930
G2 X125.672 Y7.625 I-3.801 J3.801 F930
G1 X23.828 F930
G2 X20.028 Y9.199 J5.375 F930
G1 X9.199 Y20.028 F930
G2 X7.625 Y23.828 I3.801 J3.801 F930
G1 Y125.672 F930
G2 X9.199 Y129.473 I5.375 F930
G1 X20.028 Y140.3 F930
G2 X23.828 Y141.875 I3.801 J-3.8 F930
G1 X125.672 F930
G2 X129.473 Y140.3 J-5.375 F930
G1 X140.3 Y129.473 F930
G2 X141.875 Y125.673 I-3.8 J-3.801 F930
G1 Y73.325 F930
; MOVEMENT_LINK_TRANSITION
G2 X141.775 Y73.175 I-0.163 F930
G3 X141.675 Y73.025 I0.063 J-0.15 F930
; MOVEMENT_FINISH_CUTTING
G1 Y23.828 F930
G2 X140.159 Y20.169 I-5.175 F930
G1 X129.331 Y9.341 F930
G2 X125.672 Y7.825 I-3.659 J3.659 F930
G1 X23.828 F930
G2 X20.169 Y9.341 J5.175 F930
G1 X9.341 Y20.169 F930
G2 X7.825 Y23.828 I3.659 J3.659 F930
G1 Y125.672 F930
G2 X9.341 Y129.331 I5.175 F930
G1 X20.169 Y140.159 F930
G2 X23.828 Y141.675 I3.66 J-3.659 F930
G1 X125.672 F930
G2 X129.331 Y140.159 J-5.175 F930
G1 X140.159 Y129.331 F930
G2 X141.675 Y125.673 I-3.659 J-3.66 F930
G1 Y73.025 F930
; MOVEMENT_LEAD_OUT
G3 X142.31 Y72.39 I0.635 F930
G1 X142.945 F930
G1 X143.016 Z-3.996 F930
G1 X143.086 Z-3.984 F930
G1 X143.155 Z-3.964 F930
G1 X143.221 Z-3.937 F930
G1 X143.283 Z-3.903 F930
G1 X143.341 Z-3.861 F930
G1 X143.394 Z-3.814 F930
G1 X143.441 Z-3.761 F930
G1 X143.483 Z-3.703 F930
G1 X143.517 Z-3.641 F930
G1 X143.544 Z-3.575 F930
G1 X143.564 Z-3.506 F930
G1 X143.576 Z-3.436 F930
G1 X143.58 Z-3.365 F930
; MOVEMENT_CUTTING
G1 Z5 F930
G1 X144.73 Y75.385 F930
; MOVEMENT_PLUNGE
G1 Z-3 F254
G1 Z-4.365 F254
; MOVEMENT_LEAD_IN
G1 X144.726 Z-4.436 F930
G1 X144.714 Z-4.506 F930
G1 X144.694 Z-4.575 F930
G1 X144.667 Z-4.641 F930
G1 X144.633 Z-4.703 F930
G1 X144.591 Z-4.761 F930
G1 X144.544 Z-4.814 F930
G1 X144.491 Z-4.861 F930
G1 X144.433 Z-4.903 F930
G1 X144.371 Z-4.937 F930
G1 X144.305 Z-4.964 F930
G1 X144.236 Z-4.984 F930
G1 X144.166 Z-4.996 F930
G1 X144.095 Z-5 F930
G1 X143.46 F930
G3 X142.825 Y74.75 J-0.635 F930
; MOVEMENT_CUTTING
G1 Y23.828 F930
G2 X140.972 Y19.356 I-6.325 J0.001 F930
G1 X130.144 Y8.528 F930
G2 X125.672 Y6.675 I-4.473 J4.472 F930
G1 X23.828 F930
G2 X19.356 Y8.528 J6.325 F930
G1 X8.528 Y19.356 F930
G2 X6.675 Y23.828 I4.472 J4.472 F930
G1 Y125.672 F930
G2 X8.528 Y130.144 I6.325 J-0.001 F930
G1 X19.356 Y140.972 F930
G2 X23.828 Y142.825 I4.473 J-4.473 F930
G1 X125.673 F930
G2 X130.144 Y140.972 I-0.001 J-6.325 F930
G1 X140.972 Y130.144 F930
G2 X142.825 Y125.672 I-4.473 J-4.473 F930
G1 Y74.75 F930
; MOVEMENT_LINK_TRANSITION
G2 X142.35 Y74.037 I-0.772 F930
G3 X141.875 Y73.325 I0.297 J-0.713 F930
; MOVEMENT_CUTTING
G1 Y23.828 F930
G2 X140.3 Y20.028 I-5.375 F930
G1 X129.473 Y9.199 F930
G2 X125.672 Y7.625 I-3.801 J3.801 F930
G1 X23.828 F930
G2 X20.028 Y9.199 J5.375 F930
G1 X9.199 Y20.028 F930
G2 X7.625 Y23.828 I3.801 J3.801 F930
G1 Y125.672 F930
G2 X9.199 Y129.473 I5.375 F930
G1 X20.028 Y140.3 F930
G2 X23.828 Y141.875 I3.801 J-3.8 F930
G1 X125.672 F930
G2 X129.473 Y140.3 J-5.375 F930
G1 X140.3 Y129.473 F930
G2 X141.875 Y125.673 I-3.8 J-3.801 F930
G1 Y73.325 F930
; MOVEMENT_LINK_TRANSITION
G2 X141.775 Y73.175 I-0.163 F930
G3 X141.675 Y73.025 I0.063 J-0.15 F930
; MOVEMENT_FINISH_CUTTING
G1 Y23.828 F930
G2 X140.159 Y20.169 I-5.175 F930
G1 X129.331 Y9.341 F930
G2 X125.672 Y7.825 I-3.659 J3.659 F930
G1 X23.828 F930
G2 X20.169 Y9.341 J5.175 F930
G1 X9.341 Y20.169 F930
G2 X7.825 Y23.828 I3.659 J3.659 F930
G1 Y125.672 F930
G2 X9.341 Y129.331 I5.175 F930
G1 X20.169 Y140.159 F930
G2 X23.828 Y141.675 I3.66 J-3.659 F930
G1 X125.672 F930
G2 X129.331 Y140.159 J-5.175 F930
G1 X140.159 Y129.331 F930
G2 X141.675 Y125.673 I-3.659 J-3.66 F930
G1 Y73.025 F930
; MOVEMENT_LEAD_OUT
G3 X142.31 Y72.39 I0.635 F930
G1 X142.945 F930
G1 X143.016 Z-4.996 F930
G1 X143.086 Z-4.984 F930
G1 X143.155 Z-4.964 F930
G1 X143.221 Z-4.937 F930
G1 X143.283 Z-4.903 F930
G1 X143.341 Z-4.861 F930
G1 X143.394 Z-4.814 F930
G1 X143.441 Z-4.761 F930
G1 X143.483 Z-4.703 F930
G1 X143.517 Z-4.641 F930
G1 X143.544 Z-4.575 F930
G1 X143.564 Z-4.506 F930
G1 X143.576 Z-4.436 F930
G1 X143.58 Z-4.365 F930
; MOVEMENT_CUTTING
G1 Z5 F930
G1 X144.73 Y75.385 F930
; MOVEMENT_PLUNGE
G1 Z-4 F254
G1 Z-5.365 F254
; MOVEMENT_LEAD_IN
G1 X144.726 Z-5.436 F930
G1 X144.714 Z-5.506 F930
G1 X144.694 Z-5.575 F930
G1 X144.667 Z-5.641 F930
G1 X144.633 Z-5.703 F930
G1 X144.591 Z-5.761 F930
G1 X144.544 Z-5.814 F930
G1 X144.491 Z-5.861 F930
G1 X144.433 Z-5.903 F930
G1 X144.371 Z-5.937 F930
G1 X144.305 Z-5.964 F930
G1 X144.236 Z-5.984 F930
G1 X144.166 Z-5.996 F930
G1 X144.095 Z-6 F930
G1 X143.46 F930
G3 X142.825 Y74.75 J-0.635 F930
; MOVEMENT_CUTTING
G1 Y23.828 F930
G2 X140.972 Y19.356 I-6.325 J0.001 F930
G1 X130.144 Y8.528 F930
G2 X125.672 Y6.675 I-4.473 J4.472 F930
G1 X23.828 F930
G2 X19.356 Y8.528 J6.325 F930
G1 X8.528 Y19.356 F930
G2 X6.675 Y23.828 I4.472 J4.472 F930
G1 Y125.672 F930
G2 X8.528 Y130.144 I6.325 J-0.001 F930
G1 X19.356 Y140.972 F930
G2 X23.828 Y142.825 I4.473 J-4.473 F930
G1 X125.673 F930
G2 X130.144 Y140.972 I-0.001 J-6.325 F930
G1 X140.972 Y130.144 F930
G2 X142.825 Y125.672 I-4.473 J-4.473 F930
G1 Y74.75 F930
; MOVEMENT_LINK_TRANSITION
G2 X142.35 Y74.037 I-0.772 F930
G3 X141.875 Y73.325 I0.297 J-0.713 F930
; MOVEMENT_CUTTING
G1 Y23.828 F930
G2 X140.3 Y20.028 I-5.375 F930
G1 X129.473 Y9.199 F930
G2 X125.672 Y7.625 I-3.801 J3.801 F930
G1 X23.828 F930
G2 X20.028 Y9.199 J5.375 F930
G1 X9.199 Y20.028 F930
G2 X7.625 Y23.828 I3.801 J3.801 F930
G1 Y125.672 F930
G2 X9.199 Y129.473 I5.375 F930
G1 X20.028 Y140.3 F930
G2 X23.828 Y141.875 I3.801 J-3.8 F930
G1 X125.672 F930
G2 X129.473 Y140.3 J-5.375 F930
G1 X140.3 Y129.473 F930
G2 X141.875 Y125.673 I-3.8 J-3.801 F930
G1 Y73.325 F930
; MOVEMENT_LINK_TRANSITION
G2 X141.775 Y73.175 I-0.163 F930
G3 X141.675 Y73.025 I0.063 J-0.15 F930
; MOVEMENT_FINISH_CUTTING
G1 Y23.828 F930
G2 X140.159 Y20.169 I-5.175 F930
G1 X129.331 Y9.341 F930
G2 X125.672 Y7.825 I-3.659 J3.659 F930
G1 X23.828 F930
G2 X20.169 Y9.341 J5.175 F930
G1 X9.341 Y20.169 F930
G2 X7.825 Y23.828 I3.659 J3.659 F930
G1 Y125.672 F930
G2 X9.341 Y129.331 I5.175 F930
G1 X20.169 Y140.159 F930
G2 X23.828 Y141.675 I3.66 J-3.659 F930
G1 X125.672 F930
G2 X129.331 Y140.159 J-5.175 F930
G1 X140.159 Y129.331 F930
G2 X141.675 Y125.673 I-3.659 J-3.66 F930
G1 Y73.025 F930
; MOVEMENT_LEAD_OUT
G3 X142.31 Y72.39 I0.635 F930
G1 X142.945 F930
G1 X143.016 Z-5.996 F930
G1 X143.086 Z-5.984 F930
G1 X143.155 Z-5.964 F930
G1 X143.221 Z-5.937 F930
G1 X143.283 Z-5.903 F930
G1 X143.341 Z-5.861 F930
G1 X143.394 Z-5.814 F930
G1 X143.441 Z-5.761 F930
G1 X143.483 Z-5.703 F930
G1 X143.517 Z-5.641 F930
G1 X143.544 Z-5.575 F930
G1 X143.564 Z-5.506 F930
G1 X143.576 Z-5.436 F930
G1 X143.58 Z-5.365 F930
; MOVEMENT_CUTTING
G1 Z5 F930
G1 X144.73 Y75.385 F930
; MOVEMENT_PLUNGE
G1 Z-5 F254
G1 Z-6.365 F254
; MOVEMENT_LEAD_IN
G1 X144.726 Z-6.436 F930
G1 X144.714 Z-6.506 F930
G1 X144.694 Z-6.575 F930
G1 X144.667 Z-6.641 F930
G1 X144.633 Z-6.703 F930
G1 X144.591 Z-6.761 F930
G1 X144.544 Z-6.814 F930
G1 X144.491 Z-6.861 F930
G1 X144.433 Z-6.903 F930
G1 X144.371 Z-6.937 F930
G1 X144.305 Z-6.964 F930
G1 X144.236 Z-6.984 F930
G1 X144.166 Z-6.996 F930
G1 X144.095 Z-7 F930
G1 X143.46 F930
G3 X142.825 Y74.75 J-0.635 F930
; MOVEMENT_CUTTING
G1 Y23.828 F930
G2 X140.972 Y19.356 I-6.325 J0.001 F930
G1 X130.144 Y8.528 F930
G2 X125.672 Y6.675 I-4.473 J4.472 F930
G1 X23.828 F930
G2 X19.356 Y8.528 J6.325 F930
G1 X8.528 Y19.356 F930
G2 X6.675 Y23.828 I4.472 J4.472 F930
G1 Y125.672 F930
G2 X8.528 Y130.144 I6.325 J-0.001 F930
G1 X19.356 Y140.972 F930
G2 X23.828 Y142.825 I4.473 J-4.473 F930
G1 X125.673 F930
G2 X130.144 Y140.972 I-0.001 J-6.325 F930
G1 X140.972 Y130.144 F930
G2 X142.825 Y125.672 I-4.473 J-4.473 F930
G1 Y74.75 F930
; MOVEMENT_LINK_TRANSITION
G2 X142.35 Y74.037 I-0.772 F930
G3 X141.875 Y73.325 I0.297 J-0.713 F930
; MOVEMENT_CUTTING
G1 Y23.828 F930
G2 X140.3 Y20.028 I-5.375 F930
G1 X129.473 Y9.199 F930
G2 X125.672 Y7.625 I-3.801 J3.801 F930
G1 X23.828 F930
G2 X20.028 Y9.199 J5.375 F930
G1 X9.199 Y20.028 F930
G2 X7.625 Y23.828 I3.801 J3.801 F930
G1 Y125.672 F930
G2 X9.199 Y129.473 I5.375 F930
G1 X20.028 Y140.3 F930
G2 X23.828 Y141.875 I3.801 J-3.8 F930
G1 X125.672 F930
G2 X129.473 Y140.3 J-5.375 F930
G1 X140.3 Y129.473 F930
G2 X141.875 Y125.673 I-3.8 J-3.801 F930
G1 Y73.325 F930
; MOVEMENT_LINK_TRANSITION
G2 X141.775 Y73.175 I-0.163 F930
G3 X141.675 Y73.025 I0.063 J-0.15 F930
; MOVEMENT_FINISH_CUTTING
G1 Y23.828 F930
G2 X140.159 Y20.169 I-5.175 F930
G1 X129.331 Y9.341 F930
G2 X125.672 Y7.825 I-3.659 J3.659 F930
G1 X23.828 F930
G2 X20.169 Y9.341 J5.175 F930
G1 X9.341 Y20.169 F930
G2 X7.825 Y23.828 I3.659 J3.659 F930
G1 Y125.672 F930
G2 X9.341 Y129.331 I5.175 F930
G1 X20.169 Y140.159 F930
G2 X23.828 Y141.675 I3.66 J-3.659 F930
G1 X125.672 F930
G2 X129.331 Y140.159 J-5.175 F930
G1 X140.159 Y129.331 F930
G2 X141.675 Y125.673 I-3.659 J-3.66 F930
G1 Y73.025 F930
; MOVEMENT_LEAD_OUT
G3 X142.31 Y72.39 I0.635 F930
G1 X142.945 F930
G1 X143.016 Z-6.996 F930
G1 X143.086 Z-6.984 F930
G1 X143.155 Z-6.964 F930
G1 X143.221 Z-6.937 F930
G1 X143.283 Z-6.903 F930
G1 X143.341 Z-6.861 F930
G1 X143.394 Z-6.814 F930
G1 X143.441 Z-6.761 F930
G1 X143.483 Z-6.703 F930
G1 X143.517 Z-6.641 F930
G1 X143.544 Z-6.575 F930
G1 X143.564 Z-6.506 F930
G1 X143.576 Z-6.436 F930
G1 X143.58 Z-6.365 F930
; MOVEMENT_CUTTING
G1 Z5 F930
G1 X144.73 Y75.385 F930
; MOVEMENT_PLUNGE
G1 Z-6 F254
G1 Z-7.365 F254
; MOVEMENT_LEAD_IN
G1 X144.726 Z-7.436 F930
G1 X144.714 Z-7.506 F930
G1 X144.694 Z-7.575 F930
G1 X144.667 Z-7.641 F930
G1 X144.633 Z-7.703 F930
G1 X144.591 Z-7.761 F930
G1 X144.544 Z-7.814 F930
G1 X144.491 Z-7.861 F930
G1 X144.433 Z-7.903 F930
G1 X144.371 Z-7.937 F930
G1 X144.305 Z-7.964 F930
G1 X144.236 Z-7.984 F930
G1 X144.166 Z-7.996 F930
G1 X144.095 Z-8 F930
G1 X143.46 F930
G3 X142.825 Y74.75 J-0.635 F930
; MOVEMENT_CUTTING
G1 Y23.828 F930
G2 X140.972 Y19.356 I-6.325 J0.001 F930
G1 X130.144 Y8.528 F930
G2 X125.672 Y6.675 I-4.473 J4.472 F930
G1 X23.828 F930
G2 X19.356 Y8.528 J6.325 F930
G1 X8.528 Y19.356 F930
G2 X6.675 Y23.828 I4.472 J4.472 F930
G1 Y125.672 F930
G2 X8.528 Y130.144 I6.325 J-0.001 F930
G1 X19.356 Y140.972 F930
G2 X23.828 Y142.825 I4.473 J-4.473 F930
G1 X125.673 F930
G2 X130.144 Y140.972 I-0.001 J-6.325 F930
G1 X140.972 Y130.144 F930
G2 X142.825 Y125.672 I-4.473 J-4.473 F930
G1 Y74.75 F930
; MOVEMENT_LINK_TRANSITION
G2 X142.35 Y74.037 I-0.772 F930
G3 X141.875 Y73.325 I0.297 J-0.713 F930
; MOVEMENT_CUTTING
G1 Y23.828 F930
G2 X140.3 Y20.028 I-5.375 F930
G1 X129.473 Y9.199 F930
G2 X125.672 Y7.625 I-3.801 J3.801 F930
G1 X23.828 F930
G2 X20.028 Y9.199 J5.375 F930
G1 X9.199 Y20.028 F930
G2 X7.625 Y23.828 I3.801 J3.801 F930
G1 Y125.672 F930
G2 X9.199 Y129.473 I5.375 F930
G1 X20.028 Y140.3 F930
G2 X23.828 Y141.875 I3.801 J-3.8 F930
G1 X125.672 F930
G2 X129.473 Y140.3 J-5.375 F930
G1 X140.3 Y129.473 F930
G2 X141.875 Y125.673 I-3.8 J-3.801 F930
G1 Y73.325 F930
; MOVEMENT_LINK_TRANSITION
G2 X141.775 Y73.175 I-0.163 F930
G3 X141.675 Y73.025 I0.063 J-0.15 F930
; MOVEMENT_FINISH_CUTTING
G1 Y23.828 F930
G2 X140.159 Y20.169 I-5.175 F930
G1 X129.331 Y9.341 F930
G2 X125.672 Y7.825 I-3.659 J3.659 F930
G1 X23.828 F930
G2 X20.169 Y9.341 J5.175 F930
G1 X9.341 Y20.169 F930
G2 X7.825 Y23.828 I3.659 J3.659 F930
G1 Y125.672 F930
G2 X9.341 Y129.331 I5.175 F930
G1 X20.169 Y140.159 F930
G2 X23.828 Y141.675 I3.66 J-3.659 F930
G1 X125.672 F930
G2 X129.331 Y140.159 J-5.175 F930
G1 X140.159 Y129.331 F930
G2 X141.675 Y125.673 I-3.659 J-3.66 F930
G1 Y73.025 F930
; MOVEMENT_LEAD_OUT
G3 X142.31 Y72.39 I0.635 F930
G1 X142.945 F930
G1 X143.016 Z-7.996 F930
G1 X143.086 Z-7.984 F930
G1 X143.155 Z-7.964 F930
G1 X143.221 Z-7.937 F930
G1 X143.283 Z-7.903 F930
G1 X143.341 Z-7.861 F930
G1 X143.394 Z-7.814 F930
G1 X143.441 Z-7.761 F930
G1 X143.483 Z-7.703 F930
G1 X143.517 Z-7.641 F930
G1 X143.544 Z-7.575 F930
G1 X143.564 Z-7.506 F930
G1 X143.576 Z-7.436 F930
G1 X143.58 Z-7.365 F930
; MOVEMENT_CUTTING
G1 Z5 F930
G1 X144.73 Y75.385 F930
; MOVEMENT_PLUNGE
G1 Z-7 F254
G1 Z-8.365 F254
; MOVEMENT_LEAD_IN
G1 X144.726 Z-8.436 F930
G1 X144.714 Z-8.506 F930
G1 X144.694 Z-8.575 F930
G1 X144.667 Z-8.641 F930
G1 X144.633 Z-8.703 F930
G1 X144.591 Z-8.761 F930
G1 X144.544 Z-8.814 F930
G1 X144.491 Z-8.861 F930
G1 X144.433 Z-8.903 F930
G1 X144.371 Z-8.937 F930
G1 X144.305 Z-8.964 F930
G1 X144.236 Z-8.984 F930
G1 X144.166 Z-8.996 F930
G1 X144.095 Z-9 F930
G1 X143.46 F930
G3 X142.825 Y74.75 J-0.635 F930
; MOVEMENT_CUTTING
G1 Y23.828 F930
G2 X140.972 Y19.356 I-6.325 J0.001 F930
G1 X130.144 Y8.528 F930
G2 X125.672 Y6.675 I-4.473 J4.472 F930
G1 X23.828 F930
G2 X19.356 Y8.528 J6.325 F930
G1 X8.528 Y19.356 F930
G2 X6.675 Y23.828 I4.472 J4.472 F930
G1 Y125.672 F930
G2 X8.528 Y130.144 I6.325 J-0.001 F930
G1 X19.356 Y140.972 F930
G2 X23.828 Y142.825 I4.473 J-4.473 F930
G1 X125.673 F930
G2 X130.144 Y140.972 I-0.001 J-6.325 F930
G1 X140.972 Y130.144 F930
G2 X142.825 Y125.672 I-4.473 J-4.473 F930
G1 Y74.75 F930
; MOVEMENT_LINK_TRANSITION
G2 X142.35 Y74.037 I-0.772 F930
G3 X141.875 Y73.325 I0.297 J-0.713 F930
; MOVEMENT_CUTTING
G1 Y23.828 F930
G2 X140.3 Y20.028 I-5.375 F930
G1 X129.473 Y9.199 F930
G2 X125.672 Y7.625 I-3.801 J3.801 F930
G1 X23.828 F930
G2 X20.028 Y9.199 J5.375 F930
G1 X9.199 Y20.028 F930
G2 X7.625 Y23.828 I3.801 J3.801 F930
G1 Y125.672 F930
G2 X9.199 Y129.473 I5.375 F930
G1 X20.028 Y140.3 F930
G2 X23.828 Y141.875 I3.801 J-3.8 F930
G1 X125.672 F930
G2 X129.473 Y140.3 J-5.375 F930
G1 X140.3 Y129.473 F930
G2 X141.875 Y125.673 I-3.8 J-3.801 F930
G1 Y73.325 F930
; MOVEMENT_LINK_TRANSITION
G2 X141.775 Y73.175 I-0.163 F930
G3 X141.675 Y73.025 I0.063 J-0.15 F930
; MOVEMENT_FINISH_CUTTING
G1 Y23.828 F930
G2 X140.159 Y20.169 I-5.175 F930
G1 X129.331 Y9.341 F930
G2 X125.672 Y7.825 I-3.659 J3.659 F930
G1 X23.828 F930
G2 X20.169 Y9.341 J5.175 F930
G1 X9.341 Y20.169 F930
G2 X7.825 Y23.828 I3.659 J3.659 F930
G1 Y125.672 F930
G2 X9.341 Y129.331 I5.175 F930
G1 X20.169 Y140.159 F930
G2 X23.828 Y141.675 I3.66 J-3.659 F930
G1 X125.672 F930
G2 X129.331 Y140.159 J-5.175 F930
G1 X140.159 Y129.331 F930
G2 X141.675 Y125.673 I-3.659 J-3.66 F930
G1 Y73.025 F930
; MOVEMENT_LEAD_OUT
G3 X142.31 Y72.39 I0.635 F930
G1 X142.945 F930
G1 X143.016 Z-8.996 F930
G1 X143.086 Z-8.984 F930
G1 X143.155 Z-8.964 F930
G1 X143.221 Z-8.937 F930
G1 X143.283 Z-8.903 F930
G1 X143.341 Z-8.861 F930
G1 X143.394 Z-8.814 F930
G1 X143.441 Z-8.761 F930
G1 X143.483 Z-8.703 F930
G1 X143.517 Z-8.641 F930
G1 X143.544 Z-8.575 F930
G1 X143.564 Z-8.506 F930
G1 X143.576 Z-8.436 F930
G1 X143.58 Z-8.365 F930
; MOVEMENT_CUTTING
G1 Z5 F930
G1 X144.73 Y75.385 F930
; MOVEMENT_PLUNGE
G1 Z-8 F254
G1 Z-9.365 F254
; MOVEMENT_LEAD_IN
G1 X144.726 Z-9.436 F930
G1 X144.714 Z-9.506 F930
G1 X144.694 Z-9.575 F930
G1 X144.667 Z-9.641 F930
G1 X144.633 Z-9.703 F930
G1 X144.591 Z-9.761 F930
G1 X144.544 Z-9.814 F930
G1 X144.491 Z-9.861 F930
G1 X144.433 Z-9.903 F930
G1 X144.371 Z-9.937 F930
G1 X144.305 Z-9.964 F930
G1 X144.236 Z-9.984 F930
G1 X144.166 Z-9.996 F930
G1 X144.095 Z-10 F930
G1 X143.46 F930
G3 X142.825 Y74.75 J-0.635 F930
; MOVEMENT_CUTTING
G1 Y23.828 F930
G2 X140.972 Y19.356 I-6.325 J0.001 F930
G1 X130.144 Y8.528 F930
G2 X125.672 Y6.675 I-4.473 J4.472 F930
G1 X23.828 F930
G2 X19.356 Y8.528 J6.325 F930
G1 X8.528 Y19.356 F930
G2 X6.675 Y23.828 I4.472 J4.472 F930
G1 Y125.672 F930
G2 X8.528 Y130.144 I6.325 J-0.001 F930
G1 X19.356 Y140.972 F930
G2 X23.828 Y142.825 I4.473 J-4.473 F930
G1 X125.673 F930
G2 X130.144 Y140.972 I-0.001 J-6.325 F930
G1 X140.972 Y130.144 F930
G2 X142.825 Y125.672 I-4.473 J-4.473 F930
G1 Y74.75 F930
; MOVEMENT_LINK_TRANSITION
G2 X142.35 Y74.037 I-0.772 F930
G3 X141.875 Y73.325 I0.297 J-0.713 F930
; MOVEMENT_CUTTING
G1 Y23.828 F930
G2 X140.3 Y20.028 I-5.375 F930
G1 X129.473 Y9.199 F930
G2 X125.672 Y7.625 I-3.801 J3.801 F930
G1 X23.828 F930
G2 X20.028 Y9.199 J5.375 F930
G1 X9.199 Y20.028 F930
G2 X7.625 Y23.828 I3.801 J3.801 F930
G1 Y125.672 F930
G2 X9.199 Y129.473 I5.375 F930
G1 X20.028 Y140.3 F930
G2 X23.828 Y141.875 I3.801 J-3.8 F930
G1 X125.672 F930
G2 X129.473 Y140.3 J-5.375 F930
G1 X140.3 Y129.473 F930
G2 X141.875 Y125.673 I-3.8 J-3.801 F930
G1 Y73.325 F930
; MOVEMENT_LINK_TRANSITION
G2 X141.775 Y73.175 I-0.163 F930
G3 X141.675 Y73.025 I0.063 J-0.15 F930
; MOVEMENT_FINISH_CUTTING
G1 Y23.828 F930
G2 X140.159 Y20.169 I-5.175 F930
G1 X129.331 Y9.341 F930
G2 X125.672 Y7.825 I-3.659 J3.659 F930
G1 X23.828 F930
G2 X20.169 Y9.341 J5.175 F930
G1 X9.341 Y20.169 F930
G2 X7.825 Y23.828 I3.659 J3.659 F930
G1 Y125.672 F930
G2 X9.341 Y129.331 I5.175 F930
G1 X20.169 Y140.159 F930
G2 X23.828 Y141.675 I3.66 J-3.659 F930
G1 X125.672 F930
G2 X129.331 Y140.159 J-5.175 F930
G1 X140.159 Y129.331 F930
G2 X141.675 Y125.673 I-3.659 J-3.66 F930
G1 Y73.025 F930
; MOVEMENT_LEAD_OUT
G3 X142.31 Y72.39 I0.635 F930
G1 X142.945 F930
G1 X143.016 Z-9.996 F930
G1 X143.086 Z-9.984 F930
G1 X143.155 Z-9.964 F930
G1 X143.221 Z-9.937 F930
G1 X143.283 Z-9.903 F930
G1 X143.341 Z-9.861 F930
G1 X143.394 Z-9.814 F930
G1 X143.441 Z-9.761 F930
G1 X143.483 Z-9.703 F930
G1 X143.517 Z-9.641 F930
G1 X143.544 Z-9.575 F930
G1 X143.564 Z-9.506 F930
G1 X143.576 Z-9.436 F930
G1 X143.58 Z-9.365 F930
; MOVEMENT_CUTTING
G1 Z5 F930
G1 X144.73 Y75.385 F930
; MOVEMENT_PLUNGE
G1 Z-9 F254
G1 Z-10.365 F254
; MOVEMENT_LEAD_IN
G1 X144.726 Z-10.436 F930
G1 X144.714 Z-10.506 F930
G1 X144.694 Z-10.575 F930
G1 X144.667 Z-10.641 F930
G1 X144.633 Z-10.703 F930
G1 X144.591 Z-10.761 F930
G1 X144.544 Z-10.814 F930
G1 X144.491 Z-10.861 F930
G1 X144.433 Z-10.903 F930
G1 X144.371 Z-10.937 F930
G1 X144.305 Z-10.964 F930
G1 X144.236 Z-10.984 F930
G1 X144.166 Z-10.996 F930
G1 X144.095 Z-11 F930
G1 X143.46 F930
G3 X142.825 Y74.75 J-0.635 F930
; MOVEMENT_CUTTING
G1 Y23.828 F930
G2 X140.972 Y19.356 I-6.325 J0.001 F930
G1 X130.144 Y8.528 F930
G2 X125.672 Y6.675 I-4.473 J4.472 F930
G1 X23.828 F930
G2 X19.356 Y8.528 J6.325 F930
G1 X8.528 Y19.356 F930
G2 X6.675 Y23.828 I4.472 J4.472 F930
G1 Y125.672 F930
G2 X8.528 Y130.144 I6.325 J-0.001 F930
G1 X19.356 Y140.972 F930
G2 X23.828 Y142.825 I4.473 J-4.473 F930
G1 X125.673 F930
G2 X130.144 Y140.972 I-0.001 J-6.325 F930
G1 X140.972 Y130.144 F930
G2 X142.825 Y125.672 I-4.473 J-4.473 F930
G1 Y74.75 F930
; MOVEMENT_LINK_TRANSITION
G2 X142.35 Y74.037 I-0.772 F930
G3 X141.875 Y73.325 I0.297 J-0.713 F930
; MOVEMENT_CUTTING
G1 Y23.828 F930
G2 X140.3 Y20.028 I-5.375 F930
G1 X129.473 Y9.199 F930
G2 X125.672 Y7.625 I-3.801 J3.801 F930
G1 X23.828 F930
G2 X20.028 Y9.199 J5.375 F930
G1 X9.199 Y20.028 F930
G2 X7.625 Y23.828 I3.801 J3.801 F930
G1 Y125.672 F930
G2 X9.199 Y129.473 I5.375 F930
G1 X20.028 Y140.3 F930
G2 X23.828 Y141.875 I3.801 J-3.8 F930
G1 X125.672 F930
G2 X129.473 Y140.3 J-5.375 F930
G1 X140.3 Y129.473 F930
G2 X141.875 Y125.673 I-3.8 J-3.801 F930
G1 Y73.325 F930
; MOVEMENT_LINK_TRANSITION
G2 X141.775 Y73.175 I-0.163 F930
G3 X141.675 Y73.025 I0.063 J-0.15 F930
; MOVEMENT_FINISH_CUTTING
G1 Y23.828 F930
G2 X140.159 Y20.169 I-5.175 F930
G1 X129.331 Y9.341 F930
G2 X125.672 Y7.825 I-3.659 J3.659 F930
G1 X23.828 F930
G2 X20.169 Y9.341 J5.175 F930
G1 X9.341 Y20.169 F930
G2 X7.825 Y23.828 I3.659 J3.659 F930
G1 Y125.672 F930
G2 X9.341 Y129.331 I5.175 F930
G1 X20.169 Y140.159 F930
G2 X23.828 Y141.675 I3.66 J-3.659 F930
G1 X125.672 F930
G2 X129.331 Y140.159 J-5.175 F930
G1 X140.159 Y129.331 F930
G2 X141.675 Y125.673 I-3.659 J-3.66 F930
G1 Y73.025 F930
; MOVEMENT_LEAD_OUT
G3 X142.31 Y72.39 I0.635 F930
G1 X142.945 F930
G1 X143.016 Z-10.996 F930
G1 X143.086 Z-10.984 F930
G1 X143.155 Z-10.964 F930
G1 X143.221 Z-10.937 F930
G1 X143.283 Z-10.903 F930
G1 X143.341 Z-10.861 F930
G1 X143.394 Z-10.814 F930
G1 X143.441 Z-10.761 F930
G1 X143.483 Z-10.703 F930
G1 X143.517 Z-10.641 F930
G1 X143.544 Z-10.575 F930
G1 X143.564 Z-10.506 F930
G1 X143.576 Z-10.436 F930
G1 X143.58 Z-10.365 F930
; MOVEMENT_CUTTING
G1 Z5 F930
G1 X144.73 Y75.385 F930
; MOVEMENT_PLUNGE
G1 Z-10 F254
G1 Z-11.365 F254
; MOVEMENT_LEAD_IN
G1 X144.726 Z-11.436 F930
G1 X144.714 Z-11.506 F930
G1 X144.694 Z-11.575 F930
G1 X144.667 Z-11.641 F930
G1 X144.633 Z-11.703 F930
G1 X144.591 Z-11.761 F930
G1 X144.544 Z-11.814 F930
G1 X144.491 Z-11.861 F930
G1 X144.433 Z-11.903 F930
G1 X144.371 Z-11.937 F930
G1 X144.305 Z-11.964 F930
G1 X144.236 Z-11.984 F930
G1 X144.166 Z-11.996 F930
G1 X144.095 Z-12 F930
G1 X143.46 F930
G3 X142.825 Y74.75 J-0.635 F930
; MOVEMENT_CUTTING
G1 Y23.828 F930
G2 X140.972 Y19.356 I-6.325 J0.001 F930
G1 X130.144 Y8.528 F930
G2 X125.672 Y6.675 I-4.473 J4.472 F930
G1 X23.828 F930
G2 X19.356 Y8.528 J6.325 F930
G1 X8.528 Y19.356 F930
G2 X6.675 Y23.828 I4.472 J4.472 F930
G1 Y125.672 F930
G2 X8.528 Y130.144 I6.325 J-0.001 F930
G1 X19.356 Y140.972 F930
G2 X23.828 Y142.825 I4.473 J-4.473 F930
G1 X125.673 F930
G2 X130.144 Y140.972 I-0.001 J-6.325 F930
G1 X140.972 Y130.144 F930
G2 X142.825 Y125.672 I-4.473 J-4.473 F930
G1 Y74.75 F930
; MOVEMENT_LINK_TRANSITION
G2 X142.35 Y74.037 I-0.772 F930
G3 X141.875 Y73.325 I0.297 J-0.713 F930
; MOVEMENT_CUTTING
G1 Y23.828 F930
G2 X140.3 Y20.028 I-5.375 F930
G1 X129.473 Y9.199 F930
G2 X125.672 Y7.625 I-3.801 J3.801 F930
G1 X23.828 F930
G2 X20.028 Y9.199 J5.375 F930
G1 X9.199 Y20.028 F930
G2 X7.625 Y23.828 I3.801 J3.801 F930
G1 Y125.672 F930
G2 X9.199 Y129.473 I5.375 F930
G1 X20.028 Y140.3 F930
G2 X23.828 Y141.875 I3.801 J-3.8 F930
G1 X125.672 F930
G2 X129.473 Y140.3 J-5.375 F930
G1 X140.3 Y129.473 F930
G2 X141.875 Y125.673 I-3.8 J-3.801 F930
G1 Y73.325 F930
; MOVEMENT_LINK_TRANSITION
G2 X141.775 Y73.175 I-0.163 F930
G3 X141.675 Y73.025 I0.063 J-0.15 F930
; MOVEMENT_FINISH_CUTTING
G1 Y23.828 F930
G2 X140.159 Y20.169 I-5.175 F930
G1 X129.331 Y9.341 F930
G2 X125.672 Y7.825 I-3.659 J3.659 F930
G1 X23.828 F930
G2 X20.169 Y9.341 J5.175 F930
G1 X9.341 Y20.169 F930
G2 X7.825 Y23.828 I3.659 J3.659 F930
G1 Y125.672 F930
G2 X9.341 Y129.331 I5.175 F930
G1 X20.169 Y140.159 F930
G2 X23.828 Y141.675 I3.66 J-3.659 F930
G1 X125.672 F930
G2 X129.331 Y140.159 J-5.175 F930
G1 X140.159 Y129.331 F930
G2 X141.675 Y125.673 I-3.659 J-3.66 F930
G1 Y73.025 F930
; MOVEMENT_LEAD_OUT
G3 X142.31 Y72.39 I0.635 F930
G1 X142.945 F930
G1 X143.016 Z-11.996 F930
G1 X143.086 Z-11.984 F930
G1 X143.155 Z-11.964 F930
G1 X143.221 Z-11.937 F930
G1 X143.283 Z-11.903 F930
G1 X143.341 Z-11.861 F930
G1 X143.394 Z-11.814 F930
G1 X143.441 Z-11.761 F930
G1 X143.483 Z-11.703 F930
G1 X143.517 Z-11.641 F930
G1 X143.544 Z-11.575 F930
G1 X143.564 Z-11.506 F930
G1 X143.576 Z-11.436 F930
G1 X143.58 Z-11.365 F930
; MOVEMENT_CUTTING
G1 Z5 F930
G1 X144.73 Y75.385 F930
; MOVEMENT_PLUNGE
G1 Z-11 F254
G1 Z-11.865 F254
; MOVEMENT_LEAD_IN
G1 X144.726 Z-11.936 F930
G1 X144.714 Z-12.006 F930
G1 X144.694 Z-12.075 F930
G1 X144.667 Z-12.141 F930
G1 X144.633 Z-12.203 F930
G1 X144.591 Z-12.261 F930
G1 X144.544 Z-12.314 F930
G1 X144.491 Z-12.361 F930
G1 X144.433 Z-12.403 F930
G1 X144.371 Z-12.437 F930
G1 X144.305 Z-12.464 F930
G1 X144.236 Z-12.484 F930
G1 X144.166 Z-12.496 F930
G1 X144.095 Z-12.5 F930
G1 X143.46 F930
G3 X142.825 Y74.75 J-0.635 F930
; MOVEMENT_CUTTING
G1 Y23.828 F930
G2 X140.972 Y19.356 I-6.325 J0.001 F930
G1 X130.144 Y8.528 F930
G2 X125.672 Y6.675 I-4.473 J4.472 F930
G1 X23.828 F930
G2 X19.356 Y8.528 J6.325 F930
G1 X8.528 Y19.356 F930
G2 X6.675 Y23.828 I4.472 J4.472 F930
G1 Y125.672 F930
G2 X8.528 Y130.144 I6.325 J-0.001 F930
G1 X19.356 Y140.972 F930
G2 X23.828 Y142.825 I4.473 J-4.473 F930
G1 X125.673 F930
G2 X130.144 Y140.972 I-0.001 J-6.325 F930
G1 X140.972 Y130.144 F930
G2 X142.825 Y125.672 I-4.473 J-4.473 F930
G1 Y74.75 F930
; MOVEMENT_LINK_TRANSITION
G2 X142.35 Y74.037 I-0.772 F930
G3 X141.875 Y73.325 I0.297 J-0.713 F930
; MOVEMENT_CUTTING
G1 Y23.828 F930
G2 X140.3 Y20.028 I-5.375 F930
G1 X129.473 Y9.199 F930
G2 X125.672 Y7.625 I-3.801 J3.801 F930
G1 X23.828 F930
G2 X20.028 Y9.199 J5.375 F930
G1 X9.199 Y20.028 F930
G2 X7.625 Y23.828 I3.801 J3.801 F930
G1 Y125.672 F930
G2 X9.199 Y129.473 I5.375 F930
G1 X20.028 Y140.3 F930
G2 X23.828 Y141.875 I3.801 J-3.8 F930
G1 X125.672 F930
G2 X129.473 Y140.3 J-5.375 F930
G1 X140.3 Y129.473 F930
G2 X141.875 Y125.673 I-3.8 J-3.801 F930
G1 Y73.325 F930
; MOVEMENT_LINK_TRANSITION
G2 X141.775 Y73.175 I-0.163 F930
G3 X141.675 Y73.025 I0.063 J-0.15 F930
; MOVEMENT_FINISH_CUTTING
G1 Y23.828 F930
G2 X140.159 Y20.169 I-5.175 F930
G1 X129.331 Y9.341 F930
G2 X125.672 Y7.825 I-3.659 J3.659 F930
G1 X23.828 F930
G2 X20.169 Y9.341 J5.175 F930
G1 X9.341 Y20.169 F930
G2 X7.825 Y23.828 I3.659 J3.659 F930
G1 Y125.672 F930
G2 X9.341 Y129.331 I5.175 F930
G1 X20.169 Y140.159 F930
G2 X23.828 Y141.675 I3.66 J-3.659 F930
G1 X125.672 F930
G2 X129.331 Y140.159 J-5.175 F930
G1 X140.159 Y129.331 F930
G2 X141.675 Y125.673 I-3.659 J-3.66 F930
G1 Y73.025 F930
; MOVEMENT_LEAD_OUT
G3 X142.31 Y72.39 I0.635 F930
G1 X142.945 F930
G1 X143.016 Z-12.496 F930
G1 X143.086 Z-12.484 F930
G1 X143.155 Z-12.464 F930
G1 X143.221 Z-12.437 F930
G1 X143.283 Z-12.403 F930
G1 X143.341 Z-12.361 F930
G1 X143.394 Z-12.314 F930
G1 X143.441 Z-12.261 F930
G1 X143.483 Z-12.203 F930
G1 X143.517 Z-12.141 F930
G1 X143.544 Z-12.075 F930
G1 X143.564 Z-12.006 F930
G1 X143.576 Z-11.936 F930
G1 X143.58 Z-11.865 F930
; MOVEMENT_CUTTING
G1 Z10 F930
; *** SECTION end ***
;
; *** STOP begin ***
M400
; COMMAND_COOLANT_OFF
G0 X0 Y0 F2500
; COMMAND_STOP_SPINDLE
M300 S300 P3000
M0 Turn OFF spindle
M117 Job end
; *** STOP end ***
