;Fusion CAM 2.0.20494
; Posts processor: MPCNC.cps
; Gcode generated: Monday, October 28, 2024 11:38:43 PM GMT
; Document: test v22
; Setup: Front M4 Bore
;When using Fusion for Personal Use, the feedrate of rapid
;moves is reduced to match the feedrate of cutting moves,
;which can increase machining time. Unrestricted rapid moves
;are available with a Fusion Subscription.
; 
; Ranges Table:
;   X: Min=21.328 Max=128.173 Size=106.845
;   Y: Min=21.328 Max=128.172 Size=106.845
;   Z: Min=-13.5 Max=10 Size=23.5
; 
; Tools Table:
;  T2 D=3.175 CR=0 - ZMIN=-13.5 - flat end mill 
; 
; Feedrate and Scaling Properties:
;   Feed: Travel speed X/Y = 2500
;   Feed: Travel Speed Z = 300
;   Feed: Enforce Feedrate = true
;   Feed: Scale Feedrate = false
;   Feed: Max XY Cut Speed = 1080
;   Feed: Max Z Cut Speed = 330
;   Feed: Max Toolpath Speed = 1000
; 
; G1->G0 Mapping Properties:
;   Map: First G1 -> G0 Rapid = false
;   Map: G1s -> G0 Rapids = false
;   Map: SafeZ Mode = Retract : default = 15
;   Map: Allow Rapid Z = false
; 
; *** START begin ***
;   Set Absolute Positioning
;   Units = mm
;   Disable stepper timeout
G90
G21
M84 S0
; COMMAND_TOOL_MEASURE
; Probe to Zero Z
;   Ask User to Attach the Z Probe
;   Do Probing
;   Set Z to probe thickness: Z14
;   Retract the tool to 20
;   Ask User to Remove the Z Probe
M0 Attach ZProbe
G28 Z
G92 Z14
G0 Z20 F300
M400
M0 Detach ZProbe
; *** START end ***
; 
; *** SECTION begin ***
;   X Min: 21.328 - X Max: 128.173
;   Y Min: 21.328 - Y Max: 128.172
;   Z Min: -13.5 - Z Max: 10
; Bore2 - Milling - Tool: 2 -  flat end mill
; COMMAND_START_SPINDLE
; COMMAND_SPINDLE_CLOCKWISE
; >>> Spindle Speed: Manual
M0 Turn ON 18000RPM
; COMMAND_COOLANT_ON
M117  Bore2
; MOVEMENT_CUTTING
G1 X127.46 Y54.423 Z10 F1080
G1 Z2 F1080
; MOVEMENT_LEAD_IN
G1 Z0.317 F1080
G1 X127.464 Z0.268 F1080
G1 X127.476 Z0.219 F1080
G1 X127.495 Z0.173 F1080
G1 X127.521 Z0.131 F1080
G1 X127.553 Z0.093 F1080
G1 X127.591 Z0.061 F1080
G1 X127.633 Z0.035 F1080
G1 X127.679 Z0.016 F1080
G1 X127.728 Z0.004 F1080
G1 X127.777 Z0 F1080
G1 X127.936 F1080
G3 X128.173 Y54.659 J0.236 F1080
; MOVEMENT_CUTTING
G1 X128.169 Y54.721 Z-0.003 F1080
G1 X128.157 Y54.781 Z-0.006 F1080
G1 X128.137 Y54.839 Z-0.009 F1080
G1 X128.11 Y54.894 Z-0.012 F1080
G1 X128.076 Y54.945 Z-0.015 F1080
G1 X128.036 Y54.992 Z-0.018 F1080
G1 X127.99 Y55.033 Z-0.021 F1080
G1 X127.939 Y55.067 Z-0.024 F1080
G1 X127.884 Y55.095 Z-0.027 F1080
G1 X127.826 Y55.115 Z-0.03 F1080
G1 X127.766 Y55.127 Z-0.033 F1080
G1 X127.704 Y55.132 Z-0.036 F1080
G1 X127.643 Y55.128 Z-0.039 F1080
G1 X127.583 Y55.117 Z-0.042 F1080
G1 X127.524 Y55.098 Z-0.045 F1080
G1 X127.469 Y55.071 Z-0.048 F1080
G1 X127.417 Y55.038 Z-0.051 F1080
G1 X127.371 Y54.998 Z-0.054 F1080
G1 X127.329 Y54.952 Z-0.057 F1080
G1 X127.295 Y54.902 Z-0.06 F1080
G1 X127.266 Y54.847 Z-0.063 F1080
G1 X127.246 Y54.789 Z-0.066 F1080
G1 X127.233 Y54.729 Z-0.069 F1080
G1 X127.228 Y54.668 Z-0.072 F1080
G1 X127.23 Y54.607 Z-0.074 F1080
G1 X127.241 Y54.546 Z-0.077 F1080
G1 X127.26 Y54.488 Z-0.08 F1080
G1 X127.286 Y54.432 Z-0.083 F1080
G1 X127.319 Y54.38 Z-0.086 F1080
G1 X127.358 Y54.333 Z-0.089 F1080
G1 X127.403 Y54.292 Z-0.092 F1080
G1 X127.454 Y54.256 Z-0.095 F1080
G1 X127.508 Y54.228 Z-0.098 F1080
G1 X127.566 Y54.206 Z-0.101 F1080
G1 X127.626 Y54.193 Z-0.104 F1080
G1 X127.687 Y54.187 Z-0.107 F1080
G1 X127.748 Y54.189 Z-0.11 F1080
G1 X127.809 Y54.199 Z-0.113 F1080
G1 X127.867 Y54.217 Z-0.116 F1080
G1 X127.923 Y54.243 Z-0.119 F1080
G1 X127.975 Y54.275 Z-0.122 F1080
G1 X128.023 Y54.314 Z-0.125 F1080
G1 X128.065 Y54.359 Z-0.128 F1080
G1 X128.101 Y54.409 Z-0.131 F1080
G1 X128.13 Y54.463 Z-0.134 F1080
G1 X128.152 Y54.521 Z-0.137 F1080
G1 X128.166 Y54.58 Z-0.14 F1080
G1 X128.172 Y54.642 Z-0.143 F1080
G1 X128.17 Y54.703 Z-0.146 F1080
G1 X128.161 Y54.764 Z-0.149 F1080
G1 X128.143 Y54.823 Z-0.152 F1080
G1 X128.118 Y54.879 Z-0.155 F1080
G1 X128.086 Y54.931 Z-0.158 F1080
G1 X128.048 Y54.979 Z-0.161 F1080
G1 X128.003 Y55.021 Z-0.164 F1080
G1 X127.954 Y55.058 Z-0.167 F1080
G1 X127.9 Y55.087 Z-0.17 F1080
G1 X127.843 Y55.11 Z-0.173 F1080
G1 X127.783 Y55.124 Z-0.176 F1080
G1 X127.722 Y55.131 Z-0.179 F1080
G1 X127.661 Y55.13 Z-0.182 F1080
G1 X127.6 Y55.121 Z-0.185 F1080
G1 X127.541 Y55.104 Z-0.188 F1080
G1 X127.484 Y55.08 Z-0.191 F1080
G1 X127.432 Y55.048 Z-0.194 F1080
G1 X127.384 Y55.01 Z-0.197 F1080
G1 X127.341 Y54.966 Z-0.2 F1080
G1 X127.304 Y54.917 Z-0.203 F1080
G1 X127.274 Y54.863 Z-0.206 F1080
G1 X127.251 Y54.806 Z-0.209 F1080
G1 X127.236 Y54.747 Z-0.212 F1080
G1 X127.228 Y54.686 Z-0.215 F1080
G1 X127.229 Y54.624 Z-0.218 F1080
G1 X127.237 Y54.564 Z-0.22 F1080
G1 X127.254 Y54.504 Z-0.223 F1080
G1 X127.277 Y54.448 Z-0.226 F1080
G1 X127.309 Y54.395 Z-0.229 F1080
G1 X127.346 Y54.346 Z-0.232 F1080
G1 X127.39 Y54.303 Z-0.235 F1080
G1 X127.439 Y54.266 Z-0.238 F1080
G1 X127.492 Y54.235 Z-0.241 F1080
G1 X127.549 Y54.212 Z-0.244 F1080
G1 X127.608 Y54.196 Z-0.247 F1080
G1 X127.669 Y54.188 Z-0.25 F1080
G1 X127.73 Z-0.253 F1080
G1 X127.791 Y54.196 Z-0.256 F1080
G1 X127.851 Y54.211 Z-0.259 F1080
G1 X127.908 Y54.235 Z-0.262 F1080
G1 X127.961 Y54.265 Z-0.265 F1080
G1 X128.01 Y54.303 Z-0.268 F1080
G1 X128.053 Y54.346 Z-0.271 F1080
G1 X128.091 Y54.394 Z-0.274 F1080
G1 X128.122 Y54.447 Z-0.277 F1080
G1 X128.146 Y54.504 Z-0.28 F1080
G1 X128.163 Y54.563 Z-0.283 F1080
G1 X128.171 Y54.624 Z-0.286 F1080
G1 X128.172 Y54.685 Z-0.289 F1080
G1 X128.164 Y54.746 Z-0.292 F1080
G1 X128.149 Y54.806 Z-0.295 F1080
G1 X128.126 Y54.863 Z-0.298 F1080
G1 X128.096 Y54.916 Z-0.301 F1080
G1 X128.06 Y54.966 Z-0.304 F1080
G1 X128.017 Y55.01 Z-0.307 F1080
G1 X127.969 Y55.048 Z-0.31 F1080
G1 X127.916 Y55.08 Z-0.313 F1080
G1 X127.86 Y55.104 Z-0.316 F1080
G1 X127.801 Y55.121 Z-0.319 F1080
G1 X127.74 Y55.13 Z-0.322 F1080
G1 X127.678 Y55.131 Z-0.325 F1080
G1 X127.617 Y55.125 Z-0.328 F1080
G1 X127.558 Y55.11 Z-0.331 F1080
G1 X127.5 Y55.088 Z-0.334 F1080
G1 X127.447 Y55.058 Z-0.337 F1080
G1 X127.397 Y55.022 Z-0.34 F1080
G1 X127.352 Y54.979 Z-0.343 F1080
G1 X127.314 Y54.932 Z-0.346 F1080
G1 X127.282 Y54.879 Z-0.349 F1080
G1 X127.257 Y54.823 Z-0.352 F1080
G1 X127.239 Y54.764 Z-0.355 F1080
G1 X127.23 Y54.704 Z-0.358 F1080
G1 X127.228 Y54.642 Z-0.361 F1080
G1 X127.234 Y54.581 Z-0.363 F1080
G1 X127.248 Y54.521 Z-0.366 F1080
G1 X127.27 Y54.464 Z-0.369 F1080
G1 X127.299 Y54.41 Z-0.372 F1080
G1 X127.335 Y54.36 Z-0.375 F1080
G1 X127.377 Y54.315 Z-0.378 F1080
G1 X127.424 Y54.276 Z-0.381 F1080
G1 X127.476 Y54.243 Z-0.384 F1080
G1 X127.532 Y54.218 Z-0.387 F1080
G1 X127.591 Y54.2 Z-0.39 F1080
G1 X127.651 Y54.189 Z-0.393 F1080
G1 X127.713 Y54.187 Z-0.396 F1080
G1 X127.774 Y54.193 Z-0.399 F1080
G1 X127.834 Y54.206 Z-0.402 F1080
G1 X127.892 Y54.227 Z-0.405 F1080
G1 X127.946 Y54.256 Z-0.408 F1080
G1 X127.996 Y54.291 Z-0.411 F1080
G1 X128.041 Y54.333 Z-0.414 F1080
G1 X128.081 Y54.38 Z-0.417 F1080
G1 X128.114 Y54.432 Z-0.42 F1080
G1 X128.14 Y54.487 Z-0.423 F1080
G1 X128.159 Y54.546 Z-0.426 F1080
G1 X128.17 Y54.606 Z-0.429 F1080
G1 X128.172 Y54.668 Z-0.432 F1080
G1 X128.167 Y54.729 Z-0.435 F1080
G1 X128.154 Y54.789 Z-0.438 F1080
G1 X128.134 Y54.847 Z-0.441 F1080
G1 X128.106 Y54.901 Z-0.444 F1080
G1 X128.071 Y54.952 Z-0.447 F1080
G1 X128.03 Y54.998 Z-0.45 F1080
G1 X127.983 Y55.038 Z-0.453 F1080
G1 X127.932 Y55.071 Z-0.456 F1080
G1 X127.876 Y55.098 Z-0.459 F1080
G1 X127.818 Y55.117 Z-0.462 F1080
G1 X127.757 Y55.128 Z-0.465 F1080
G1 X127.696 Y55.132 Z-0.468 F1080
G1 X127.635 Y55.127 Z-0.471 F1080
G1 X127.575 Y55.115 Z-0.474 F1080
G1 X127.517 Y55.095 Z-0.477 F1080
G1 X127.462 Y55.067 Z-0.48 F1080
G1 X127.411 Y55.033 Z-0.483 F1080
G1 X127.365 Y54.992 Z-0.486 F1080
G1 X127.324 Y54.946 Z-0.489 F1080
G1 X127.29 Y54.895 Z-0.492 F1080
G1 X127.263 Y54.84 Z-0.495 F1080
G1 X127.244 Y54.781 Z-0.498 F1080
G1 X127.232 Y54.721 Z-0.501 F1080
G1 X127.227 Y54.66 Z-0.504 F1080
G1 X127.231 Y54.599 Z-0.507 F1080
G1 X127.243 Y54.538 Z-0.509 F1080
G1 X127.263 Y54.48 Z-0.512 F1080
G1 X127.29 Y54.425 Z-0.515 F1080
G1 X127.324 Y54.374 Z-0.518 F1080
G1 X127.364 Y54.327 Z-0.521 F1080
G1 X127.41 Y54.286 Z-0.524 F1080
G1 X127.461 Y54.252 Z-0.527 F1080
G1 X127.516 Y54.224 Z-0.53 F1080
G1 X127.574 Y54.204 Z-0.533 F1080
G1 X127.634 Y54.191 Z-0.536 F1080
G1 X127.695 Y54.187 Z-0.539 F1080
G1 X127.756 Y54.19 Z-0.542 F1080
G1 X127.817 Y54.201 Z-0.545 F1080
G1 X127.875 Y54.22 Z-0.548 F1080
G1 X127.931 Y54.247 Z-0.551 F1080
G1 X127.982 Y54.28 Z-0.554 F1080
G1 X128.029 Y54.32 Z-0.557 F1080
G1 X128.07 Y54.366 Z-0.56 F1080
G1 X128.105 Y54.416 Z-0.563 F1080
G1 X128.133 Y54.471 Z-0.566 F1080
G1 X128.154 Y54.529 Z-0.569 F1080
G1 X128.167 Y54.589 Z-0.572 F1080
G1 X128.172 Y54.65 Z-0.575 F1080
G1 X128.17 Y54.711 Z-0.578 F1080
G1 X128.159 Y54.772 Z-0.581 F1080
G1 X128.14 Y54.83 Z-0.584 F1080
G1 X128.115 Y54.886 Z-0.587 F1080
G1 X128.082 Y54.938 Z-0.59 F1080
G1 X128.042 Y54.985 Z-0.593 F1080
G1 X127.997 Y55.027 Z-0.596 F1080
G1 X127.947 Y55.062 Z-0.599 F1080
G1 X127.893 Y55.091 Z-0.602 F1080
G1 X127.835 Y55.112 Z-0.605 F1080
G1 X127.775 Y55.126 Z-0.608 F1080
G1 X127.714 Y55.132 Z-0.611 F1080
G1 X127.652 Y55.129 Z-0.614 F1080
G1 X127.592 Y55.119 Z-0.617 F1080
G1 X127.533 Y55.101 Z-0.62 F1080
G1 X127.477 Y55.076 Z-0.623 F1080
G1 X127.425 Y55.043 Z-0.626 F1080
G1 X127.377 Y55.005 Z-0.629 F1080
G1 X127.335 Y54.96 Z-0.632 F1080
G1 X127.299 Y54.91 Z-0.635 F1080
G1 X127.27 Y54.856 Z-0.638 F1080
G1 X127.248 Y54.798 Z-0.641 F1080
G1 X127.234 Y54.739 Z-0.644 F1080
G1 X127.228 Y54.678 Z-0.647 F1080
G1 X127.229 Y54.616 Z-0.65 F1080
G1 X127.239 Y54.555 Z-0.653 F1080
G1 X127.256 Y54.497 Z-0.655 F1080
G1 X127.281 Y54.44 Z-0.658 F1080
G1 X127.313 Y54.388 Z-0.661 F1080
G1 X127.352 Y54.34 Z-0.664 F1080
G1 X127.396 Y54.297 Z-0.667 F1080
G1 X127.446 Y54.261 Z-0.67 F1080
G1 X127.499 Y54.231 Z-0.673 F1080
G1 X127.557 Y54.209 Z-0.676 F1080
G1 X127.616 Y54.194 Z-0.679 F1080
G1 X127.677 Y54.187 Z-0.682 F1080
G1 X127.739 Y54.188 Z-0.685 F1080
G1 X127.8 Y54.197 Z-0.688 F1080
G1 X127.859 Y54.214 Z-0.691 F1080
G1 X127.915 Y54.239 Z-0.694 F1080
G1 X127.968 Y54.27 Z-0.697 F1080
G1 X128.016 Y54.308 Z-0.7 F1080
G1 X128.059 Y54.352 Z-0.703 F1080
G1 X128.096 Y54.401 Z-0.706 F1080
G1 X128.126 Y54.455 Z-0.709 F1080
G1 X128.149 Y54.512 Z-0.712 F1080
G1 X128.164 Y54.571 Z-0.715 F1080
G1 X128.172 Y54.632 Z-0.718 F1080
G1 X128.171 Y54.694 Z-0.721 F1080
G1 X128.163 Y54.754 Z-0.724 F1080
G1 X128.147 Y54.814 Z-0.727 F1080
G1 X128.123 Y54.87 Z-0.73 F1080
G1 X128.092 Y54.923 Z-0.733 F1080
G1 X128.054 Y54.972 Z-0.736 F1080
G1 X128.011 Y55.015 Z-0.739 F1080
G1 X127.962 Y55.053 Z-0.742 F1080
G1 X127.909 Y55.083 Z-0.745 F1080
G1 X127.852 Y55.107 Z-0.748 F1080
G1 X127.792 Y55.123 Z-0.751 F1080
G1 X127.732 Y55.131 Z-0.754 F1080
G1 X127.67 Z-0.757 F1080
G1 X127.609 Y55.123 Z-0.76 F1080
G1 X127.55 Y55.107 Z-0.763 F1080
G1 X127.493 Y55.084 Z-0.766 F1080
G1 X127.44 Y55.054 Z-0.769 F1080
G1 X127.391 Y55.016 Z-0.772 F1080
G1 X127.347 Y54.973 Z-0.775 F1080
G1 X127.309 Y54.925 Z-0.778 F1080
G1 X127.278 Y54.872 Z-0.781 F1080
G1 X127.254 Y54.815 Z-0.784 F1080
G1 X127.238 Y54.756 Z-0.787 F1080
G1 X127.229 Y54.695 Z-0.79 F1080
G1 X127.228 Y54.634 Z-0.793 F1080
G1 X127.235 Y54.573 Z-0.796 F1080
G1 X127.251 Y54.513 Z-0.798 F1080
G1 X127.273 Y54.456 Z-0.801 F1080
G1 X127.303 Y54.403 Z-0.804 F1080
G1 X127.34 Y54.353 Z-0.807 F1080
G1 X127.383 Y54.309 Z-0.81 F1080
G1 X127.431 Y54.271 Z-0.813 F1080
G1 X127.484 Y54.239 Z-0.816 F1080
G1 X127.54 Y54.215 Z-0.819 F1080
G1 X127.599 Y54.198 Z-0.822 F1080
G1 X127.66 Y54.189 Z-0.825 F1080
G1 X127.721 Y54.187 Z-0.828 F1080
G1 X127.782 Y54.194 Z-0.831 F1080
G1 X127.842 Y54.209 Z-0.834 F1080
G1 X127.899 Y54.231 Z-0.837 F1080
G1 X127.953 Y54.26 Z-0.84 F1080
G1 X128.003 Y54.296 Z-0.843 F1080
G1 X128.047 Y54.339 Z-0.846 F1080
G1 X128.086 Y54.387 Z-0.849 F1080
G1 X128.118 Y54.439 Z-0.852 F1080
G1 X128.143 Y54.495 Z-0.855 F1080
G1 X128.161 Y54.554 Z-0.858 F1080
G1 X128.17 Y54.615 Z-0.861 F1080
G1 X128.172 Y54.676 Z-0.864 F1080
G1 X128.166 Y54.737 Z-0.867 F1080
G1 X128.152 Y54.797 Z-0.87 F1080
G1 X128.13 Y54.854 Z-0.873 F1080
G1 X128.101 Y54.909 Z-0.876 F1080
G1 X128.066 Y54.959 Z-0.879 F1080
G1 X128.024 Y55.003 Z-0.882 F1080
G1 X127.976 Y55.043 Z-0.885 F1080
G1 X127.924 Y55.075 Z-0.888 F1080
G1 X127.868 Y55.101 Z-0.891 F1080
G1 X127.81 Y55.119 Z-0.894 F1080
G1 X127.749 Y55.129 Z-0.897 F1080
G1 X127.688 Y55.132 Z-0.9 F1080
G1 X127.627 Y55.126 Z-0.903 F1080
G1 X127.567 Y55.113 Z-0.906 F1080
G1 X127.509 Y55.091 Z-0.909 F1080
G1 X127.455 Y55.063 Z-0.912 F1080
G1 X127.404 Y55.028 Z-0.915 F1080
G1 X127.359 Y54.986 Z-0.918 F1080
G1 X127.319 Y54.939 Z-0.921 F1080
G1 X127.286 Y54.887 Z-0.924 F1080
G1 X127.26 Y54.832 Z-0.927 F1080
G1 X127.241 Y54.773 Z-0.93 F1080
G1 X127.231 Y54.713 Z-0.933 F1080
G1 X127.228 Y54.652 Z-0.936 F1080
G1 X127.233 Y54.59 Z-0.939 F1080
G1 X127.245 Y54.53 Z-0.942 F1080
G1 X127.266 Y54.472 Z-0.944 F1080
G1 X127.294 Y54.418 Z-0.947 F1080
G1 X127.329 Y54.367 Z-0.95 F1080
G1 X127.37 Y54.321 Z-0.953 F1080
G1 X127.416 Y54.281 Z-0.956 F1080
G1 X127.468 Y54.248 Z-0.959 F1080
G1 X127.523 Y54.221 Z-0.962 F1080
G1 X127.582 Y54.202 Z-0.965 F1080
G1 X127.642 Y54.19 Z-0.968 F1080
G1 X127.703 Y54.187 Z-0.971 F1080
G1 X127.765 Y54.191 Z-0.974 F1080
G1 X127.825 Y54.204 Z-0.977 F1080
G1 X127.883 Y54.224 Z-0.98 F1080
G1 X127.938 Y54.251 Z-0.983 F1080
G1 X127.989 Y54.285 Z-0.986 F1080
G1 X128.035 Y54.326 Z-0.989 F1080
G1 X128.075 Y54.372 Z-0.992 F1080
G1 X128.109 Y54.423 Z-0.995 F1080
G1 X128.137 Y54.478 Z-0.998 F1080
G1 X128.156 Y54.537 Z-1.001 F1080
G1 X128.168 Y54.597 Z-1.004 F1080
G1 X128.172 Y54.658 Z-1.007 F1080
G1 X128.169 Y54.72 Z-1.01 F1080
G1 X128.157 Y54.78 Z-1.013 F1080
G1 X128.137 Y54.838 Z-1.016 F1080
G1 X128.11 Y54.893 Z-1.019 F1080
G1 X128.077 Y54.945 Z-1.022 F1080
G1 X128.036 Y54.991 Z-1.025 F1080
G1 X127.991 Y55.032 Z-1.028 F1080
G1 X127.94 Y55.066 Z-1.031 F1080
G1 X127.885 Y55.094 Z-1.034 F1080
G1 X127.827 Y55.114 Z-1.037 F1080
G1 X127.767 Y55.127 Z-1.04 F1080
G1 X127.706 Y55.132 Z-1.043 F1080
G1 X127.644 Y55.128 Z-1.046 F1080
G1 X127.584 Y55.117 Z-1.049 F1080
G1 X127.525 Y55.098 Z-1.052 F1080
G1 X127.47 Y55.072 Z-1.055 F1080
G1 X127.418 Y55.039 Z-1.058 F1080
G1 X127.371 Y54.999 Z-1.061 F1080
G1 X127.33 Y54.953 Z-1.064 F1080
G1 X127.295 Y54.903 Z-1.067 F1080
G1 X127.267 Y54.848 Z-1.07 F1080
G1 X127.246 Y54.79 Z-1.073 F1080
G1 X127.233 Y54.73 Z-1.076 F1080
G1 X127.228 Y54.669 Z-1.079 F1080
G1 X127.23 Y54.608 Z-1.082 F1080
G1 X127.241 Y54.547 Z-1.085 F1080
G1 X127.259 Y54.489 Z-1.088 F1080
G1 X127.285 Y54.433 Z-1.09 F1080
G1 X127.318 Y54.381 Z-1.093 F1080
G1 X127.357 Y54.334 Z-1.096 F1080
G1 X127.403 Y54.292 Z-1.099 F1080
G1 X127.453 Y54.257 Z-1.102 F1080
G1 X127.507 Y54.228 Z-1.105 F1080
G1 X127.565 Y54.207 Z-1.108 F1080
G1 X127.624 Y54.193 Z-1.111 F1080
G1 X127.686 Y54.187 Z-1.114 F1080
G1 X127.747 Y54.189 Z-1.117 F1080
G1 X127.808 Y54.199 Z-1.12 F1080
G1 X127.866 Y54.217 Z-1.123 F1080
G1 X127.922 Y54.242 Z-1.126 F1080
G1 X127.975 Y54.275 Z-1.129 F1080
G1 X128.022 Y54.314 Z-1.132 F1080
G1 X128.064 Y54.358 Z-1.135 F1080
G1 X128.1 Y54.408 Z-1.138 F1080
G1 X128.129 Y54.462 Z-1.141 F1080
G1 X128.151 Y54.52 Z-1.144 F1080
G1 X128.166 Y54.579 Z-1.147 F1080
G1 X128.172 Y54.64 Z-1.15 F1080
G1 X128.171 Y54.702 Z-1.153 F1080
G1 X128.161 Y54.763 Z-1.156 F1080
G1 X128.144 Y54.822 Z-1.159 F1080
G1 X128.119 Y54.878 Z-1.162 F1080
G1 X128.087 Y54.93 Z-1.165 F1080
G1 X128.049 Y54.978 Z-1.168 F1080
G1 X128.004 Y55.021 Z-1.171 F1080
G1 X127.955 Y55.057 Z-1.174 F1080
G1 X127.901 Y55.087 Z-1.177 F1080
G1 X127.844 Y55.109 Z-1.18 F1080
G1 X127.784 Y55.124 Z-1.183 F1080
G1 X127.723 Y55.131 Z-1.186 F1080
G1 X127.662 Y55.13 Z-1.189 F1080
G1 X127.601 Y55.121 Z-1.192 F1080
G1 X127.542 Y55.105 Z-1.195 F1080
G1 X127.485 Y55.08 Z-1.198 F1080
G1 X127.433 Y55.049 Z-1.201 F1080
G1 X127.384 Y55.011 Z-1.204 F1080
G1 X127.341 Y54.967 Z-1.207 F1080
G1 X127.305 Y54.918 Z-1.21 F1080
G1 X127.274 Y54.864 Z-1.213 F1080
G1 X127.251 Y54.807 Z-1.216 F1080
G1 X127.236 Y54.748 Z-1.219 F1080
G1 X127.228 Y54.687 Z-1.222 F1080
G1 X127.229 Y54.626 Z-1.225 F1080
G1 X127.237 Y54.565 Z-1.228 F1080
G1 X127.253 Y54.505 Z-1.231 F1080
G1 X127.277 Y54.449 Z-1.234 F1080
G1 X127.308 Y54.396 Z-1.236 F1080
G1 X127.345 Y54.347 Z-1.239 F1080
G1 X127.389 Y54.304 Z-1.242 F1080
G1 X127.438 Y54.266 Z-1.245 F1080
G1 X127.491 Y54.236 Z-1.248 F1080
G1 X127.548 Y54.212 Z-1.251 F1080
G1 X127.607 Y54.196 Z-1.254 F1080
G1 X127.668 Y54.188 Z-1.257 F1080
G1 X127.729 Z-1.26 F1080
G1 X127.79 Y54.195 Z-1.263 F1080
G1 X127.85 Y54.211 Z-1.266 F1080
G1 X127.907 Y54.234 Z-1.269 F1080
G1 X127.96 Y54.265 Z-1.272 F1080
G1 X128.009 Y54.302 Z-1.275 F1080
G1 X128.053 Y54.345 Z-1.278 F1080
G1 X128.091 Y54.393 Z-1.281 F1080
G1 X128.122 Y54.446 Z-1.284 F1080
G1 X128.146 Y54.503 Z-1.287 F1080
G1 X128.162 Y54.562 Z-1.29 F1080
G1 X128.171 Y54.623 Z-1.293 F1080
G1 X128.172 Y54.684 Z-1.296 F1080
G1 X128.165 Y54.745 Z-1.299 F1080
G1 X128.15 Y54.805 Z-1.302 F1080
G1 X128.127 Y54.862 Z-1.305 F1080
G1 X128.097 Y54.916 Z-1.308 F1080
G1 X128.06 Y54.965 Z-1.311 F1080
G1 X128.018 Y55.009 Z-1.314 F1080
G1 X127.97 Y55.047 Z-1.317 F1080
G1 X127.917 Y55.079 Z-1.32 F1080
G1 X127.861 Y55.104 Z-1.323 F1080
G1 X127.802 Y55.121 Z-1.326 F1080
G1 X127.741 Y55.13 Z-1.329 F1080
G1 X127.679 Y55.131 Z-1.332 F1080
G1 X127.618 Y55.125 Z-1.335 F1080
G1 X127.559 Y55.11 Z-1.338 F1080
G1 X127.501 Y55.088 Z-1.341 F1080
G1 X127.447 Y55.059 Z-1.344 F1080
G1 X127.398 Y55.022 Z-1.347 F1080
G1 X127.353 Y54.98 Z-1.35 F1080
G1 X127.314 Y54.932 Z-1.353 F1080
G1 X127.282 Y54.88 Z-1.356 F1080
G1 X127.257 Y54.824 Z-1.359 F1080
G1 X127.24 Y54.765 Z-1.362 F1080
G1 X127.23 Y54.705 Z-1.365 F1080
G1 X127.228 Y54.643 Z-1.368 F1080
G1 X127.234 Y54.582 Z-1.371 F1080
G1 X127.248 Y54.522 Z-1.374 F1080
G1 X127.269 Y54.465 Z-1.377 F1080
G1 X127.298 Y54.41 Z-1.379 F1080
G1 X127.334 Y54.36 Z-1.382 F1080
G1 X127.376 Y54.316 Z-1.385 F1080
G1 X127.423 Y54.276 Z-1.388 F1080
G1 X127.475 Y54.244 Z-1.391 F1080
G1 X127.531 Y54.218 Z-1.394 F1080
G1 X127.59 Y54.2 Z-1.397 F1080
G1 X127.65 Y54.189 Z-1.4 F1080
G1 X127.712 Y54.187 Z-1.403 F1080
G1 X127.773 Y54.192 Z-1.406 F1080
G1 X127.833 Y54.206 Z-1.409 F1080
G1 X127.891 Y54.227 Z-1.412 F1080
G1 X127.945 Y54.255 Z-1.415 F1080
G1 X127.995 Y54.29 Z-1.418 F1080
G1 X128.041 Y54.332 Z-1.421 F1080
G1 X128.08 Y54.379 Z-1.424 F1080
G1 X128.113 Y54.431 Z-1.427 F1080
G1 X128.14 Y54.486 Z-1.43 F1080
G1 X128.158 Y54.545 Z-1.433 F1080
G1 X128.169 Y54.605 Z-1.436 F1080
G1 X128.172 Y54.667 Z-1.439 F1080
G1 X128.168 Y54.728 Z-1.442 F1080
G1 X128.155 Y54.788 Z-1.445 F1080
G1 X128.134 Y54.846 Z-1.448 F1080
G1 X128.106 Y54.901 Z-1.451 F1080
G1 X128.072 Y54.951 Z-1.454 F1080
G1 X128.031 Y54.997 Z-1.457 F1080
G1 X127.984 Y55.037 Z-1.46 F1080
G1 X127.933 Y55.071 Z-1.463 F1080
G1 X127.877 Y55.097 Z-1.466 F1080
G1 X127.819 Y55.117 Z-1.469 F1080
G1 X127.759 Y55.128 Z-1.472 F1080
G1 X127.697 Y55.132 Z-1.475 F1080
G1 X127.636 Y55.127 Z-1.478 F1080
G1 X127.576 Y55.115 Z-1.481 F1080
G1 X127.518 Y55.095 Z-1.484 F1080
G1 X127.463 Y55.068 Z-1.487 F1080
G1 X127.412 Y55.034 Z-1.49 F1080
G1 X127.365 Y54.993 Z-1.493 F1080
G1 X127.325 Y54.947 Z-1.496 F1080
G1 X127.291 Y54.896 Z-1.499 F1080
G1 X127.264 Y54.841 Z-1.502 F1080
G1 X127.244 Y54.782 Z-1.505 F1080
G1 X127.232 Y54.722 Z-1.508 F1080
G1 X127.227 Y54.661 Z-1.511 F1080
G1 X127.231 Y54.6 Z-1.514 F1080
G1 X127.243 Y54.539 Z-1.517 F1080
G1 X127.262 Y54.481 Z-1.52 F1080
G1 X127.289 Y54.426 Z-1.523 F1080
G1 X127.323 Y54.374 Z-1.525 F1080
G1 X127.363 Y54.328 Z-1.528 F1080
G1 X127.409 Y54.287 Z-1.531 F1080
G1 X127.46 Y54.252 Z-1.534 F1080
G1 X127.515 Y54.225 Z-1.537 F1080
G1 X127.573 Y54.204 Z-1.54 F1080
G1 X127.633 Y54.192 Z-1.543 F1080
G1 X127.694 Y54.187 Z-1.546 F1080
G1 X127.755 Y54.19 Z-1.549 F1080
G1 X127.816 Y54.201 Z-1.552 F1080
G1 X127.874 Y54.22 Z-1.555 F1080
G1 X127.93 Y54.246 Z-1.558 F1080
G1 X127.981 Y54.28 Z-1.561 F1080
G1 X128.028 Y54.319 Z-1.564 F1080
G1 X128.07 Y54.365 Z-1.567 F1080
G1 X128.105 Y54.415 Z-1.57 F1080
G1 X128.133 Y54.47 Z-1.573 F1080
G1 X128.154 Y54.528 Z-1.576 F1080
G1 X128.167 Y54.588 Z-1.579 F1080
G1 X128.172 Y54.649 Z-1.582 F1080
G1 X128.17 Y54.71 Z-1.585 F1080
G1 X128.159 Y54.771 Z-1.588 F1080
G1 X128.141 Y54.829 Z-1.591 F1080
G1 X128.115 Y54.885 Z-1.594 F1080
G1 X128.082 Y54.937 Z-1.597 F1080
G1 X128.043 Y54.984 Z-1.6 F1080
G1 X127.998 Y55.026 Z-1.603 F1080
G1 X127.948 Y55.062 Z-1.606 F1080
G1 X127.893 Y55.09 Z-1.609 F1080
G1 X127.836 Y55.112 Z-1.612 F1080
G1 X127.776 Y55.126 Z-1.615 F1080
G1 X127.715 Y55.132 Z-1.618 F1080
G1 X127.654 Y55.13 Z-1.621 F1080
G1 X127.593 Y55.119 Z-1.624 F1080
G1 X127.534 Y55.102 Z-1.627 F1080
G1 X127.478 Y55.076 Z-1.63 F1080
G1 X127.426 Y55.044 Z-1.633 F1080
G1 X127.378 Y55.005 Z-1.636 F1080
G1 X127.336 Y54.961 Z-1.639 F1080
G1 X127.3 Y54.911 Z-1.642 F1080
G1 X127.271 Y54.857 Z-1.645 F1080
G1 X127.249 Y54.799 Z-1.648 F1080
G1 X127.234 Y54.74 Z-1.651 F1080
G1 X127.228 Y54.679 Z-1.654 F1080
G1 X127.229 Y54.617 Z-1.657 F1080
G1 X127.239 Y54.557 Z-1.66 F1080
G1 X127.256 Y54.498 Z-1.663 F1080
G1 X127.281 Y54.441 Z-1.666 F1080
G1 X127.313 Y54.389 Z-1.669 F1080
G1 X127.351 Y54.341 Z-1.671 F1080
G1 X127.395 Y54.298 Z-1.674 F1080
G1 X127.445 Y54.262 Z-1.677 F1080
G1 X127.498 Y54.232 Z-1.68 F1080
G1 X127.556 Y54.209 Z-1.683 F1080
G1 X127.615 Y54.194 Z-1.686 F1080
G1 X127.676 Y54.187 Z-1.689 F1080
G1 X127.738 Y54.188 Z-1.692 F1080
G1 X127.798 Y54.197 Z-1.695 F1080
G1 X127.858 Y54.214 Z-1.698 F1080
G1 X127.914 Y54.238 Z-1.701 F1080
G1 X127.967 Y54.269 Z-1.704 F1080
G1 X128.015 Y54.307 Z-1.707 F1080
G1 X128.058 Y54.351 Z-1.71 F1080
G1 X128.095 Y54.4 Z-1.713 F1080
G1 X128.125 Y54.454 Z-1.716 F1080
G1 X128.149 Y54.511 Z-1.719 F1080
G1 X128.164 Y54.57 Z-1.722 F1080
G1 X128.172 Y54.631 Z-1.725 F1080
G1 X128.171 Y54.693 Z-1.728 F1080
G1 X128.163 Y54.753 Z-1.731 F1080
G1 X128.147 Y54.813 Z-1.734 F1080
G1 X128.123 Y54.869 Z-1.737 F1080
G1 X128.092 Y54.923 Z-1.74 F1080
G1 X128.055 Y54.971 Z-1.743 F1080
G1 X128.011 Y55.015 Z-1.746 F1080
G1 X127.963 Y55.052 Z-1.749 F1080
G1 X127.91 Y55.083 Z-1.752 F1080
G1 X127.853 Y55.106 Z-1.755 F1080
G1 X127.793 Y55.122 Z-1.758 F1080
G1 X127.733 Y55.131 Z-1.761 F1080
G1 X127.671 Z-1.764 F1080
G1 X127.61 Y55.123 Z-1.767 F1080
G1 X127.551 Y55.108 Z-1.77 F1080
G1 X127.494 Y55.084 Z-1.773 F1080
G1 X127.44 Y55.054 Z-1.776 F1080
G1 X127.391 Y55.017 Z-1.779 F1080
G1 X127.348 Y54.974 Z-1.782 F1080
G1 X127.31 Y54.926 Z-1.785 F1080
G1 X127.278 Y54.873 Z-1.788 F1080
G1 X127.254 Y54.816 Z-1.791 F1080
G1 X127.238 Y54.757 Z-1.794 F1080
G1 X127.229 Y54.696 Z-1.797 F1080
G1 X127.228 Y54.635 Z-1.8 F1080
G1 X127.235 Y54.574 Z-1.803 F1080
G1 X127.25 Y54.514 Z-1.806 F1080
G1 X127.273 Y54.457 Z-1.809 F1080
G1 X127.303 Y54.403 Z-1.812 F1080
G1 X127.339 Y54.354 Z-1.815 F1080
G1 X127.382 Y54.31 Z-1.817 F1080
G1 X127.43 Y54.272 Z-1.82 F1080
G1 X127.483 Y54.24 Z-1.823 F1080
G1 X127.539 Y54.215 Z-1.826 F1080
G1 X127.598 Y54.198 Z-1.829 F1080
G1 X127.659 Y54.189 Z-1.832 F1080
G1 X127.72 Y54.187 Z-1.835 F1080
G1 X127.781 Y54.194 Z-1.838 F1080
G1 X127.841 Y54.208 Z-1.841 F1080
G1 X127.898 Y54.23 Z-1.844 F1080
G1 X127.952 Y54.26 Z-1.847 F1080
G1 X128.002 Y54.296 Z-1.85 F1080
G1 X128.046 Y54.338 Z-1.853 F1080
G1 X128.085 Y54.386 Z-1.856 F1080
G1 X128.117 Y54.438 Z-1.859 F1080
G1 X128.143 Y54.494 Z-1.862 F1080
G1 X128.16 Y54.553 Z-1.865 F1080
G1 X128.17 Y54.613 Z-1.868 F1080
G1 X128.172 Y54.675 Z-1.871 F1080
G1 X128.166 Y54.736 Z-1.874 F1080
G1 X128.152 Y54.796 Z-1.877 F1080
G1 X128.131 Y54.853 Z-1.88 F1080
G1 X128.102 Y54.908 Z-1.883 F1080
G1 X128.066 Y54.958 Z-1.886 F1080
G1 X128.025 Y55.003 Z-1.889 F1080
G1 X127.977 Y55.042 Z-1.892 F1080
G1 X127.925 Y55.075 Z-1.895 F1080
G1 X127.869 Y55.1 Z-1.898 F1080
G1 X127.811 Y55.119 Z-1.901 F1080
G1 X127.75 Y55.129 Z-1.904 F1080
G1 X127.689 Y55.132 Z-1.907 F1080
G1 X127.628 Y55.126 Z-1.91 F1080
G1 X127.568 Y55.113 Z-1.913 F1080
G1 X127.51 Y55.092 Z-1.916 F1080
G1 X127.455 Y55.064 Z-1.919 F1080
G1 X127.405 Y55.028 Z-1.922 F1080
G1 X127.36 Y54.987 Z-1.925 F1080
G1 X127.32 Y54.94 Z-1.928 F1080
G1 X127.287 Y54.888 Z-1.931 F1080
G1 X127.261 Y54.833 Z-1.934 F1080
G1 X127.242 Y54.774 Z-1.937 F1080
G1 X127.231 Y54.714 Z-1.94 F1080
G1 X127.228 Y54.653 Z-1.943 F1080
G1 X127.232 Y54.591 Z-1.946 F1080
G1 X127.245 Y54.531 Z-1.949 F1080
G1 X127.266 Y54.473 Z-1.952 F1080
G1 X127.293 Y54.419 Z-1.955 F1080
G1 X127.328 Y54.368 Z-1.958 F1080
G1 X127.369 Y54.322 Z-1.96 F1080
G1 X127.416 Y54.282 Z-1.963 F1080
G1 X127.467 Y54.248 Z-1.966 F1080
G1 X127.522 Y54.221 Z-1.969 F1080
G1 X127.581 Y54.202 Z-1.972 F1080
G1 X127.641 Y54.19 Z-1.975 F1080
G1 X127.702 Y54.187 Z-1.978 F1080
G1 X127.764 Y54.191 Z-1.981 F1080
G1 X127.824 Y54.203 Z-1.984 F1080
G1 X127.882 Y54.223 Z-1.987 F1080
G1 X127.937 Y54.25 Z-1.99 F1080
G1 X127.988 Y54.285 Z-1.993 F1080
G1 X128.034 Y54.325 Z-1.996 F1080
G1 X128.075 Y54.371 Z-1.999 F1080
G1 X128.109 Y54.422 Z-2.002 F1080
G1 X128.136 Y54.477 Z-2.005 F1080
G1 X128.156 Y54.536 Z-2.008 F1080
G1 X128.168 Y54.596 Z-2.011 F1080
G1 X128.172 Y54.657 Z-2.014 F1080
G1 X128.169 Y54.718 Z-2.017 F1080
G1 X128.157 Y54.779 Z-2.02 F1080
G1 X128.138 Y54.837 Z-2.023 F1080
G1 X128.111 Y54.892 Z-2.026 F1080
G1 X128.077 Y54.944 Z-2.029 F1080
G1 X128.037 Y54.99 Z-2.032 F1080
G1 X127.991 Y55.031 Z-2.035 F1080
G1 X127.941 Y55.066 Z-2.038 F1080
G1 X127.886 Y55.094 Z-2.041 F1080
G1 X127.828 Y55.114 Z-2.044 F1080
G1 X127.768 Y55.127 Z-2.047 F1080
G1 X127.707 Y55.132 Z-2.05 F1080
G1 X127.645 Y55.129 Z-2.053 F1080
G1 X127.585 Y55.118 Z-2.056 F1080
G1 X127.526 Y55.099 Z-2.059 F1080
G1 X127.471 Y55.072 Z-2.062 F1080
G1 X127.419 Y55.039 Z-2.065 F1080
G1 X127.372 Y55 Z-2.068 F1080
G1 X127.331 Y54.954 Z-2.071 F1080
G1 X127.296 Y54.904 Z-2.074 F1080
G1 X127.267 Y54.849 Z-2.077 F1080
G1 X127.246 Y54.791 Z-2.08 F1080
G1 X127.233 Y54.732 Z-2.083 F1080
G1 X127.228 Y54.67 Z-2.086 F1080
G1 X127.23 Y54.609 Z-2.089 F1080
G1 X127.241 Y54.548 Z-2.092 F1080
G1 X127.259 Y54.49 Z-2.095 F1080
G1 X127.285 Y54.434 Z-2.098 F1080
G1 X127.317 Y54.382 Z-2.101 F1080
G1 X127.357 Y54.335 Z-2.104 F1080
G1 X127.402 Y54.293 Z-2.106 F1080
G1 X127.452 Y54.257 Z-2.109 F1080
G1 X127.506 Y54.228 Z-2.112 F1080
G1 X127.564 Y54.207 Z-2.115 F1080
G1 X127.623 Y54.193 Z-2.118 F1080
G1 X127.685 Y54.187 Z-2.121 F1080
G1 X127.746 Y54.189 Z-2.124 F1080
G1 X127.807 Y54.199 Z-2.127 F1080
G1 X127.865 Y54.217 Z-2.13 F1080
G1 X127.921 Y54.242 Z-2.133 F1080
G1 X127.974 Y54.274 Z-2.136 F1080
G1 X128.021 Y54.313 Z-2.139 F1080
G1 X128.064 Y54.358 Z-2.142 F1080
G1 X128.1 Y54.407 Z-2.145 F1080
G1 X128.129 Y54.461 Z-2.148 F1080
G1 X128.151 Y54.519 Z-2.151 F1080
G1 X128.166 Y54.578 Z-2.154 F1080
G1 X128.172 Y54.639 Z-2.157 F1080
G1 X128.171 Y54.701 Z-2.16 F1080
G1 X128.161 Y54.762 Z-2.163 F1080
G1 X128.144 Y54.821 Z-2.166 F1080
G1 X128.119 Y54.877 Z-2.169 F1080
G1 X128.088 Y54.929 Z-2.172 F1080
G1 X128.049 Y54.977 Z-2.175 F1080
G1 X128.005 Y55.02 Z-2.178 F1080
G1 X127.956 Y55.057 Z-2.181 F1080
G1 X127.902 Y55.086 Z-2.184 F1080
G1 X127.845 Y55.109 Z-2.187 F1080
G1 X127.785 Y55.124 Z-2.19 F1080
G1 X127.724 Y55.131 Z-2.193 F1080
G1 X127.663 Y55.13 Z-2.196 F1080
G1 X127.602 Y55.122 Z-2.199 F1080
G1 X127.543 Y55.105 Z-2.202 F1080
G1 X127.486 Y55.081 Z-2.205 F1080
G1 X127.434 Y55.049 Z-2.208 F1080
G1 X127.385 Y55.012 Z-2.211 F1080
G1 X127.342 Y54.968 Z-2.214 F1080
G1 X127.305 Y54.919 Z-2.217 F1080
G1 X127.275 Y54.865 Z-2.22 F1080
G1 X127.252 Y54.808 Z-2.223 F1080
G1 X127.236 Y54.749 Z-2.226 F1080
G1 X127.228 Y54.688 Z-2.229 F1080
G1 X127.229 Y54.627 Z-2.232 F1080
G1 X127.237 Y54.566 Z-2.235 F1080
G1 X127.253 Y54.506 Z-2.238 F1080
G1 X127.277 Y54.45 Z-2.241 F1080
G1 X127.307 Y54.397 Z-2.244 F1080
G1 X127.345 Y54.348 Z-2.247 F1080
G1 X127.388 Y54.304 Z-2.25 F1080
G1 X127.437 Y54.267 Z-2.252 F1080
G1 X127.49 Y54.236 Z-2.255 F1080
G1 X127.547 Y54.212 Z-2.258 F1080
G1 X127.606 Y54.196 Z-2.261 F1080
G1 X127.667 Y54.188 Z-2.264 F1080
G1 X127.728 Z-2.267 F1080
G1 X127.789 Y54.195 Z-2.27 F1080
G1 X127.849 Y54.211 Z-2.273 F1080
G1 X127.906 Y54.234 Z-2.276 F1080
G1 X127.959 Y54.264 Z-2.279 F1080
G1 X128.008 Y54.301 Z-2.282 F1080
G1 X128.052 Y54.344 Z-2.285 F1080
G1 X128.09 Y54.392 Z-2.288 F1080
G1 X128.121 Y54.445 Z-2.291 F1080
G1 X128.145 Y54.502 Z-2.294 F1080
G1 X128.162 Y54.561 Z-2.297 F1080
G1 X128.171 Y54.622 Z-2.3 F1080
G1 X128.172 Y54.683 Z-2.303 F1080
G1 X128.165 Y54.744 Z-2.306 F1080
G1 X128.15 Y54.804 Z-2.309 F1080
G1 X128.127 Y54.861 Z-2.312 F1080
G1 X128.098 Y54.915 Z-2.315 F1080
G1 X128.061 Y54.964 Z-2.318 F1080
G1 X128.018 Y55.008 Z-2.321 F1080
G1 X127.97 Y55.047 Z-2.324 F1080
G1 X127.918 Y55.079 Z-2.327 F1080
G1 X127.862 Y55.103 Z-2.33 F1080
G1 X127.803 Y55.12 Z-2.333 F1080
G1 X127.742 Y55.13 Z-2.336 F1080
G1 X127.681 Y55.131 Z-2.339 F1080
G1 X127.619 Y55.125 Z-2.342 F1080
G1 X127.56 Y55.11 Z-2.345 F1080
G1 X127.502 Y55.088 Z-2.348 F1080
G1 X127.448 Y55.059 Z-2.351 F1080
G1 X127.399 Y55.023 Z-2.354 F1080
G1 X127.354 Y54.981 Z-2.357 F1080
G1 X127.315 Y54.933 Z-2.36 F1080
G1 X127.283 Y54.881 Z-2.363 F1080
G1 X127.258 Y54.825 Z-2.366 F1080
G1 X127.24 Y54.766 Z-2.369 F1080
G1 X127.23 Y54.706 Z-2.372 F1080
G1 X127.228 Y54.644 Z-2.375 F1080
G1 X127.234 Y54.583 Z-2.378 F1080
G1 X127.247 Y54.523 Z-2.381 F1080
G1 X127.269 Y54.466 Z-2.384 F1080
G1 X127.298 Y54.411 Z-2.387 F1080
G1 X127.333 Y54.361 Z-2.39 F1080
G1 X127.375 Y54.316 Z-2.393 F1080
G1 X127.422 Y54.277 Z-2.395 F1080
G1 X127.474 Y54.244 Z-2.398 F1080
G1 X127.53 Y54.218 Z-2.401 F1080
G1 X127.589 Y54.2 Z-2.404 F1080
G1 X127.649 Y54.19 Z-2.407 F1080
G1 X127.711 Y54.187 Z-2.41 F1080
G1 X127.772 Y54.192 Z-2.413 F1080
G1 X127.832 Y54.206 Z-2.416 F1080
G1 X127.89 Y54.226 Z-2.419 F1080
G1 X127.944 Y54.255 Z-2.422 F1080
G1 X127.995 Y54.29 Z-2.425 F1080
G1 X128.04 Y54.331 Z-2.428 F1080
G1 X128.08 Y54.378 Z-2.431 F1080
G1 X128.113 Y54.43 Z-2.434 F1080
G1 X128.139 Y54.485 Z-2.437 F1080
G1 X128.158 Y54.544 Z-2.44 F1080
G1 X128.169 Y54.604 Z-2.443 F1080
G1 X128.172 Y54.665 Z-2.446 F1080
G1 X128.168 Y54.727 Z-2.449 F1080
G1 X128.155 Y54.787 Z-2.452 F1080
G1 X128.135 Y54.845 Z-2.455 F1080
G1 X128.107 Y54.9 Z-2.458 F1080
G1 X128.072 Y54.95 Z-2.461 F1080
G1 X128.031 Y54.996 Z-2.464 F1080
G1 X127.985 Y55.036 Z-2.467 F1080
G1 X127.933 Y55.07 Z-2.47 F1080
G1 X127.878 Y55.097 Z-2.473 F1080
G1 X127.82 Y55.116 Z-2.476 F1080
G1 X127.76 Y55.128 Z-2.479 F1080
G1 X127.698 Y55.132 Z-2.482 F1080
G1 X127.637 Y55.128 Z-2.485 F1080
G1 X127.577 Y55.115 Z-2.488 F1080
G1 X127.519 Y55.096 Z-2.491 F1080
G1 X127.464 Y55.068 Z-2.494 F1080
G1 X127.412 Y55.034 Z-2.497 F1080
G1 X127.366 Y54.994 Z-2.5 F1080
G1 X127.326 Y54.948 Z-2.503 F1080
G1 X127.291 Y54.897 Z-2.506 F1080
G1 X127.264 Y54.842 Z-2.509 F1080
G1 X127.244 Y54.783 Z-2.512 F1080
G1 X127.232 Y54.723 Z-2.515 F1080
G1 X127.228 Y54.662 Z-2.518 F1080
G1 X127.231 Y54.601 Z-2.521 F1080
G1 X127.243 Y54.54 Z-2.524 F1080
G1 X127.262 Y54.482 Z-2.527 F1080
G1 X127.289 Y54.427 Z-2.53 F1080
G1 X127.322 Y54.375 Z-2.533 F1080
G1 X127.362 Y54.329 Z-2.536 F1080
G1 X127.408 Y54.288 Z-2.539 F1080
G1 X127.459 Y54.253 Z-2.541 F1080
G1 X127.514 Y54.225 Z-2.544 F1080
G1 X127.572 Y54.205 Z-2.547 F1080
G1 X127.632 Y54.192 Z-2.55 F1080
G1 X127.693 Y54.187 Z-2.553 F1080
G1 X127.754 Y54.19 Z-2.556 F1080
G1 X127.815 Y54.201 Z-2.559 F1080
G1 X127.873 Y54.22 Z-2.562 F1080
G1 X127.929 Y54.246 Z-2.565 F1080
G1 X127.98 Y54.279 Z-2.568 F1080
G1 X128.027 Y54.319 Z-2.571 F1080
G1 X128.069 Y54.364 Z-2.574 F1080
G1 X128.104 Y54.414 Z-2.577 F1080
G1 X128.132 Y54.469 Z-2.58 F1080
G1 X128.153 Y54.527 Z-2.583 F1080
G1 X128.167 Y54.587 Z-2.586 F1080
G1 X128.172 Y54.648 Z-2.589 F1080
G1 X128.17 Y54.709 Z-2.592 F1080
G1 X128.159 Y54.77 Z-2.595 F1080
G1 X128.141 Y54.828 Z-2.598 F1080
G1 X128.116 Y54.884 Z-2.601 F1080
G1 X128.083 Y54.936 Z-2.604 F1080
G1 X128.044 Y54.984 Z-2.607 F1080
G1 X127.999 Y55.025 Z-2.61 F1080
G1 X127.949 Y55.061 Z-2.613 F1080
G1 X127.894 Y55.09 Z-2.616 F1080
G1 X127.837 Y55.112 Z-2.619 F1080
G1 X127.777 Y55.125 Z-2.622 F1080
G1 X127.716 Y55.132 Z-2.625 F1080
G1 X127.655 Y55.13 Z-2.628 F1080
G1 X127.594 Y55.12 Z-2.631 F1080
G1 X127.535 Y55.102 Z-2.634 F1080
G1 X127.479 Y55.077 Z-2.637 F1080
G1 X127.427 Y55.045 Z-2.64 F1080
G1 X127.379 Y55.006 Z-2.643 F1080
G1 X127.337 Y54.961 Z-2.646 F1080
G1 X127.301 Y54.912 Z-2.649 F1080
G1 X127.271 Y54.858 Z-2.652 F1080
G1 X127.249 Y54.8 Z-2.655 F1080
G1 X127.235 Y54.741 Z-2.658 F1080
G1 X127.228 Y54.68 Z-2.661 F1080
G1 X127.229 Y54.618 Z-2.664 F1080
G1 X127.239 Y54.558 Z-2.667 F1080
G1 X127.256 Y54.499 Z-2.67 F1080
G1 X127.28 Y54.442 Z-2.673 F1080
G1 X127.312 Y54.39 Z-2.676 F1080
G1 X127.35 Y54.342 Z-2.679 F1080
G1 X127.394 Y54.299 Z-2.682 F1080
G1 X127.444 Y54.262 Z-2.685 F1080
G1 X127.497 Y54.232 Z-2.687 F1080
G1 X127.555 Y54.21 Z-2.69 F1080
G1 X127.614 Y54.195 Z-2.693 F1080
G1 X127.675 Y54.187 Z-2.696 F1080
G1 X127.737 Y54.188 Z-2.699 F1080
G1 X127.797 Y54.197 Z-2.702 F1080
G1 X127.857 Y54.213 Z-2.705 F1080
G1 X127.913 Y54.238 Z-2.708 F1080
G1 X127.966 Y54.269 Z-2.711 F1080
G1 X128.014 Y54.307 Z-2.714 F1080
G1 X128.058 Y54.35 Z-2.717 F1080
G1 X128.095 Y54.399 Z-2.72 F1080
G1 X128.125 Y54.453 Z-2.723 F1080
G1 X128.148 Y54.51 Z-2.726 F1080
G1 X128.164 Y54.569 Z-2.729 F1080
G1 X128.172 Y54.63 Z-2.732 F1080
G1 X128.171 Y54.691 Z-2.735 F1080
G1 X128.163 Y54.752 Z-2.738 F1080
G1 X128.147 Y54.812 Z-2.741 F1080
G1 X128.124 Y54.868 Z-2.744 F1080
G1 X128.093 Y54.922 Z-2.747 F1080
G1 X128.056 Y54.97 Z-2.75 F1080
G1 X128.012 Y55.014 Z-2.753 F1080
G1 X127.964 Y55.051 Z-2.756 F1080
G1 X127.91 Y55.082 Z-2.759 F1080
G1 X127.854 Y55.106 Z-2.762 F1080
G1 X127.795 Y55.122 Z-2.765 F1080
G1 X127.734 Y55.131 Z-2.768 F1080
G1 X127.672 Z-2.771 F1080
G1 X127.611 Y55.123 Z-2.774 F1080
G1 X127.552 Y55.108 Z-2.777 F1080
G1 X127.495 Y55.085 Z-2.78 F1080
G1 X127.441 Y55.055 Z-2.783 F1080
G1 X127.392 Y55.018 Z-2.786 F1080
G1 X127.348 Y54.975 Z-2.789 F1080
G1 X127.31 Y54.927 Z-2.792 F1080
G1 X127.279 Y54.874 Z-2.795 F1080
G1 X127.255 Y54.817 Z-2.798 F1080
G1 X127.238 Y54.758 Z-2.801 F1080
G1 X127.229 Y54.697 Z-2.804 F1080
G1 X127.228 Y54.636 Z-2.807 F1080
G1 X127.235 Y54.575 Z-2.81 F1080
G1 X127.25 Y54.515 Z-2.813 F1080
G1 X127.272 Y54.458 Z-2.816 F1080
G1 X127.302 Y54.404 Z-2.819 F1080
G1 X127.339 Y54.355 Z-2.822 F1080
G1 X127.381 Y54.311 Z-2.825 F1080
G1 X127.429 Y54.272 Z-2.828 F1080
G1 X127.482 Y54.24 Z-2.831 F1080
G1 X127.538 Y54.215 Z-2.833 F1080
G1 X127.597 Y54.198 Z-2.836 F1080
G1 X127.657 Y54.189 Z-2.839 F1080
G1 X127.719 Y54.187 Z-2.842 F1080
G1 X127.78 Y54.194 Z-2.845 F1080
G1 X127.84 Y54.208 Z-2.848 F1080
G1 X127.897 Y54.23 Z-2.851 F1080
G1 X127.951 Y54.259 Z-2.854 F1080
G1 X128.001 Y54.295 Z-2.857 F1080
G1 X128.046 Y54.337 Z-2.86 F1080
G1 X128.085 Y54.385 Z-2.863 F1080
G1 X128.117 Y54.437 Z-2.866 F1080
G1 X128.142 Y54.493 Z-2.869 F1080
G1 X128.16 Y54.552 Z-2.872 F1080
G1 X128.17 Y54.612 Z-2.875 F1080
G1 X128.172 Y54.674 Z-2.878 F1080
G1 X128.166 Y54.735 Z-2.881 F1080
G1 X128.153 Y54.795 Z-2.884 F1080
G1 X128.131 Y54.852 Z-2.887 F1080
G1 X128.103 Y54.907 Z-2.89 F1080
G1 X128.067 Y54.957 Z-2.893 F1080
G1 X128.025 Y55.002 Z-2.896 F1080
G1 X127.978 Y55.041 Z-2.899 F1080
G1 X127.926 Y55.074 Z-2.902 F1080
G1 X127.87 Y55.1 Z-2.905 F1080
G1 X127.812 Y55.118 Z-2.908 F1080
G1 X127.751 Y55.129 Z-2.911 F1080
G1 X127.69 Y55.132 Z-2.914 F1080
G1 X127.629 Y55.126 Z-2.917 F1080
G1 X127.569 Y55.113 Z-2.92 F1080
G1 X127.511 Y55.092 Z-2.923 F1080
G1 X127.456 Y55.064 Z-2.926 F1080
G1 X127.406 Y55.029 Z-2.929 F1080
G1 X127.36 Y54.988 Z-2.932 F1080
G1 X127.321 Y54.941 Z-2.935 F1080
G1 X127.287 Y54.889 Z-2.938 F1080
G1 X127.261 Y54.834 Z-2.941 F1080
G1 X127.242 Y54.775 Z-2.944 F1080
G1 X127.231 Y54.715 Z-2.947 F1080
G1 X127.228 Y54.654 Z-2.95 F1080
G1 X127.232 Y54.592 Z-2.953 F1080
G1 X127.245 Y54.532 Z-2.956 F1080
G1 X127.265 Y54.474 Z-2.959 F1080
G1 X127.293 Y54.419 Z-2.962 F1080
G1 X127.327 Y54.369 Z-2.965 F1080
G1 X127.368 Y54.323 Z-2.968 F1080
G1 X127.415 Y54.283 Z-2.971 F1080
G1 X127.466 Y54.249 Z-2.974 F1080
G1 X127.521 Y54.222 Z-2.976 F1080
G1 X127.58 Y54.202 Z-2.979 F1080
G1 X127.64 Y54.191 Z-2.982 F1080
G1 X127.701 Y54.187 Z-2.985 F1080
G1 X127.762 Y54.191 Z-2.988 F1080
G1 X127.823 Y54.203 Z-2.991 F1080
G1 X127.881 Y54.223 Z-2.994 F1080
G1 X127.936 Y54.25 Z-2.997 F1080
G1 X127.987 Y54.284 Z-3 F1080
G1 X128.033 Y54.324 Z-3.003 F1080
G1 X128.074 Y54.371 Z-3.006 F1080
G1 X128.108 Y54.422 Z-3.009 F1080
G1 X128.136 Y54.476 Z-3.012 F1080
G1 X128.156 Y54.535 Z-3.015 F1080
G1 X128.168 Y54.595 Z-3.018 F1080
G1 X128.172 Y54.656 Z-3.021 F1080
G1 X128.169 Y54.717 Z-3.024 F1080
G1 X128.157 Y54.778 Z-3.027 F1080
G1 X128.138 Y54.836 Z-3.03 F1080
G1 X128.112 Y54.891 Z-3.033 F1080
G1 X128.078 Y54.943 Z-3.036 F1080
G1 X128.038 Y54.99 Z-3.039 F1080
G1 X127.992 Y55.031 Z-3.042 F1080
G1 X127.942 Y55.065 Z-3.045 F1080
G1 X127.887 Y55.093 Z-3.048 F1080
G1 X127.829 Y55.114 Z-3.051 F1080
G1 X127.769 Y55.127 Z-3.054 F1080
G1 X127.708 Y55.132 Z-3.057 F1080
G1 X127.646 Y55.129 Z-3.06 F1080
G1 X127.586 Y55.118 Z-3.063 F1080
G1 X127.527 Y55.099 Z-3.066 F1080
G1 X127.472 Y55.073 Z-3.069 F1080
G1 X127.42 Y55.04 Z-3.072 F1080
G1 X127.373 Y55 Z-3.075 F1080
G1 X127.331 Y54.955 Z-3.078 F1080
G1 X127.296 Y54.905 Z-3.081 F1080
G1 X127.268 Y54.85 Z-3.084 F1080
G1 X127.247 Y54.793 Z-3.087 F1080
G1 X127.233 Y54.733 Z-3.09 F1080
G1 X127.228 Y54.671 Z-3.093 F1080
G1 X127.23 Y54.61 Z-3.096 F1080
G1 X127.24 Y54.549 Z-3.099 F1080
G1 X127.259 Y54.491 Z-3.102 F1080
G1 X127.284 Y54.435 Z-3.105 F1080
G1 X127.317 Y54.383 Z-3.108 F1080
G1 X127.356 Y54.335 Z-3.111 F1080
G1 X127.401 Y54.294 Z-3.114 F1080
G1 X127.451 Y54.258 Z-3.117 F1080
G1 X127.505 Y54.229 Z-3.12 F1080
G1 X127.563 Y54.207 Z-3.122 F1080
G1 X127.622 Y54.193 Z-3.125 F1080
G1 X127.683 Y54.187 Z-3.128 F1080
G1 X127.745 Y54.189 Z-3.131 F1080
G1 X127.806 Y54.199 Z-3.134 F1080
G1 X127.864 Y54.216 Z-3.137 F1080
G1 X127.92 Y54.241 Z-3.14 F1080
G1 X127.973 Y54.274 Z-3.143 F1080
G1 X128.021 Y54.312 Z-3.146 F1080
G1 X128.063 Y54.357 Z-3.149 F1080
G1 X128.099 Y54.406 Z-3.152 F1080
G1 X128.129 Y54.46 Z-3.155 F1080
G1 X128.151 Y54.518 Z-3.158 F1080
G1 X128.165 Y54.577 Z-3.161 F1080
G1 X128.172 Y54.638 Z-3.164 F1080
G1 X128.171 Y54.7 Z-3.167 F1080
G1 X128.162 Y54.76 Z-3.17 F1080
G1 X128.145 Y54.82 Z-3.173 F1080
G1 X128.12 Y54.876 Z-3.176 F1080
G1 X128.088 Y54.928 Z-3.179 F1080
G1 X128.05 Y54.977 Z-3.182 F1080
G1 X128.006 Y55.019 Z-3.185 F1080
G1 X127.957 Y55.056 Z-3.188 F1080
G1 X127.903 Y55.086 Z-3.191 F1080
G1 X127.846 Y55.109 Z-3.194 F1080
G1 X127.786 Y55.124 Z-3.197 F1080
G1 X127.725 Y55.131 Z-3.2 F1080
G1 X127.664 Y55.13 Z-3.203 F1080
G1 X127.603 Y55.122 Z-3.206 F1080
G1 X127.544 Y55.105 Z-3.209 F1080
G1 X127.487 Y55.081 Z-3.212 F1080
G1 X127.434 Y55.05 Z-3.215 F1080
G1 X127.386 Y55.012 Z-3.218 F1080
G1 X127.343 Y54.969 Z-3.221 F1080
G1 X127.306 Y54.92 Z-3.224 F1080
G1 X127.275 Y54.866 Z-3.227 F1080
G1 X127.252 Y54.809 Z-3.23 F1080
G1 X127.236 Y54.75 Z-3.233 F1080
G1 X127.228 Y54.689 Z-3.236 F1080
G1 X127.229 Y54.628 Z-3.239 F1080
G1 X127.237 Y54.567 Z-3.242 F1080
G1 X127.253 Y54.507 Z-3.245 F1080
G1 X127.276 Y54.451 Z-3.248 F1080
G1 X127.307 Y54.397 Z-3.251 F1080
G1 X127.344 Y54.349 Z-3.254 F1080
G1 X127.387 Y54.305 Z-3.257 F1080
G1 X127.436 Y54.267 Z-3.26 F1080
G1 X127.489 Y54.237 Z-3.263 F1080
G1 X127.546 Y54.213 Z-3.266 F1080
G1 X127.605 Y54.196 Z-3.268 F1080
G1 X127.666 Y54.188 Z-3.271 F1080
G1 X127.727 Z-3.274 F1080
G1 X127.788 Y54.195 Z-3.277 F1080
G1 X127.848 Y54.21 Z-3.28 F1080
G1 X127.905 Y54.233 Z-3.283 F1080
G1 X127.958 Y54.264 Z-3.286 F1080
G1 X128.007 Y54.3 Z-3.289 F1080
G1 X128.051 Y54.343 Z-3.292 F1080
G1 X128.089 Y54.392 Z-3.295 F1080
G1 X128.121 Y54.444 Z-3.298 F1080
G1 X128.145 Y54.501 Z-3.301 F1080
G1 X128.162 Y54.56 Z-3.304 F1080
G1 X128.171 Y54.621 Z-3.307 F1080
G1 X128.172 Y54.682 Z-3.31 F1080
G1 X128.165 Y54.743 Z-3.313 F1080
G1 X128.15 Y54.803 Z-3.316 F1080
G1 X128.128 Y54.86 Z-3.319 F1080
G1 X128.098 Y54.914 Z-3.322 F1080
G1 X128.062 Y54.963 Z-3.325 F1080
G1 X128.019 Y55.008 Z-3.328 F1080
G1 X127.971 Y55.046 Z-3.331 F1080
G1 X127.919 Y55.078 Z-3.334 F1080
G1 X127.863 Y55.103 Z-3.337 F1080
G1 X127.804 Y55.12 Z-3.34 F1080
G1 X127.743 Y55.13 Z-3.343 F1080
G1 X127.682 Y55.131 Z-3.346 F1080
G1 X127.621 Y55.125 Z-3.349 F1080
G1 X127.561 Y55.111 Z-3.352 F1080
G1 X127.503 Y55.089 Z-3.355 F1080
G1 X127.449 Y55.06 Z-3.358 F1080
G1 X127.399 Y55.024 Z-3.361 F1080
G1 X127.355 Y54.982 Z-3.364 F1080
G1 X127.316 Y54.934 Z-3.367 F1080
G1 X127.283 Y54.882 Z-3.37 F1080
G1 X127.258 Y54.826 Z-3.373 F1080
G1 X127.24 Y54.767 Z-3.376 F1080
G1 X127.23 Y54.707 Z-3.379 F1080
G1 X127.228 Y54.645 Z-3.382 F1080
G1 X127.233 Y54.584 Z-3.385 F1080
G1 X127.247 Y54.524 Z-3.388 F1080
G1 X127.269 Y54.467 Z-3.391 F1080
G1 X127.297 Y54.412 Z-3.394 F1080
G1 X127.333 Y54.362 Z-3.397 F1080
G1 X127.374 Y54.317 Z-3.4 F1080
G1 X127.421 Y54.278 Z-3.403 F1080
G1 X127.473 Y54.245 Z-3.406 F1080
G1 X127.529 Y54.219 Z-3.409 F1080
G1 X127.588 Y54.2 Z-3.411 F1080
G1 X127.648 Y54.19 Z-3.414 F1080
G1 X127.709 Y54.187 Z-3.417 F1080
G1 X127.771 Y54.192 Z-3.42 F1080
G1 X127.831 Y54.205 Z-3.423 F1080
G1 X127.889 Y54.226 Z-3.426 F1080
G1 X127.943 Y54.254 Z-3.429 F1080
G1 X127.994 Y54.289 Z-3.432 F1080
G1 X128.039 Y54.33 Z-3.435 F1080
G1 X128.079 Y54.377 Z-3.438 F1080
G1 X128.112 Y54.429 Z-3.441 F1080
G1 X128.139 Y54.484 Z-3.444 F1080
G1 X128.158 Y54.543 Z-3.447 F1080
G1 X128.169 Y54.603 Z-3.45 F1080
G1 X128.172 Y54.664 Z-3.453 F1080
G1 X128.168 Y54.726 Z-3.456 F1080
G1 X128.155 Y54.786 Z-3.459 F1080
G1 X128.135 Y54.844 Z-3.462 F1080
G1 X128.107 Y54.899 Z-3.465 F1080
G1 X128.073 Y54.949 Z-3.468 F1080
G1 X128.032 Y54.995 Z-3.471 F1080
G1 X127.986 Y55.036 Z-3.474 F1080
G1 X127.934 Y55.07 Z-3.477 F1080
G1 X127.879 Y55.096 Z-3.48 F1080
G1 X127.821 Y55.116 Z-3.483 F1080
G1 X127.761 Y55.128 Z-3.486 F1080
G1 X127.699 Y55.132 Z-3.489 F1080
G1 X127.638 Y55.128 Z-3.492 F1080
G1 X127.578 Y55.116 Z-3.495 F1080
G1 X127.52 Y55.096 Z-3.498 F1080
G1 X127.464 Y55.069 Z-3.501 F1080
G1 X127.413 Y55.035 Z-3.504 F1080
G1 X127.367 Y54.995 Z-3.507 F1080
G1 X127.326 Y54.948 Z-3.51 F1080
G1 X127.292 Y54.898 Z-3.513 F1080
G1 X127.264 Y54.843 Z-3.516 F1080
G1 X127.244 Y54.785 Z-3.519 F1080
G1 X127.232 Y54.724 Z-3.522 F1080
G1 X127.228 Y54.663 Z-3.525 F1080
G1 X127.231 Y54.602 Z-3.528 F1080
G1 X127.242 Y54.541 Z-3.531 F1080
G1 X127.262 Y54.483 Z-3.534 F1080
G1 X127.288 Y54.428 Z-3.537 F1080
G1 X127.322 Y54.376 Z-3.54 F1080
G1 X127.362 Y54.329 Z-3.543 F1080
G1 X127.407 Y54.288 Z-3.546 F1080
G1 X127.458 Y54.254 Z-3.549 F1080
G1 X127.513 Y54.226 Z-3.552 F1080
G1 X127.57 Y54.205 Z-3.555 F1080
G1 X127.631 Y54.192 Z-3.557 F1080
G1 X127.692 Y54.187 Z-3.56 F1080
G1 X127.753 Y54.19 Z-3.563 F1080
G1 X127.814 Y54.201 Z-3.566 F1080
G1 X127.872 Y54.219 Z-3.569 F1080
G1 X127.928 Y54.245 Z-3.572 F1080
G1 X127.98 Y54.278 Z-3.575 F1080
G1 X128.027 Y54.318 Z-3.578 F1080
G1 X128.068 Y54.363 Z-3.581 F1080
G1 X128.103 Y54.413 Z-3.584 F1080
G1 X128.132 Y54.468 Z-3.587 F1080
G1 X128.153 Y54.526 Z-3.59 F1080
G1 X128.167 Y54.585 Z-3.593 F1080
G1 X128.172 Y54.647 Z-3.596 F1080
G1 X128.17 Y54.708 Z-3.599 F1080
G1 X128.16 Y54.769 Z-3.602 F1080
G1 X128.142 Y54.827 Z-3.605 F1080
G1 X128.116 Y54.883 Z-3.608 F1080
G1 X128.084 Y54.935 Z-3.611 F1080
G1 X128.044 Y54.983 Z-3.614 F1080
G1 X128 Y55.025 Z-3.617 F1080
G1 X127.95 Y55.06 Z-3.62 F1080
G1 X127.895 Y55.089 Z-3.623 F1080
G1 X127.838 Y55.111 Z-3.626 F1080
G1 X127.778 Y55.125 Z-3.629 F1080
G1 X127.717 Y55.131 Z-3.632 F1080
G1 X127.656 Y55.13 Z-3.635 F1080
G1 X127.595 Y55.12 Z-3.638 F1080
G1 X127.536 Y55.102 Z-3.641 F1080
G1 X127.48 Y55.077 Z-3.644 F1080
G1 X127.428 Y55.045 Z-3.647 F1080
G1 X127.38 Y55.007 Z-3.65 F1080
G1 X127.337 Y54.962 Z-3.653 F1080
G1 X127.301 Y54.913 Z-3.656 F1080
G1 X127.272 Y54.859 Z-3.659 F1080
G1 X127.249 Y54.802 Z-3.662 F1080
G1 X127.235 Y54.742 Z-3.665 F1080
G1 X127.228 Y54.681 Z-3.668 F1080
G1 X127.229 Y54.619 Z-3.671 F1080
G1 X127.238 Y54.559 Z-3.674 F1080
G1 X127.255 Y54.5 Z-3.677 F1080
G1 X127.28 Y54.443 Z-3.68 F1080
G1 X127.311 Y54.391 Z-3.683 F1080
G1 X127.35 Y54.342 Z-3.686 F1080
G1 X127.394 Y54.3 Z-3.689 F1080
G1 X127.443 Y54.263 Z-3.692 F1080
G1 X127.496 Y54.233 Z-3.695 F1080
G1 X127.554 Y54.21 Z-3.698 F1080
G1 X127.613 Y54.195 Z-3.701 F1080
G1 X127.674 Y54.187 Z-3.703 F1080
G1 X127.735 Y54.188 Z-3.706 F1080
G1 X127.796 Y54.197 Z-3.709 F1080
G1 X127.856 Y54.213 Z-3.712 F1080
G1 X127.912 Y54.237 Z-3.715 F1080
G1 X127.965 Y54.268 Z-3.718 F1080
G1 X128.014 Y54.306 Z-3.721 F1080
G1 X128.057 Y54.35 Z-3.724 F1080
G1 X128.094 Y54.398 Z-3.727 F1080
G1 X128.125 Y54.452 Z-3.73 F1080
G1 X128.148 Y54.509 Z-3.733 F1080
G1 X128.164 Y54.568 Z-3.736 F1080
G1 X128.172 Y54.629 Z-3.739 F1080
G1 X128.171 Y54.69 Z-3.742 F1080
G1 X128.163 Y54.751 Z-3.745 F1080
G1 X128.148 Y54.811 Z-3.748 F1080
G1 X128.124 Y54.867 Z-3.751 F1080
G1 X128.094 Y54.921 Z-3.754 F1080
G1 X128.056 Y54.97 Z-3.757 F1080
G1 X128.013 Y55.013 Z-3.76 F1080
G1 X127.965 Y55.051 Z-3.763 F1080
G1 X127.911 Y55.082 Z-3.766 F1080
G1 X127.855 Y55.106 Z-3.769 F1080
G1 X127.796 Y55.122 Z-3.772 F1080
G1 X127.735 Y55.131 Z-3.775 F1080
G1 X127.673 Z-3.778 F1080
G1 X127.612 Y55.124 Z-3.781 F1080
G1 X127.553 Y55.108 Z-3.784 F1080
G1 X127.496 Y55.085 Z-3.787 F1080
G1 X127.442 Y55.055 Z-3.79 F1080
G1 X127.393 Y55.019 Z-3.793 F1080
G1 X127.349 Y54.976 Z-3.796 F1080
G1 X127.311 Y54.927 Z-3.799 F1080
G1 X127.279 Y54.875 Z-3.802 F1080
G1 X127.255 Y54.818 Z-3.805 F1080
G1 X127.238 Y54.759 Z-3.808 F1080
G1 X127.229 Y54.698 Z-3.811 F1080
G1 X127.228 Y54.637 Z-3.814 F1080
G1 X127.235 Y54.576 Z-3.817 F1080
G1 X127.25 Y54.516 Z-3.82 F1080
G1 X127.272 Y54.459 Z-3.823 F1080
G1 X127.302 Y54.405 Z-3.826 F1080
G1 X127.338 Y54.356 Z-3.829 F1080
G1 X127.38 Y54.311 Z-3.832 F1080
G1 X127.428 Y54.273 Z-3.835 F1080
G1 X127.481 Y54.241 Z-3.838 F1080
G1 X127.537 Y54.216 Z-3.841 F1080
G1 X127.596 Y54.198 Z-3.844 F1080
G1 X127.656 Y54.189 Z-3.847 F1080
G1 X127.718 Y54.187 Z-3.849 F1080
G1 X127.779 Y54.193 Z-3.852 F1080
G1 X127.839 Y54.208 Z-3.855 F1080
G1 X127.896 Y54.229 Z-3.858 F1080
G1 X127.95 Y54.259 Z-3.861 F1080
G1 X128 Y54.294 Z-3.864 F1080
G1 X128.045 Y54.336 Z-3.867 F1080
G1 X128.084 Y54.384 Z-3.87 F1080
G1 X128.116 Y54.436 Z-3.873 F1080
G1 X128.142 Y54.492 Z-3.876 F1080
G1 X128.16 Y54.551 Z-3.879 F1080
G1 X128.17 Y54.611 Z-3.882 F1080
G1 X128.172 Y54.673 Z-3.885 F1080
G1 X128.167 Y54.734 Z-3.888 F1080
G1 X128.153 Y54.794 Z-3.891 F1080
G1 X128.132 Y54.851 Z-3.894 F1080
G1 X128.103 Y54.906 Z-3.897 F1080
G1 X128.068 Y54.956 Z-3.9 F1080
G1 X128.026 Y55.001 Z-3.903 F1080
G1 X127.979 Y55.041 Z-3.906 F1080
G1 X127.927 Y55.074 Z-3.909 F1080
G1 X127.871 Y55.1 Z-3.912 F1080
G1 X127.813 Y55.118 Z-3.915 F1080
G1 X127.752 Y55.129 Z-3.918 F1080
G1 X127.691 Y55.132 Z-3.921 F1080
G1 X127.63 Y55.127 Z-3.924 F1080
G1 X127.57 Y55.113 Z-3.927 F1080
G1 X127.512 Y55.093 Z-3.93 F1080
G1 X127.457 Y55.065 Z-3.933 F1080
G1 X127.407 Y55.03 Z-3.936 F1080
G1 X127.361 Y54.989 Z-3.939 F1080
G1 X127.321 Y54.942 Z-3.942 F1080
G1 X127.288 Y54.89 Z-3.945 F1080
G1 X127.261 Y54.835 Z-3.948 F1080
G1 X127.242 Y54.776 Z-3.951 F1080
G1 X127.231 Y54.716 Z-3.954 F1080
G1 X127.228 Y54.655 Z-3.957 F1080
G1 X127.232 Y54.593 Z-3.96 F1080
G1 X127.245 Y54.533 Z-3.963 F1080
G1 X127.265 Y54.475 Z-3.966 F1080
G1 X127.292 Y54.42 Z-3.969 F1080
G1 X127.327 Y54.37 Z-3.972 F1080
G1 X127.368 Y54.324 Z-3.975 F1080
G1 X127.414 Y54.283 Z-3.978 F1080
G1 X127.465 Y54.249 Z-3.981 F1080
G1 X127.52 Y54.222 Z-3.984 F1080
G1 X127.579 Y54.203 Z-3.987 F1080
G1 X127.639 Y54.191 Z-3.99 F1080
G1 X127.7 Y54.187 Z-3.992 F1080
G1 X127.761 Y54.191 Z-3.995 F1080
G1 X127.822 Y54.203 Z-3.998 F1080
G1 X127.88 Y54.222 Z-4.001 F1080
G1 X127.935 Y54.249 Z-4.004 F1080
G1 X127.986 Y54.283 Z-4.007 F1080
G1 X128.033 Y54.324 Z-4.01 F1080
G1 X128.073 Y54.37 Z-4.013 F1080
G1 X128.108 Y54.421 Z-4.016 F1080
G1 X128.135 Y54.475 Z-4.019 F1080
G1 X128.155 Y54.534 Z-4.022 F1080
G1 X128.168 Y54.594 Z-4.025 F1080
G1 X128.172 Y54.655 Z-4.028 F1080
G1 X128.169 Y54.716 Z-4.031 F1080
G1 X128.158 Y54.777 Z-4.034 F1080
G1 X128.139 Y54.835 Z-4.037 F1080
G1 X128.112 Y54.89 Z-4.04 F1080
G1 X128.079 Y54.942 Z-4.043 F1080
G1 X128.039 Y54.989 Z-4.046 F1080
G1 X127.993 Y55.03 Z-4.049 F1080
G1 X127.943 Y55.065 Z-4.052 F1080
G1 X127.888 Y55.093 Z-4.055 F1080
G1 X127.83 Y55.114 Z-4.058 F1080
G1 X127.77 Y55.127 Z-4.061 F1080
G1 X127.709 Y55.132 Z-4.064 F1080
G1 X127.647 Y55.129 Z-4.067 F1080
G1 X127.587 Y55.118 Z-4.07 F1080
G1 X127.528 Y55.1 Z-4.073 F1080
G1 X127.473 Y55.074 Z-4.076 F1080
G1 X127.421 Y55.041 Z-4.079 F1080
G1 X127.374 Y55.001 Z-4.082 F1080
G1 X127.332 Y54.956 Z-4.085 F1080
G1 X127.297 Y54.906 Z-4.088 F1080
G1 X127.268 Y54.851 Z-4.091 F1080
G1 X127.247 Y54.794 Z-4.094 F1080
G1 X127.233 Y54.734 Z-4.097 F1080
G1 X127.228 Y54.672 Z-4.1 F1080
G1 X127.23 Y54.611 Z-4.103 F1080
G1 X127.24 Y54.551 Z-4.106 F1080
G1 X127.258 Y54.492 Z-4.109 F1080
G1 X127.284 Y54.436 Z-4.112 F1080
G1 X127.316 Y54.384 Z-4.115 F1080
G1 X127.355 Y54.336 Z-4.118 F1080
G1 X127.4 Y54.294 Z-4.121 F1080
G1 X127.45 Y54.258 Z-4.124 F1080
G1 X127.504 Y54.229 Z-4.127 F1080
G1 X127.561 Y54.208 Z-4.13 F1080
G1 X127.621 Y54.193 Z-4.133 F1080
G1 X127.682 Y54.187 Z-4.136 F1080
G1 X127.744 Y54.189 Z-4.138 F1080
G1 X127.804 Y54.198 Z-4.141 F1080
G1 X127.863 Y54.216 Z-4.144 F1080
G1 X127.92 Y54.241 Z-4.147 F1080
G1 X127.972 Y54.273 Z-4.15 F1080
G1 X128.02 Y54.311 Z-4.153 F1080
G1 X128.062 Y54.356 Z-4.156 F1080
G1 X128.099 Y54.405 Z-4.159 F1080
G1 X128.128 Y54.459 Z-4.162 F1080
G1 X128.15 Y54.517 Z-4.165 F1080
G1 X128.165 Y54.576 Z-4.168 F1080
G1 X128.172 Y54.637 Z-4.171 F1080
G1 X128.171 Y54.699 Z-4.174 F1080
G1 X128.162 Y54.759 Z-4.177 F1080
G1 X128.145 Y54.818 Z-4.18 F1080
G1 X128.12 Y54.875 Z-4.183 F1080
G1 X128.089 Y54.928 Z-4.186 F1080
G1 X128.051 Y54.976 Z-4.189 F1080
G1 X128.007 Y55.019 Z-4.192 F1080
G1 X127.958 Y55.055 Z-4.195 F1080
G1 X127.904 Y55.085 Z-4.198 F1080
G1 X127.847 Y55.108 Z-4.201 F1080
G1 X127.787 Y55.124 Z-4.204 F1080
G1 X127.726 Y55.131 Z-4.207 F1080
G1 X127.665 Y55.13 Z-4.21 F1080
G1 X127.604 Y55.122 Z-4.213 F1080
G1 X127.545 Y55.106 Z-4.216 F1080
G1 X127.488 Y55.082 Z-4.219 F1080
G1 X127.435 Y55.051 Z-4.222 F1080
G1 X127.387 Y55.013 Z-4.225 F1080
G1 X127.344 Y54.969 Z-4.228 F1080
G1 X127.306 Y54.921 Z-4.231 F1080
G1 X127.276 Y54.867 Z-4.234 F1080
G1 X127.252 Y54.81 Z-4.237 F1080
G1 X127.236 Y54.751 Z-4.24 F1080
G1 X127.229 Y54.69 Z-4.243 F1080
G1 X127.228 Y54.629 Z-4.246 F1080
G1 X127.236 Y54.568 Z-4.249 F1080
G1 X127.252 Y54.508 Z-4.252 F1080
G1 X127.276 Y54.452 Z-4.255 F1080
G1 X127.306 Y54.398 Z-4.258 F1080
G1 X127.343 Y54.349 Z-4.261 F1080
G1 X127.387 Y54.306 Z-4.264 F1080
G1 X127.435 Y54.268 Z-4.267 F1080
G1 X127.488 Y54.237 Z-4.27 F1080
G1 X127.545 Y54.213 Z-4.273 F1080
G1 X127.604 Y54.197 Z-4.276 F1080
G1 X127.665 Y54.188 Z-4.279 F1080
G1 X127.726 Z-4.282 F1080
G1 X127.787 Y54.195 Z-4.284 F1080
G1 X127.847 Y54.21 Z-4.287 F1080
G1 X127.904 Y54.233 Z-4.29 F1080
G1 X127.957 Y54.263 Z-4.293 F1080
G1 X128.007 Y54.3 Z-4.296 F1080
G1 X128.051 Y54.343 Z-4.299 F1080
G1 X128.089 Y54.391 Z-4.302 F1080
G1 X128.12 Y54.443 Z-4.305 F1080
G1 X128.145 Y54.5 Z-4.308 F1080
G1 X128.162 Y54.559 Z-4.311 F1080
G1 X128.171 Y54.62 Z-4.314 F1080
G1 X128.172 Y54.681 Z-4.317 F1080
G1 X128.165 Y54.742 Z-4.32 F1080
G1 X128.151 Y54.802 Z-4.323 F1080
G1 X128.128 Y54.859 Z-4.326 F1080
G1 X128.099 Y54.913 Z-4.329 F1080
G1 X128.062 Y54.962 Z-4.332 F1080
G1 X128.02 Y55.007 Z-4.335 F1080
G1 X127.972 Y55.045 Z-4.338 F1080
G1 X127.92 Y55.078 Z-4.341 F1080
G1 X127.864 Y55.103 Z-4.344 F1080
G1 X127.805 Y55.12 Z-4.347 F1080
G1 X127.744 Y55.13 Z-4.35 F1080
G1 X127.683 Y55.131 Z-4.353 F1080
G1 X127.622 Y55.125 Z-4.356 F1080
G1 X127.562 Y55.111 Z-4.359 F1080
G1 X127.504 Y55.089 Z-4.362 F1080
G1 X127.45 Y55.06 Z-4.365 F1080
G1 X127.4 Y55.025 Z-4.368 F1080
G1 X127.355 Y54.983 Z-4.371 F1080
G1 X127.316 Y54.935 Z-4.374 F1080
G1 X127.284 Y54.883 Z-4.377 F1080
G1 X127.258 Y54.827 Z-4.38 F1080
G1 X127.24 Y54.768 Z-4.383 F1080
G1 X127.23 Y54.708 Z-4.386 F1080
G1 X127.228 Y54.646 Z-4.389 F1080
G1 X127.233 Y54.585 Z-4.392 F1080
G1 X127.247 Y54.525 Z-4.395 F1080
G1 X127.268 Y54.468 Z-4.398 F1080
G1 X127.297 Y54.413 Z-4.401 F1080
G1 X127.332 Y54.363 Z-4.404 F1080
G1 X127.373 Y54.318 Z-4.407 F1080
G1 X127.421 Y54.278 Z-4.41 F1080
G1 X127.472 Y54.245 Z-4.413 F1080
G1 X127.528 Y54.219 Z-4.416 F1080
G1 X127.587 Y54.201 Z-4.419 F1080
G1 X127.647 Y54.19 Z-4.422 F1080
G1 X127.708 Y54.187 Z-4.425 F1080
G1 X127.77 Y54.192 Z-4.427 F1080
G1 X127.83 Y54.205 Z-4.43 F1080
G1 X127.888 Y54.226 Z-4.433 F1080
G1 X127.942 Y54.254 Z-4.436 F1080
G1 X127.993 Y54.288 Z-4.439 F1080
G1 X128.038 Y54.33 Z-4.442 F1080
G1 X128.078 Y54.376 Z-4.445 F1080
G1 X128.112 Y54.428 Z-4.448 F1080
G1 X128.138 Y54.483 Z-4.451 F1080
G1 X128.158 Y54.542 Z-4.454 F1080
G1 X128.169 Y54.602 Z-4.457 F1080
G1 X128.172 Y54.663 Z-4.46 F1080
G1 X128.168 Y54.725 Z-4.463 F1080
G1 X128.156 Y54.785 Z-4.466 F1080
G1 X128.135 Y54.843 Z-4.469 F1080
G1 X128.108 Y54.898 Z-4.472 F1080
G1 X128.074 Y54.949 Z-4.475 F1080
G1 X128.033 Y54.995 Z-4.478 F1080
G1 X127.987 Y55.035 Z-4.481 F1080
G1 X127.935 Y55.069 Z-4.484 F1080
G1 X127.88 Y55.096 Z-4.487 F1080
G1 X127.822 Y55.116 Z-4.49 F1080
G1 X127.762 Y55.128 Z-4.493 F1080
G1 X127.7 Y55.132 Z-4.496 F1080
G1 X127.639 Y55.128 Z-4.499 F1080
G1 X127.579 Y55.116 Z-4.502 F1080
G1 X127.521 Y55.096 Z-4.505 F1080
G1 X127.465 Y55.069 Z-4.508 F1080
G1 X127.414 Y55.036 Z-4.511 F1080
G1 X127.368 Y54.995 Z-4.514 F1080
G1 X127.327 Y54.949 Z-4.517 F1080
G1 X127.293 Y54.898 Z-4.52 F1080
G1 X127.265 Y54.844 Z-4.523 F1080
G1 X127.245 Y54.786 Z-4.526 F1080
G1 X127.232 Y54.725 Z-4.529 F1080
G1 X127.228 Y54.664 Z-4.532 F1080
G1 X127.231 Y54.603 Z-4.535 F1080
G1 X127.242 Y54.542 Z-4.538 F1080
G1 X127.261 Y54.484 Z-4.541 F1080
G1 X127.288 Y54.429 Z-4.544 F1080
G1 X127.321 Y54.377 Z-4.547 F1080
G1 X127.361 Y54.33 Z-4.55 F1080
G1 X127.406 Y54.289 Z-4.553 F1080
G1 X127.457 Y54.254 Z-4.556 F1080
G1 X127.512 Y54.226 Z-4.559 F1080
G1 X127.569 Y54.205 Z-4.562 F1080
G1 X127.629 Y54.192 Z-4.565 F1080
G1 X127.691 Y54.187 Z-4.568 F1080
G1 X127.752 Y54.19 Z-4.571 F1080
G1 X127.813 Y54.2 Z-4.573 F1080
G1 X127.871 Y54.219 Z-4.576 F1080
G1 X127.927 Y54.245 Z-4.579 F1080
G1 X127.979 Y54.278 Z-4.582 F1080
G1 X128.026 Y54.317 Z-4.585 F1080
G1 X128.068 Y54.362 Z-4.588 F1080
G1 X128.103 Y54.412 Z-4.591 F1080
G1 X128.132 Y54.467 Z-4.594 F1080
G1 X128.153 Y54.524 Z-4.597 F1080
G1 X128.167 Y54.584 Z-4.6 F1080
G1 X128.172 Y54.646 Z-4.603 F1080
G1 X128.17 Y54.707 Z-4.606 F1080
G1 X128.16 Y54.768 Z-4.609 F1080
G1 X128.142 Y54.826 Z-4.612 F1080
G1 X128.117 Y54.882 Z-4.615 F1080
G1 X128.084 Y54.934 Z-4.618 F1080
G1 X128.045 Y54.982 Z-4.621 F1080
G1 X128 Y55.024 Z-4.624 F1080
G1 X127.951 Y55.06 Z-4.627 F1080
G1 X127.896 Y55.089 Z-4.63 F1080
G1 X127.839 Y55.111 Z-4.633 F1080
G1 X127.779 Y55.125 Z-4.636 F1080
G1 X127.718 Y55.131 Z-4.639 F1080
G1 X127.657 Y55.13 Z-4.642 F1080
G1 X127.596 Y55.12 Z-4.645 F1080
G1 X127.537 Y55.103 Z-4.648 F1080
G1 X127.481 Y55.078 Z-4.651 F1080
G1 X127.428 Y55.046 Z-4.654 F1080
G1 X127.381 Y55.007 Z-4.657 F1080
G1 X127.338 Y54.963 Z-4.66 F1080
G1 X127.302 Y54.914 Z-4.663 F1080
G1 X127.272 Y54.86 Z-4.666 F1080
G1 X127.25 Y54.803 Z-4.669 F1080
G1 X127.235 Y54.743 Z-4.672 F1080
G1 X127.228 Y54.682 Z-4.675 F1080
G1 X127.229 Y54.62 Z-4.678 F1080
G1 X127.238 Y54.56 Z-4.681 F1080
G1 X127.255 Y54.501 Z-4.684 F1080
G1 X127.279 Y54.444 Z-4.687 F1080
G1 X127.311 Y54.391 Z-4.69 F1080
G1 X127.349 Y54.343 Z-4.693 F1080
G1 X127.393 Y54.3 Z-4.696 F1080
G1 X127.442 Y54.263 Z-4.699 F1080
G1 X127.496 Y54.233 Z-4.702 F1080
G1 X127.553 Y54.21 Z-4.705 F1080
G1 X127.612 Y54.195 Z-4.708 F1080
G1 X127.673 Y54.188 Z-4.711 F1080
G1 X127.734 Z-4.714 F1080
G1 X127.795 Y54.196 Z-4.717 F1080
G1 X127.855 Y54.213 Z-4.719 F1080
G1 X127.911 Y54.237 Z-4.722 F1080
G1 X127.964 Y54.268 Z-4.725 F1080
G1 X128.013 Y54.305 Z-4.728 F1080
G1 X128.056 Y54.349 Z-4.731 F1080
G1 X128.093 Y54.398 Z-4.734 F1080
G1 X128.124 Y54.451 Z-4.737 F1080
G1 X128.147 Y54.508 Z-4.74 F1080
G1 X128.163 Y54.567 Z-4.743 F1080
G1 X128.171 Y54.628 Z-4.746 F1080
G1 X128.172 Y54.689 Z-4.749 F1080
G1 X128.164 Y54.75 Z-4.752 F1080
G1 X128.148 Y54.81 Z-4.755 F1080
G1 X128.125 Y54.866 Z-4.758 F1080
G1 X128.094 Y54.92 Z-4.761 F1080
G1 X128.057 Y54.969 Z-4.764 F1080
G1 X128.014 Y55.012 Z-4.767 F1080
G1 X127.965 Y55.05 Z-4.77 F1080
G1 X127.912 Y55.081 Z-4.773 F1080
G1 X127.856 Y55.105 Z-4.776 F1080
G1 X127.797 Y55.122 Z-4.779 F1080
G1 X127.736 Y55.13 Z-4.782 F1080
G1 X127.674 Y55.131 Z-4.785 F1080
G1 X127.613 Y55.124 Z-4.788 F1080
G1 X127.554 Y55.109 Z-4.791 F1080
G1 X127.497 Y55.086 Z-4.794 F1080
G1 X127.443 Y55.056 Z-4.797 F1080
G1 X127.394 Y55.019 Z-4.8 F1080
G1 X127.35 Y54.976 Z-4.803 F1080
G1 X127.312 Y54.928 Z-4.806 F1080
G1 X127.28 Y54.876 Z-4.809 F1080
G1 X127.255 Y54.819 Z-4.812 F1080
G1 X127.238 Y54.76 Z-4.815 F1080
G1 X127.229 Y54.7 Z-4.818 F1080
G1 X127.228 Y54.638 Z-4.821 F1080
G1 X127.235 Y54.577 Z-4.824 F1080
G1 X127.249 Y54.517 Z-4.827 F1080
G1 X127.272 Y54.46 Z-4.83 F1080
G1 X127.301 Y54.406 Z-4.833 F1080
G1 X127.337 Y54.357 Z-4.836 F1080
G1 X127.38 Y54.312 Z-4.839 F1080
G1 X127.427 Y54.273 Z-4.842 F1080
G1 X127.48 Y54.241 Z-4.845 F1080
G1 X127.536 Y54.216 Z-4.848 F1080
G1 X127.595 Y54.199 Z-4.851 F1080
G1 X127.655 Y54.189 Z-4.854 F1080
G1 X127.717 Y54.187 Z-4.857 F1080
G1 X127.778 Y54.193 Z-4.86 F1080
G1 X127.838 Y54.207 Z-4.863 F1080
G1 X127.895 Y54.229 Z-4.865 F1080
G1 X127.949 Y54.258 Z-4.868 F1080
G1 X127.999 Y54.294 Z-4.871 F1080
G1 X128.044 Y54.336 Z-4.874 F1080
G1 X128.083 Y54.383 Z-4.877 F1080
G1 X128.116 Y54.435 Z-4.88 F1080
G1 X128.141 Y54.491 Z-4.883 F1080
G1 X128.16 Y54.55 Z-4.886 F1080
G1 X128.17 Y54.61 Z-4.889 F1080
G1 X128.172 Y54.672 Z-4.892 F1080
G1 X128.167 Y54.733 Z-4.895 F1080
G1 X128.153 Y54.793 Z-4.898 F1080
G1 X128.132 Y54.85 Z-4.901 F1080
G1 X128.104 Y54.905 Z-4.904 F1080
G1 X128.068 Y54.955 Z-4.907 F1080
G1 X128.027 Y55 Z-4.91 F1080
G1 X127.98 Y55.04 Z-4.913 F1080
G1 X127.928 Y55.073 Z-4.916 F1080
G1 X127.872 Y55.099 Z-4.919 F1080
G1 X127.814 Y55.118 Z-4.922 F1080
G1 X127.753 Y55.129 Z-4.925 F1080
G1 X127.692 Y55.132 Z-4.928 F1080
G1 X127.631 Y55.127 Z-4.931 F1080
G1 X127.571 Y55.114 Z-4.934 F1080
G1 X127.513 Y55.093 Z-4.937 F1080
G1 X127.458 Y55.065 Z-4.94 F1080
G1 X127.408 Y55.03 Z-4.943 F1080
G1 X127.362 Y54.989 Z-4.946 F1080
G1 X127.322 Y54.943 Z-4.949 F1080
G1 X127.288 Y54.891 Z-4.952 F1080
G1 X127.262 Y54.836 Z-4.955 F1080
G1 X127.243 Y54.778 Z-4.958 F1080
G1 X127.231 Y54.717 Z-4.961 F1080
G1 X127.228 Y54.656 Z-4.964 F1080
G1 X127.232 Y54.595 Z-4.967 F1080
G1 X127.244 Y54.534 Z-4.97 F1080
G1 X127.264 Y54.476 Z-4.973 F1080
G1 X127.292 Y54.421 Z-4.976 F1080
G1 X127.326 Y54.37 Z-4.979 F1080
G1 X127.367 Y54.324 Z-4.982 F1080
G1 X127.413 Y54.284 Z-4.985 F1080
G1 X127.464 Y54.25 Z-4.988 F1080
G1 X127.519 Y54.223 Z-4.991 F1080
G1 X127.577 Y54.203 Z-4.994 F1080
G1 X127.638 Y54.191 Z-4.997 F1080
G1 X127.699 Y54.187 Z-5 F1080
G1 X127.76 Y54.191 Z-5.003 F1080
G1 X127.821 Y54.202 Z-5.006 F1080
G1 X127.879 Y54.222 Z-5.008 F1080
G1 X127.934 Y54.249 Z-5.011 F1080
G1 X127.985 Y54.283 Z-5.014 F1080
G1 X128.032 Y54.323 Z-5.017 F1080
G1 X128.073 Y54.369 Z-5.02 F1080
G1 X128.107 Y54.42 Z-5.023 F1080
G1 X128.135 Y54.474 Z-5.026 F1080
G1 X128.155 Y54.532 Z-5.029 F1080
G1 X128.168 Y54.593 Z-5.032 F1080
G1 X128.172 Y54.654 Z-5.035 F1080
G1 X128.169 Y54.715 Z-5.038 F1080
G1 X128.158 Y54.776 Z-5.041 F1080
G1 X128.139 Y54.834 Z-5.044 F1080
G1 X128.113 Y54.89 Z-5.047 F1080
G1 X128.079 Y54.941 Z-5.05 F1080
G1 X128.039 Y54.988 Z-5.053 F1080
G1 X127.994 Y55.029 Z-5.056 F1080
G1 X127.943 Y55.064 Z-5.059 F1080
G1 X127.889 Y55.092 Z-5.062 F1080
G1 X127.831 Y55.113 Z-5.065 F1080
G1 X127.771 Y55.126 Z-5.068 F1080
G1 X127.71 Y55.132 Z-5.071 F1080
G1 X127.648 Y55.129 Z-5.074 F1080
G1 X127.588 Y55.118 Z-5.077 F1080
G1 X127.529 Y55.1 Z-5.08 F1080
G1 X127.474 Y55.074 Z-5.083 F1080
G1 X127.422 Y55.041 Z-5.086 F1080
G1 X127.375 Y55.002 Z-5.089 F1080
G1 X127.333 Y54.957 Z-5.092 F1080
G1 X127.297 Y54.907 Z-5.095 F1080
G1 X127.269 Y54.852 Z-5.098 F1080
G1 X127.247 Y54.795 Z-5.101 F1080
G1 X127.234 Y54.735 Z-5.104 F1080
G1 X127.228 Y54.674 Z-5.107 F1080
G1 X127.23 Y54.612 Z-5.11 F1080
G1 X127.24 Y54.552 Z-5.113 F1080
G1 X127.258 Y54.493 Z-5.116 F1080
G1 X127.283 Y54.437 Z-5.119 F1080
G1 X127.316 Y54.385 Z-5.122 F1080
G1 X127.354 Y54.337 Z-5.125 F1080
G1 X127.399 Y54.295 Z-5.128 F1080
G1 X127.449 Y54.259 Z-5.131 F1080
G1 X127.503 Y54.23 Z-5.134 F1080
G1 X127.56 Y54.208 Z-5.137 F1080
G1 X127.62 Y54.194 Z-5.14 F1080
G1 X127.681 Y54.187 Z-5.143 F1080
G1 X127.743 Y54.189 Z-5.146 F1080
G1 X127.803 Y54.198 Z-5.149 F1080
G1 X127.862 Y54.216 Z-5.152 F1080
G1 X127.919 Y54.24 Z-5.154 F1080
G1 X127.971 Y54.272 Z-5.157 F1080
G1 X128.019 Y54.311 Z-5.16 F1080
G1 X128.062 Y54.355 Z-5.163 F1080
G1 X128.098 Y54.405 Z-5.166 F1080
G1 X128.128 Y54.458 Z-5.169 F1080
G1 X128.15 Y54.516 Z-5.172 F1080
G1 X128.165 Y54.575 Z-5.175 F1080
G1 X128.172 Y54.636 Z-5.178 F1080
G1 X128.171 Y54.698 Z-5.181 F1080
G1 X128.162 Y54.758 Z-5.184 F1080
G1 X128.145 Y54.817 Z-5.187 F1080
G1 X128.121 Y54.874 Z-5.19 F1080
G1 X128.09 Y54.927 Z-5.193 F1080
G1 X128.052 Y54.975 Z-5.196 F1080
G1 X128.008 Y55.018 Z-5.199 F1080
G1 X127.958 Y55.055 Z-5.202 F1080
G1 X127.905 Y55.085 Z-5.205 F1080
G1 X127.848 Y55.108 Z-5.208 F1080
G1 X127.789 Y55.123 Z-5.211 F1080
G1 X127.728 Y55.131 Z-5.214 F1080
G1 X127.666 Z-5.217 F1080
G1 X127.605 Y55.122 Z-5.22 F1080
G1 X127.546 Y55.106 Z-5.223 F1080
G1 X127.489 Y55.082 Z-5.226 F1080
G1 X127.436 Y55.051 Z-5.229 F1080
G1 X127.388 Y55.014 Z-5.232 F1080
G1 X127.344 Y54.97 Z-5.235 F1080
G1 X127.307 Y54.921 Z-5.238 F1080
G1 X127.276 Y54.868 Z-5.241 F1080
G1 X127.253 Y54.811 Z-5.244 F1080
G1 X127.237 Y54.752 Z-5.247 F1080
G1 X127.229 Y54.691 Z-5.25 F1080
G1 X127.228 Y54.63 Z-5.253 F1080
G1 X127.236 Y54.569 Z-5.256 F1080
G1 X127.252 Y54.509 Z-5.259 F1080
G1 X127.275 Y54.453 Z-5.262 F1080
G1 X127.306 Y54.399 Z-5.265 F1080
G1 X127.343 Y54.35 Z-5.268 F1080
G1 X127.386 Y54.306 Z-5.271 F1080
G1 X127.434 Y54.269 Z-5.274 F1080
G1 X127.487 Y54.237 Z-5.277 F1080
G1 X127.544 Y54.213 Z-5.28 F1080
G1 X127.603 Y54.197 Z-5.283 F1080
G1 X127.664 Y54.188 Z-5.286 F1080
G1 X127.725 Y54.187 Z-5.289 F1080
G1 X127.786 Y54.195 Z-5.292 F1080
G1 X127.846 Y54.21 Z-5.295 F1080
G1 X127.903 Y54.232 Z-5.298 F1080
G1 X127.956 Y54.262 Z-5.3 F1080
G1 X128.006 Y54.299 Z-5.303 F1080
G1 X128.05 Y54.342 Z-5.306 F1080
G1 X128.088 Y54.39 Z-5.309 F1080
G1 X128.12 Y54.442 Z-5.312 F1080
G1 X128.144 Y54.499 Z-5.315 F1080
G1 X128.161 Y54.558 Z-5.318 F1080
G1 X128.171 Y54.618 Z-5.321 F1080
G1 X128.172 Y54.68 Z-5.324 F1080
G1 X128.165 Y54.741 Z-5.327 F1080
G1 X128.151 Y54.801 Z-5.33 F1080
G1 X128.129 Y54.858 Z-5.333 F1080
G1 X128.099 Y54.912 Z-5.336 F1080
G1 X128.063 Y54.962 Z-5.339 F1080
G1 X128.021 Y55.006 Z-5.342 F1080
G1 X127.973 Y55.045 Z-5.345 F1080
G1 X127.921 Y55.077 Z-5.348 F1080
G1 X127.865 Y55.102 Z-5.351 F1080
G1 X127.806 Y55.12 Z-5.354 F1080
G1 X127.745 Y55.13 Z-5.357 F1080
G1 X127.684 Y55.132 Z-5.36 F1080
G1 X127.623 Y55.125 Z-5.363 F1080
G1 X127.563 Y55.111 Z-5.366 F1080
G1 X127.505 Y55.09 Z-5.369 F1080
G1 X127.451 Y55.061 Z-5.372 F1080
G1 X127.401 Y55.025 Z-5.375 F1080
G1 X127.356 Y54.983 Z-5.378 F1080
G1 X127.317 Y54.936 Z-5.381 F1080
G1 X127.284 Y54.884 Z-5.384 F1080
G1 X127.259 Y54.828 Z-5.387 F1080
G1 X127.241 Y54.769 Z-5.39 F1080
G1 X127.23 Y54.709 Z-5.393 F1080
G1 X127.228 Y54.648 Z-5.396 F1080
G1 X127.233 Y54.586 Z-5.399 F1080
G1 X127.247 Y54.526 Z-5.402 F1080
G1 X127.268 Y54.469 Z-5.405 F1080
G1 X127.296 Y54.414 Z-5.408 F1080
G1 X127.331 Y54.364 Z-5.411 F1080
G1 X127.373 Y54.319 Z-5.414 F1080
G1 X127.42 Y54.279 Z-5.417 F1080
G1 X127.471 Y54.246 Z-5.42 F1080
G1 X127.527 Y54.22 Z-5.423 F1080
G1 X127.586 Y54.201 Z-5.426 F1080
G1 X127.646 Y54.19 Z-5.429 F1080
G1 X127.707 Y54.187 Z-5.432 F1080
G1 X127.769 Y54.192 Z-5.435 F1080
G1 X127.829 Y54.205 Z-5.438 F1080
G1 X127.887 Y54.225 Z-5.441 F1080
G1 X127.941 Y54.253 Z-5.444 F1080
G1 X127.992 Y54.288 Z-5.446 F1080
G1 X128.038 Y54.329 Z-5.449 F1080
G1 X128.078 Y54.375 Z-5.452 F1080
G1 X128.111 Y54.427 Z-5.455 F1080
G1 X128.138 Y54.482 Z-5.458 F1080
G1 X128.157 Y54.541 Z-5.461 F1080
G1 X128.169 Y54.601 Z-5.464 F1080
G1 X128.172 Y54.662 Z-5.467 F1080
G1 X128.168 Y54.723 Z-5.47 F1080
G1 X128.156 Y54.784 Z-5.473 F1080
G1 X128.136 Y54.842 Z-5.476 F1080
G1 X128.108 Y54.897 Z-5.479 F1080
G1 X128.074 Y54.948 Z-5.482 F1080
G1 X128.034 Y54.994 Z-5.485 F1080
G1 X127.987 Y55.034 Z-5.488 F1080
G1 X127.936 Y55.068 Z-5.491 F1080
G1 X127.881 Y55.096 Z-5.494 F1080
G1 X127.823 Y55.115 Z-5.497 F1080
G1 X127.763 Y55.128 Z-5.5 F1080
G1 X127.702 Y55.132 Z-5.503 F1080
G1 X127.64 Y55.128 Z-5.506 F1080
G1 X127.58 Y55.116 Z-5.509 F1080
G1 X127.522 Y55.097 Z-5.512 F1080
G1 X127.466 Y55.07 Z-5.515 F1080
G1 X127.415 Y55.036 Z-5.518 F1080
G1 X127.369 Y54.996 Z-5.521 F1080
G1 X127.328 Y54.95 Z-5.524 F1080
G1 X127.293 Y54.899 Z-5.527 F1080
G1 X127.265 Y54.845 Z-5.53 F1080
G1 X127.245 Y54.787 Z-5.533 F1080
G1 X127.232 Y54.727 Z-5.536 F1080
G1 X127.228 Y54.665 Z-5.539 F1080
G1 X127.231 Y54.604 Z-5.542 F1080
G1 X127.242 Y54.543 Z-5.545 F1080
G1 X127.261 Y54.485 Z-5.548 F1080
G1 X127.287 Y54.43 Z-5.551 F1080
G1 X127.32 Y54.378 Z-5.554 F1080
G1 X127.36 Y54.331 Z-5.557 F1080
G1 X127.406 Y54.29 Z-5.56 F1080
G1 X127.456 Y54.255 Z-5.563 F1080
G1 X127.511 Y54.226 Z-5.566 F1080
G1 X127.568 Y54.205 Z-5.569 F1080
G1 X127.628 Y54.192 Z-5.572 F1080
G1 X127.69 Y54.187 Z-5.575 F1080
G1 X127.751 Y54.19 Z-5.578 F1080
G1 X127.812 Y54.2 Z-5.581 F1080
G1 X127.87 Y54.218 Z-5.584 F1080
G1 X127.926 Y54.244 Z-5.587 F1080
G1 X127.978 Y54.277 Z-5.589 F1080
G1 X128.025 Y54.316 Z-5.592 F1080
G1 X128.067 Y54.361 Z-5.595 F1080
G1 X128.102 Y54.412 Z-5.598 F1080
G1 X128.131 Y54.466 Z-5.601 F1080
G1 X128.153 Y54.523 Z-5.604 F1080
G1 X128.166 Y54.583 Z-5.607 F1080
G1 X128.172 Y54.644 Z-5.61 F1080
G1 X128.17 Y54.706 Z-5.613 F1080
G1 X128.16 Y54.766 Z-5.616 F1080
G1 X128.142 Y54.825 Z-5.619 F1080
G1 X128.117 Y54.881 Z-5.622 F1080
G1 X128.085 Y54.934 Z-5.625 F1080
G1 X128.046 Y54.981 Z-5.628 F1080
G1 X128.001 Y55.023 Z-5.631 F1080
G1 X127.951 Y55.059 Z-5.634 F1080
G1 X127.897 Y55.089 Z-5.637 F1080
G1 X127.84 Y55.111 Z-5.64 F1080
G1 X127.78 Y55.125 Z-5.643 F1080
G1 X127.719 Y55.131 Z-5.646 F1080
G1 X127.658 Y55.13 Z-5.649 F1080
G1 X127.597 Y55.12 Z-5.652 F1080
G1 X127.538 Y55.103 Z-5.655 F1080
G1 X127.482 Y55.078 Z-5.658 F1080
G1 X127.429 Y55.047 Z-5.661 F1080
G1 X127.381 Y55.008 Z-5.664 F1080
G1 X127.339 Y54.964 Z-5.667 F1080
G1 X127.302 Y54.915 Z-5.67 F1080
G1 X127.273 Y54.861 Z-5.673 F1080
G1 X127.25 Y54.804 Z-5.676 F1080
G1 X127.235 Y54.744 Z-5.679 F1080
G1 X127.228 Y54.683 Z-5.682 F1080
G1 X127.229 Y54.622 Z-5.685 F1080
G1 X127.238 Y54.561 Z-5.688 F1080
G1 X127.255 Y54.502 Z-5.691 F1080
G1 X127.279 Y54.445 Z-5.694 F1080
G1 X127.31 Y54.392 Z-5.697 F1080
G1 X127.348 Y54.344 Z-5.7 F1080
G1 X127.392 Y54.301 Z-5.703 F1080
G1 X127.441 Y54.264 Z-5.706 F1080
G1 X127.495 Y54.234 Z-5.709 F1080
G1 X127.551 Y54.211 Z-5.712 F1080
G1 X127.611 Y54.195 Z-5.715 F1080
G1 X127.672 Y54.188 Z-5.718 F1080
G1 X127.733 Z-5.721 F1080
G1 X127.794 Y54.196 Z-5.724 F1080
G1 X127.853 Y54.212 Z-5.727 F1080
G1 X127.91 Y54.236 Z-5.73 F1080
G1 X127.963 Y54.267 Z-5.733 F1080
G1 X128.012 Y54.304 Z-5.735 F1080
G1 X128.055 Y54.348 Z-5.738 F1080
G1 X128.093 Y54.397 Z-5.741 F1080
G1 X128.124 Y54.45 Z-5.744 F1080
G1 X128.147 Y54.507 Z-5.747 F1080
G1 X128.163 Y54.566 Z-5.75 F1080
G1 X128.171 Y54.627 Z-5.753 F1080
G1 X128.172 Y54.688 Z-5.756 F1080
G1 X128.164 Y54.749 Z-5.759 F1080
G1 X128.148 Y54.809 Z-5.762 F1080
G1 X128.125 Y54.865 Z-5.765 F1080
G1 X128.095 Y54.919 Z-5.768 F1080
G1 X128.058 Y54.968 Z-5.771 F1080
G1 X128.015 Y55.012 Z-5.774 F1080
G1 X127.966 Y55.05 Z-5.777 F1080
G1 X127.913 Y55.081 Z-5.78 F1080
G1 X127.857 Y55.105 Z-5.783 F1080
G1 X127.798 Y55.122 Z-5.786 F1080
G1 X127.737 Y55.13 Z-5.789 F1080
G1 X127.676 Y55.131 Z-5.792 F1080
G1 X127.614 Y55.124 Z-5.795 F1080
G1 X127.555 Y55.109 Z-5.798 F1080
G1 X127.498 Y55.086 Z-5.801 F1080
G1 X127.444 Y55.056 Z-5.804 F1080
G1 X127.395 Y55.02 Z-5.807 F1080
G1 X127.351 Y54.977 Z-5.81 F1080
G1 X127.312 Y54.929 Z-5.813 F1080
G1 X127.28 Y54.877 Z-5.816 F1080
G1 X127.256 Y54.82 Z-5.819 F1080
G1 X127.239 Y54.761 Z-5.822 F1080
G1 X127.229 Y54.701 Z-5.825 F1080
G1 X127.228 Y54.639 Z-5.828 F1080
G1 X127.235 Y54.578 Z-5.831 F1080
G1 X127.249 Y54.518 Z-5.834 F1080
G1 X127.271 Y54.461 Z-5.837 F1080
G1 X127.3 Y54.407 Z-5.84 F1080
G1 X127.337 Y54.357 Z-5.843 F1080
G1 X127.379 Y54.313 Z-5.846 F1080
G1 X127.426 Y54.274 Z-5.849 F1080
G1 X127.479 Y54.242 Z-5.852 F1080
G1 X127.535 Y54.217 Z-5.855 F1080
G1 X127.594 Y54.199 Z-5.858 F1080
G1 X127.654 Y54.189 Z-5.861 F1080
G1 X127.716 Y54.187 Z-5.864 F1080
G1 X127.777 Y54.193 Z-5.867 F1080
G1 X127.837 Y54.207 Z-5.87 F1080
G1 X127.894 Y54.229 Z-5.873 F1080
G1 X127.948 Y54.257 Z-5.876 F1080
G1 X127.998 Y54.293 Z-5.879 F1080
G1 X128.043 Y54.335 Z-5.881 F1080
G1 X128.083 Y54.382 Z-5.884 F1080
G1 X128.115 Y54.434 Z-5.887 F1080
G1 X128.141 Y54.49 Z-5.89 F1080
G1 X128.159 Y54.549 Z-5.893 F1080
G1 X128.17 Y54.609 Z-5.896 F1080
G1 X128.172 Y54.671 Z-5.899 F1080
G1 X128.167 Y54.732 Z-5.902 F1080
G1 X128.154 Y54.792 Z-5.905 F1080
G1 X128.133 Y54.849 Z-5.908 F1080
G1 X128.104 Y54.904 Z-5.911 F1080
G1 X128.069 Y54.954 Z-5.914 F1080
G1 X128.028 Y55 Z-5.917 F1080
G1 X127.981 Y55.039 Z-5.92 F1080
G1 X127.929 Y55.073 Z-5.923 F1080
G1 X127.873 Y55.099 Z-5.926 F1080
G1 X127.815 Y55.118 Z-5.929 F1080
G1 X127.755 Y55.129 Z-5.932 F1080
G1 X127.693 Y55.132 Z-5.935 F1080
G1 X127.632 Y55.127 Z-5.938 F1080
G1 X127.572 Y55.114 Z-5.941 F1080
G1 X127.514 Y55.094 Z-5.944 F1080
G1 X127.459 Y55.066 Z-5.947 F1080
G1 X127.408 Y55.031 Z-5.95 F1080
G1 X127.363 Y54.99 Z-5.953 F1080
G1 X127.323 Y54.944 Z-5.956 F1080
G1 X127.289 Y54.892 Z-5.959 F1080
G1 X127.262 Y54.837 Z-5.962 F1080
G1 X127.243 Y54.779 Z-5.965 F1080
G1 X127.231 Y54.718 Z-5.968 F1080
G1 X127.227 Y54.657 Z-5.971 F1080
G1 X127.232 Y54.596 Z-5.974 F1080
G1 X127.244 Y54.535 Z-5.977 F1080
G1 X127.264 Y54.477 Z-5.98 F1080
G1 X127.291 Y54.422 Z-5.983 F1080
G1 X127.325 Y54.371 Z-5.986 F1080
G1 X127.366 Y54.325 Z-5.989 F1080
G1 X127.412 Y54.285 Z-5.992 F1080
G1 X127.463 Y54.25 Z-5.995 F1080
G1 X127.518 Y54.223 Z-5.998 F1080
G1 X127.576 Y54.203 Z-6.001 F1080
G1 X127.637 Y54.191 Z-6.004 F1080
G1 X127.698 Y54.187 Z-6.007 F1080
G1 X127.759 Y54.191 Z-6.01 F1080
G1 X127.82 Y54.202 Z-6.013 F1080
G1 X127.878 Y54.222 Z-6.016 F1080
G1 X127.933 Y54.248 Z-6.019 F1080
G1 X127.985 Y54.282 Z-6.022 F1080
G1 X128.031 Y54.322 Z-6.024 F1080
G1 X128.072 Y54.368 Z-6.027 F1080
G1 X128.107 Y54.419 Z-6.03 F1080
G1 X128.134 Y54.473 Z-6.033 F1080
G1 X128.155 Y54.531 Z-6.036 F1080
G1 X128.168 Y54.592 Z-6.039 F1080
G1 X128.172 Y54.653 Z-6.042 F1080
G1 X128.169 Y54.714 Z-6.045 F1080
G1 X128.158 Y54.775 Z-6.048 F1080
G1 X128.139 Y54.833 Z-6.051 F1080
G1 X128.113 Y54.889 Z-6.054 F1080
G1 X128.08 Y54.94 Z-6.057 F1080
G1 X128.04 Y54.987 Z-6.06 F1080
G1 X127.995 Y55.029 Z-6.063 F1080
G1 X127.944 Y55.064 Z-6.066 F1080
G1 X127.89 Y55.092 Z-6.069 F1080
G1 X127.832 Y55.113 Z-6.072 F1080
G1 X127.772 Y55.126 Z-6.075 F1080
G1 X127.711 Y55.132 Z-6.078 F1080
G1 X127.65 Y55.129 Z-6.081 F1080
G1 X127.589 Y55.119 Z-6.084 F1080
G1 X127.53 Y55.1 Z-6.087 F1080
G1 X127.475 Y55.075 Z-6.09 F1080
G1 X127.423 Y55.042 Z-6.093 F1080
G1 X127.375 Y55.003 Z-6.096 F1080
G1 X127.334 Y54.958 Z-6.099 F1080
G1 X127.298 Y54.907 Z-6.102 F1080
G1 X127.269 Y54.853 Z-6.105 F1080
G1 X127.248 Y54.796 Z-6.108 F1080
G1 X127.234 Y54.736 Z-6.111 F1080
G1 X127.228 Y54.675 Z-6.114 F1080
G1 X127.23 Y54.613 Z-6.117 F1080
G1 X127.24 Y54.553 Z-6.12 F1080
G1 X127.257 Y54.494 Z-6.123 F1080
G1 X127.283 Y54.438 Z-6.126 F1080
G1 X127.315 Y54.385 Z-6.129 F1080
G1 X127.354 Y54.338 Z-6.132 F1080
G1 X127.398 Y54.296 Z-6.135 F1080
G1 X127.448 Y54.26 Z-6.138 F1080
G1 X127.502 Y54.23 Z-6.141 F1080
G1 X127.559 Y54.208 Z-6.144 F1080
G1 X127.619 Y54.194 Z-6.147 F1080
G1 X127.68 Y54.187 Z-6.15 F1080
G1 X127.742 Y54.189 Z-6.153 F1080
G1 X127.802 Y54.198 Z-6.156 F1080
G1 X127.861 Y54.215 Z-6.159 F1080
G1 X127.918 Y54.24 Z-6.162 F1080
G1 X127.97 Y54.272 Z-6.165 F1080
G1 X128.018 Y54.31 Z-6.168 F1080
G1 X128.061 Y54.354 Z-6.17 F1080
G1 X128.097 Y54.404 Z-6.173 F1080
G1 X128.127 Y54.457 Z-6.176 F1080
G1 X128.15 Y54.514 Z-6.179 F1080
G1 X128.165 Y54.574 Z-6.182 F1080
G1 X128.172 Y54.635 Z-6.185 F1080
G1 X128.171 Y54.697 Z-6.188 F1080
G1 X128.162 Y54.757 Z-6.191 F1080
G1 X128.146 Y54.816 Z-6.194 F1080
G1 X128.121 Y54.873 Z-6.197 F1080
G1 X128.09 Y54.926 Z-6.2 F1080
G1 X128.052 Y54.974 Z-6.203 F1080
G1 X128.008 Y55.017 Z-6.206 F1080
G1 X127.959 Y55.054 Z-6.209 F1080
G1 X127.906 Y55.085 Z-6.212 F1080
G1 X127.849 Y55.108 Z-6.215 F1080
G1 X127.79 Y55.123 Z-6.218 F1080
G1 X127.729 Y55.131 Z-6.221 F1080
G1 X127.667 Z-6.224 F1080
G1 X127.606 Y55.122 Z-6.227 F1080
G1 X127.547 Y55.106 Z-6.23 F1080
G1 X127.49 Y55.083 Z-6.233 F1080
G1 X127.437 Y55.052 Z-6.236 F1080
G1 X127.388 Y55.015 Z-6.239 F1080
G1 X127.345 Y54.971 Z-6.242 F1080
G1 X127.308 Y54.922 Z-6.245 F1080
G1 X127.277 Y54.869 Z-6.248 F1080
G1 X127.253 Y54.813 Z-6.251 F1080
G1 X127.237 Y54.753 Z-6.254 F1080
G1 X127.229 Y54.692 Z-6.257 F1080
G1 X127.228 Y54.631 Z-6.26 F1080
G1 X127.236 Y54.57 Z-6.263 F1080
G1 X127.252 Y54.511 Z-6.266 F1080
G1 X127.275 Y54.454 Z-6.269 F1080
G1 X127.305 Y54.4 Z-6.272 F1080
G1 X127.342 Y54.351 Z-6.275 F1080
G1 X127.385 Y54.307 Z-6.278 F1080
G1 X127.433 Y54.269 Z-6.281 F1080
G1 X127.486 Y54.238 Z-6.284 F1080
G1 X127.543 Y54.214 Z-6.287 F1080
G1 X127.602 Y54.197 Z-6.29 F1080
G1 X127.663 Y54.188 Z-6.293 F1080
G1 X127.724 Y54.187 Z-6.296 F1080
G1 X127.785 Y54.194 Z-6.299 F1080
G1 X127.845 Y54.209 Z-6.302 F1080
G1 X127.902 Y54.232 Z-6.305 F1080
G1 X127.955 Y54.262 Z-6.308 F1080
G1 X128.005 Y54.298 Z-6.311 F1080
G1 X128.049 Y54.341 Z-6.314 F1080
G1 X128.087 Y54.389 Z-6.316 F1080
G1 X128.119 Y54.441 Z-6.319 F1080
G1 X128.144 Y54.498 Z-6.322 F1080
G1 X128.161 Y54.557 Z-6.325 F1080
G1 X128.171 Y54.617 Z-6.328 F1080
G1 X128.172 Y54.679 Z-6.331 F1080
G1 X128.166 Y54.74 Z-6.334 F1080
G1 X128.151 Y54.8 Z-6.337 F1080
G1 X128.129 Y54.857 Z-6.34 F1080
G1 X128.1 Y54.911 Z-6.343 F1080
G1 X128.064 Y54.961 Z-6.346 F1080
G1 X128.022 Y55.005 Z-6.349 F1080
G1 X127.974 Y55.044 Z-6.352 F1080
G1 X127.922 Y55.077 Z-6.355 F1080
G1 X127.866 Y55.102 Z-6.358 F1080
G1 X127.807 Y55.12 Z-6.361 F1080
G1 X127.746 Y55.13 Z-6.364 F1080
G1 X127.685 Y55.132 Z-6.367 F1080
G1 X127.624 Y55.126 Z-6.37 F1080
G1 X127.564 Y55.112 Z-6.373 F1080
G1 X127.506 Y55.09 Z-6.376 F1080
G1 X127.452 Y55.062 Z-6.379 F1080
G1 X127.402 Y55.026 Z-6.382 F1080
G1 X127.357 Y54.984 Z-6.385 F1080
G1 X127.318 Y54.937 Z-6.388 F1080
G1 X127.285 Y54.885 Z-6.391 F1080
G1 X127.259 Y54.829 Z-6.394 F1080
G1 X127.241 Y54.771 Z-6.397 F1080
G1 X127.23 Y54.71 Z-6.4 F1080
G1 X127.228 Y54.649 Z-6.403 F1080
G1 X127.233 Y54.587 Z-6.406 F1080
G1 X127.246 Y54.527 Z-6.409 F1080
G1 X127.267 Y54.47 Z-6.412 F1080
G1 X127.295 Y54.415 Z-6.415 F1080
G1 X127.331 Y54.365 Z-6.418 F1080
G1 X127.372 Y54.319 Z-6.421 F1080
G1 X127.419 Y54.28 Z-6.424 F1080
G1 X127.47 Y54.246 Z-6.427 F1080
G1 X127.526 Y54.22 Z-6.43 F1080
G1 X127.584 Y54.201 Z-6.433 F1080
G1 X127.645 Y54.19 Z-6.436 F1080
G1 X127.706 Y54.187 Z-6.439 F1080
G1 X127.767 Y54.192 Z-6.442 F1080
G1 X127.828 Y54.204 Z-6.445 F1080
G1 X127.886 Y54.225 Z-6.448 F1080
G1 X127.94 Y54.252 Z-6.451 F1080
G1 X127.991 Y54.287 Z-6.454 F1080
G1 X128.037 Y54.328 Z-6.457 F1080
G1 X128.077 Y54.375 Z-6.46 F1080
G1 X128.111 Y54.426 Z-6.462 F1080
G1 X128.138 Y54.481 Z-6.465 F1080
G1 X128.157 Y54.539 Z-6.468 F1080
G1 X128.169 Y54.6 Z-6.471 F1080
G1 X128.172 Y54.661 Z-6.474 F1080
G1 X128.168 Y54.722 Z-6.477 F1080
G1 X128.156 Y54.783 Z-6.48 F1080
G1 X128.136 Y54.841 Z-6.483 F1080
G1 X128.109 Y54.896 Z-6.486 F1080
G1 X128.075 Y54.947 Z-6.489 F1080
G1 X128.034 Y54.993 Z-6.492 F1080
G1 X127.988 Y55.034 Z-6.495 F1080
G1 X127.937 Y55.068 Z-6.498 F1080
G1 X127.882 Y55.095 Z-6.501 F1080
G1 X127.824 Y55.115 Z-6.504 F1080
G1 X127.764 Y55.127 Z-6.507 F1080
G1 X127.703 Y55.132 Z-6.51 F1080
G1 X127.641 Y55.128 Z-6.513 F1080
G1 X127.581 Y55.117 Z-6.516 F1080
G1 X127.523 Y55.097 Z-6.519 F1080
G1 X127.467 Y55.071 Z-6.522 F1080
G1 X127.416 Y55.037 Z-6.525 F1080
G1 X127.369 Y54.997 Z-6.528 F1080
G1 X127.328 Y54.951 Z-6.531 F1080
G1 X127.294 Y54.9 Z-6.534 F1080
G1 X127.266 Y54.846 Z-6.537 F1080
G1 X127.245 Y54.788 Z-6.54 F1080
G1 X127.232 Y54.728 Z-6.543 F1080
G1 X127.228 Y54.666 Z-6.546 F1080
G1 X127.231 Y54.605 Z-6.549 F1080
G1 X127.242 Y54.545 Z-6.552 F1080
G1 X127.26 Y54.486 Z-6.555 F1080
G1 X127.287 Y54.43 Z-6.558 F1080
G1 X127.32 Y54.379 Z-6.561 F1080
G1 X127.359 Y54.332 Z-6.564 F1080
G1 X127.405 Y54.29 Z-6.567 F1080
G1 X127.455 Y54.255 Z-6.57 F1080
G1 X127.51 Y54.227 Z-6.573 F1080
G1 X127.567 Y54.206 Z-6.576 F1080
G1 X127.627 Y54.192 Z-6.579 F1080
G1 X127.689 Y54.187 Z-6.582 F1080
G1 X127.75 Y54.189 Z-6.585 F1080
G1 X127.81 Y54.2 Z-6.588 F1080
G1 X127.869 Y54.218 Z-6.591 F1080
G1 X127.925 Y54.244 Z-6.594 F1080
G1 X127.977 Y54.276 Z-6.597 F1080
G1 X128.024 Y54.316 Z-6.6 F1080
G1 X128.066 Y54.361 Z-6.603 F1080
G1 X128.102 Y54.411 Z-6.605 F1080
G1 X128.131 Y54.465 Z-6.608 F1080
G1 X128.152 Y54.522 Z-6.611 F1080
G1 X128.166 Y54.582 Z-6.614 F1080
G1 X128.172 Y54.643 Z-6.617 F1080
G1 X128.17 Y54.705 Z-6.62 F1080
G1 X128.16 Y54.765 Z-6.623 F1080
G1 X128.143 Y54.824 Z-6.626 F1080
G1 X128.118 Y54.88 Z-6.629 F1080
G1 X128.085 Y54.933 Z-6.632 F1080
G1 X128.047 Y54.98 Z-6.635 F1080
G1 X128.002 Y55.023 Z-6.638 F1080
G1 X127.952 Y55.059 Z-6.641 F1080
G1 X127.898 Y55.088 Z-6.644 F1080
G1 X127.841 Y55.11 Z-6.647 F1080
G1 X127.781 Y55.125 Z-6.65 F1080
G1 X127.72 Y55.131 Z-6.653 F1080
G1 X127.659 Y55.13 Z-6.656 F1080
G1 X127.598 Y55.121 Z-6.659 F1080
G1 X127.539 Y55.104 Z-6.662 F1080
G1 X127.483 Y55.079 Z-6.665 F1080
G1 X127.43 Y55.047 Z-6.668 F1080
G1 X127.382 Y55.009 Z-6.671 F1080
G1 X127.34 Y54.965 Z-6.674 F1080
G1 X127.303 Y54.915 Z-6.677 F1080
G1 X127.273 Y54.862 Z-6.68 F1080
G1 X127.25 Y54.805 Z-6.683 F1080
G1 X127.235 Y54.745 Z-6.686 F1080
G1 X127.228 Y54.684 Z-6.689 F1080
G1 X127.229 Y54.623 Z-6.692 F1080
G1 X127.238 Y54.562 Z-6.695 F1080
G1 X127.254 Y54.503 Z-6.698 F1080
G1 X127.278 Y54.446 Z-6.701 F1080
G1 X127.31 Y54.393 Z-6.704 F1080
G1 X127.347 Y54.345 Z-6.707 F1080
G1 X127.391 Y54.302 Z-6.71 F1080
G1 X127.44 Y54.265 Z-6.713 F1080
G1 X127.494 Y54.234 Z-6.716 F1080
G1 X127.55 Y54.211 Z-6.719 F1080
G1 X127.61 Y54.195 Z-6.722 F1080
G1 X127.671 Y54.188 Z-6.725 F1080
G1 X127.732 Z-6.728 F1080
G1 X127.793 Y54.196 Z-6.731 F1080
G1 X127.852 Y54.212 Z-6.734 F1080
G1 X127.909 Y54.236 Z-6.737 F1080
G1 X127.962 Y54.266 Z-6.74 F1080
G1 X128.011 Y54.304 Z-6.743 F1080
G1 X128.055 Y54.347 Z-6.746 F1080
G1 X128.092 Y54.396 Z-6.749 F1080
G1 X128.123 Y54.449 Z-6.751 F1080
G1 X128.147 Y54.506 Z-6.754 F1080
G1 X128.163 Y54.565 Z-6.757 F1080
G1 X128.171 Y54.626 Z-6.76 F1080
G1 X128.172 Y54.687 Z-6.763 F1080
G1 X128.164 Y54.748 Z-6.766 F1080
G1 X128.149 Y54.808 Z-6.769 F1080
G1 X128.126 Y54.865 Z-6.772 F1080
G1 X128.095 Y54.918 Z-6.775 F1080
G1 X128.058 Y54.967 Z-6.778 F1080
G1 X128.015 Y55.011 Z-6.781 F1080
G1 X127.967 Y55.049 Z-6.784 F1080
G1 X127.914 Y55.08 Z-6.787 F1080
G1 X127.858 Y55.105 Z-6.79 F1080
G1 X127.799 Y55.121 Z-6.793 F1080
G1 X127.738 Y55.13 Z-6.796 F1080
G1 X127.677 Y55.131 Z-6.799 F1080
G1 X127.616 Y55.124 Z-6.802 F1080
G1 X127.556 Y55.109 Z-6.805 F1080
G1 X127.499 Y55.087 Z-6.808 F1080
G1 X127.445 Y55.057 Z-6.811 F1080
G1 X127.396 Y55.021 Z-6.814 F1080
G1 X127.351 Y54.978 Z-6.817 F1080
G1 X127.313 Y54.93 Z-6.82 F1080
G1 X127.281 Y54.878 Z-6.823 F1080
G1 X127.256 Y54.821 Z-6.826 F1080
G1 X127.239 Y54.762 Z-6.829 F1080
G1 X127.229 Y54.702 Z-6.832 F1080
G1 X127.228 Y54.64 Z-6.835 F1080
G1 X127.234 Y54.579 Z-6.838 F1080
G1 X127.249 Y54.519 Z-6.841 F1080
G1 X127.271 Y54.462 Z-6.844 F1080
G1 X127.3 Y54.408 Z-6.847 F1080
G1 X127.336 Y54.358 Z-6.85 F1080
G1 X127.378 Y54.314 Z-6.853 F1080
G1 X127.426 Y54.275 Z-6.856 F1080
G1 X127.478 Y54.242 Z-6.859 F1080
G1 X127.534 Y54.217 Z-6.862 F1080
G1 X127.593 Y54.199 Z-6.865 F1080
G1 X127.653 Y54.189 Z-6.868 F1080
G1 X127.715 Y54.187 Z-6.871 F1080
G1 X127.776 Y54.193 Z-6.874 F1080
G1 X127.836 Y54.207 Z-6.877 F1080
G1 X127.893 Y54.228 Z-6.88 F1080
G1 X127.947 Y54.257 Z-6.883 F1080
G1 X127.998 Y54.292 Z-6.886 F1080
G1 X128.043 Y54.334 Z-6.889 F1080
G1 X128.082 Y54.381 Z-6.892 F1080
G1 X128.115 Y54.433 Z-6.895 F1080
G1 X128.141 Y54.489 Z-6.897 F1080
G1 X128.159 Y54.548 Z-6.9 F1080
G1 X128.17 Y54.608 Z-6.903 F1080
G1 X128.172 Y54.669 Z-6.906 F1080
G1 X128.167 Y54.731 Z-6.909 F1080
G1 X128.154 Y54.791 Z-6.912 F1080
G1 X128.133 Y54.848 Z-6.915 F1080
G1 X128.105 Y54.903 Z-6.918 F1080
G1 X128.07 Y54.953 Z-6.921 F1080
G1 X128.028 Y54.999 Z-6.924 F1080
G1 X127.982 Y55.039 Z-6.927 F1080
G1 X127.93 Y55.072 Z-6.93 F1080
G1 X127.875 Y55.098 Z-6.933 F1080
G1 X127.816 Y55.117 Z-6.936 F1080
G1 X127.756 Y55.129 Z-6.939 F1080
G1 X127.694 Y55.132 Z-6.942 F1080
G1 X127.633 Y55.127 Z-6.945 F1080
G1 X127.573 Y55.114 Z-6.948 F1080
G1 X127.515 Y55.094 Z-6.951 F1080
G1 X127.46 Y55.066 Z-6.954 F1080
G1 X127.409 Y55.032 Z-6.957 F1080
G1 X127.363 Y54.991 Z-6.96 F1080
G1 X127.323 Y54.944 Z-6.963 F1080
G1 X127.289 Y54.893 Z-6.966 F1080
G1 X127.263 Y54.838 Z-6.969 F1080
G1 X127.243 Y54.78 Z-6.972 F1080
G1 X127.231 Y54.719 Z-6.975 F1080
G1 X127.227 Y54.658 Z-6.978 F1080
G1 X127.232 Y54.597 Z-6.981 F1080
G1 X127.244 Y54.536 Z-6.984 F1080
G1 X127.264 Y54.478 Z-6.987 F1080
G1 X127.291 Y54.423 Z-6.99 F1080
G1 X127.325 Y54.372 Z-6.993 F1080
G1 X127.365 Y54.326 Z-6.996 F1080
G1 X127.411 Y54.285 Z-6.999 F1080
G1 X127.462 Y54.251 Z-7.002 F1080
G1 X127.517 Y54.224 Z-7.005 F1080
G1 X127.575 Y54.204 Z-7.008 F1080
G1 X127.636 Y54.191 Z-7.011 F1080
G1 X127.697 Y54.187 Z-7.014 F1080
G1 X127.758 Y54.19 Z-7.017 F1080
G1 X127.819 Y54.202 Z-7.02 F1080
G1 X127.877 Y54.221 Z-7.023 F1080
G1 X127.932 Y54.248 Z-7.026 F1080
G1 X127.984 Y54.281 Z-7.029 F1080
G1 X128.03 Y54.321 Z-7.032 F1080
G1 X128.071 Y54.367 Z-7.035 F1080
G1 X128.106 Y54.418 Z-7.038 F1080
G1 X128.134 Y54.473 Z-7.04 F1080
G1 X128.155 Y54.53 Z-7.043 F1080
G1 X128.167 Y54.59 Z-7.046 F1080
G1 X128.172 Y54.652 Z-7.049 F1080
G1 X128.169 Y54.713 Z-7.052 F1080
G1 X128.158 Y54.774 Z-7.055 F1080
G1 X128.14 Y54.832 Z-7.058 F1080
G1 X128.114 Y54.888 Z-7.061 F1080
G1 X128.081 Y54.939 Z-7.064 F1080
G1 X128.041 Y54.986 Z-7.067 F1080
G1 X127.996 Y55.028 Z-7.07 F1080
G1 X127.945 Y55.063 Z-7.073 F1080
G1 X127.891 Y55.092 Z-7.076 F1080
G1 X127.833 Y55.113 Z-7.079 F1080
G1 X127.773 Y55.126 Z-7.082 F1080
G1 X127.712 Y55.132 Z-7.085 F1080
G1 X127.651 Y55.129 Z-7.088 F1080
G1 X127.59 Y55.119 Z-7.091 F1080
G1 X127.531 Y55.101 Z-7.094 F1080
G1 X127.476 Y55.075 Z-7.097 F1080
G1 X127.423 Y55.042 Z-7.1 F1080
G1 X127.376 Y55.003 Z-7.103 F1080
G1 X127.334 Y54.958 Z-7.106 F1080
G1 X127.298 Y54.908 Z-7.109 F1080
G1 X127.27 Y54.854 Z-7.112 F1080
G1 X127.248 Y54.797 Z-7.115 F1080
G1 X127.234 Y54.737 Z-7.118 F1080
G1 X127.228 Y54.676 Z-7.121 F1080
G1 X127.23 Y54.614 Z-7.124 F1080
G1 X127.239 Y54.554 Z-7.127 F1080
G1 X127.257 Y54.495 Z-7.13 F1080
G1 X127.282 Y54.439 Z-7.133 F1080
G1 X127.314 Y54.386 Z-7.136 F1080
G1 X127.353 Y54.339 Z-7.139 F1080
G1 X127.397 Y54.296 Z-7.142 F1080
G1 X127.447 Y54.26 Z-7.145 F1080
G1 X127.501 Y54.231 Z-7.148 F1080
G1 X127.558 Y54.209 Z-7.151 F1080
G1 X127.618 Y54.194 Z-7.154 F1080
G1 X127.679 Y54.187 Z-7.157 F1080
G1 X127.741 Y54.189 Z-7.16 F1080
G1 X127.801 Y54.198 Z-7.163 F1080
G1 X127.86 Y54.215 Z-7.166 F1080
G1 X127.917 Y54.239 Z-7.169 F1080
G1 X127.969 Y54.271 Z-7.172 F1080
G1 X128.017 Y54.309 Z-7.175 F1080
G1 X128.06 Y54.353 Z-7.178 F1080
G1 X128.097 Y54.403 Z-7.181 F1080
G1 X128.127 Y54.456 Z-7.184 F1080
G1 X128.149 Y54.513 Z-7.186 F1080
G1 X128.165 Y54.573 Z-7.189 F1080
G1 X128.172 Y54.634 Z-7.192 F1080
G1 X128.171 Y54.695 Z-7.195 F1080
G1 X128.162 Y54.756 Z-7.198 F1080
G1 X128.146 Y54.815 Z-7.201 F1080
G1 X128.122 Y54.872 Z-7.204 F1080
G1 X128.091 Y54.925 Z-7.207 F1080
G1 X128.053 Y54.973 Z-7.21 F1080
G1 X128.009 Y55.017 Z-7.213 F1080
G1 X127.96 Y55.054 Z-7.216 F1080
G1 X127.907 Y55.084 Z-7.219 F1080
G1 X127.85 Y55.107 Z-7.222 F1080
G1 X127.791 Y55.123 Z-7.225 F1080
G1 X127.73 Y55.131 Z-7.228 F1080
G1 X127.668 Z-7.231 F1080
G1 X127.607 Y55.123 Z-7.234 F1080
G1 X127.548 Y55.107 Z-7.237 F1080
G1 X127.491 Y55.083 Z-7.24 F1080
G1 X127.438 Y55.053 Z-7.243 F1080
G1 X127.389 Y55.015 Z-7.246 F1080
G1 X127.346 Y54.972 Z-7.249 F1080
G1 X127.308 Y54.923 Z-7.252 F1080
G1 X127.277 Y54.87 Z-7.255 F1080
G1 X127.253 Y54.814 Z-7.258 F1080
G1 X127.237 Y54.754 Z-7.261 F1080
G1 X127.229 Y54.693 Z-7.264 F1080
G1 X127.228 Y54.632 Z-7.267 F1080
G1 X127.236 Y54.571 Z-7.27 F1080
G1 X127.251 Y54.512 Z-7.273 F1080
G1 X127.274 Y54.455 Z-7.276 F1080
G1 X127.304 Y54.401 Z-7.279 F1080
G1 X127.341 Y54.352 Z-7.282 F1080
G1 X127.384 Y54.308 Z-7.285 F1080
G1 X127.432 Y54.27 Z-7.288 F1080
G1 X127.485 Y54.238 Z-7.291 F1080
G1 X127.542 Y54.214 Z-7.294 F1080
G1 X127.601 Y54.197 Z-7.297 F1080
G1 X127.661 Y54.188 Z-7.3 F1080
G1 X127.723 Y54.187 Z-7.303 F1080
G1 X127.784 Y54.194 Z-7.306 F1080
G1 X127.844 Y54.209 Z-7.309 F1080
G1 X127.901 Y54.232 Z-7.312 F1080
G1 X127.955 Y54.261 Z-7.315 F1080
G1 X128.004 Y54.298 Z-7.318 F1080
G1 X128.048 Y54.34 Z-7.321 F1080
G1 X128.087 Y54.388 Z-7.324 F1080
G1 X128.119 Y54.441 Z-7.327 F1080
G1 X128.144 Y54.497 Z-7.33 F1080
G1 X128.161 Y54.556 Z-7.332 F1080
G1 X128.171 Y54.616 Z-7.335 F1080
G1 X128.172 Y54.678 Z-7.338 F1080
G1 X128.166 Y54.739 Z-7.341 F1080
G1 X128.151 Y54.799 Z-7.344 F1080
G1 X128.13 Y54.856 Z-7.347 F1080
G1 X128.1 Y54.91 Z-7.35 F1080
G1 X128.065 Y54.96 Z-7.353 F1080
G1 X128.022 Y55.005 Z-7.356 F1080
G1 X127.975 Y55.044 Z-7.359 F1080
G1 X127.923 Y55.076 Z-7.362 F1080
G1 X127.867 Y55.101 Z-7.365 F1080
G1 X127.808 Y55.119 Z-7.368 F1080
G1 X127.747 Y55.129 Z-7.371 F1080
G1 X127.686 Y55.132 Z-7.374 F1080
G1 X127.625 Y55.126 Z-7.377 F1080
G1 X127.565 Y55.112 Z-7.38 F1080
G1 X127.507 Y55.091 Z-7.383 F1080
G1 X127.453 Y55.062 Z-7.386 F1080
G1 X127.403 Y55.027 Z-7.389 F1080
G1 X127.358 Y54.985 Z-7.392 F1080
G1 X127.318 Y54.938 Z-7.395 F1080
G1 X127.285 Y54.886 Z-7.398 F1080
G1 X127.259 Y54.83 Z-7.401 F1080
G1 X127.241 Y54.772 Z-7.404 F1080
G1 X127.23 Y54.711 Z-7.407 F1080
G1 X127.228 Y54.65 Z-7.41 F1080
G1 X127.233 Y54.588 Z-7.413 F1080
G1 X127.246 Y54.528 Z-7.416 F1080
G1 X127.267 Y54.471 Z-7.419 F1080
G1 X127.295 Y54.416 Z-7.422 F1080
G1 X127.33 Y54.366 Z-7.425 F1080
G1 X127.371 Y54.32 Z-7.428 F1080
G1 X127.418 Y54.28 Z-7.431 F1080
G1 X127.47 Y54.247 Z-7.434 F1080
G1 X127.525 Y54.22 Z-7.437 F1080
G1 X127.583 Y54.201 Z-7.44 F1080
G1 X127.644 Y54.19 Z-7.443 F1080
G1 X127.705 Y54.187 Z-7.446 F1080
G1 X127.766 Y54.191 Z-7.449 F1080
G1 X127.827 Y54.204 Z-7.452 F1080
G1 X127.885 Y54.224 Z-7.455 F1080
G1 X127.939 Y54.252 Z-7.458 F1080
G1 X127.99 Y54.286 Z-7.461 F1080
G1 X128.036 Y54.327 Z-7.464 F1080
G1 X128.076 Y54.374 Z-7.467 F1080
G1 X128.11 Y54.425 Z-7.47 F1080
G1 X128.137 Y54.48 Z-7.473 F1080
G1 X128.157 Y54.538 Z-7.476 F1080
G1 X128.169 Y54.599 Z-7.478 F1080
G1 X128.172 Y54.66 Z-7.481 F1080
G1 X128.168 Y54.721 Z-7.484 F1080
G1 X128.156 Y54.782 Z-7.487 F1080
G1 X128.137 Y54.84 Z-7.49 F1080
G1 X128.11 Y54.895 Z-7.493 F1080
G1 X128.076 Y54.946 Z-7.496 F1080
G1 X128.035 Y54.992 Z-7.499 F1080
G1 X127.989 Y55.033 Z-7.502 F1080
G1 X127.938 Y55.067 Z-7.505 F1080
G1 X127.883 Y55.095 Z-7.508 F1080
G1 X127.825 Y55.115 Z-7.511 F1080
G1 X127.765 Y55.127 Z-7.514 F1080
G1 X127.704 Y55.132 Z-7.517 F1080
G1 X127.642 Y55.128 Z-7.52 F1080
G1 X127.582 Y55.117 Z-7.523 F1080
G1 X127.524 Y55.098 Z-7.526 F1080
G1 X127.468 Y55.071 Z-7.529 F1080
G1 X127.417 Y55.038 Z-7.532 F1080
G1 X127.37 Y54.998 Z-7.535 F1080
G1 X127.329 Y54.952 Z-7.538 F1080
G1 X127.294 Y54.901 Z-7.541 F1080
G1 X127.266 Y54.847 Z-7.544 F1080
G1 X127.246 Y54.789 Z-7.547 F1080
G1 X127.233 Y54.729 Z-7.55 F1080
G1 X127.228 Y54.667 Z-7.553 F1080
G1 X127.231 Y54.606 Z-7.556 F1080
G1 X127.241 Y54.546 Z-7.559 F1080
G1 X127.26 Y54.487 Z-7.562 F1080
G1 X127.286 Y54.431 Z-7.565 F1080
G1 X127.319 Y54.38 Z-7.568 F1080
G1 X127.359 Y54.333 Z-7.571 F1080
G1 X127.404 Y54.291 Z-7.574 F1080
G1 X127.454 Y54.256 Z-7.577 F1080
G1 X127.509 Y54.227 Z-7.58 F1080
G1 X127.566 Y54.206 Z-7.583 F1080
G1 X127.626 Y54.193 Z-7.586 F1080
G1 X127.687 Y54.187 Z-7.589 F1080
G1 X127.749 Y54.189 Z-7.592 F1080
G1 X127.809 Y54.2 Z-7.595 F1080
G1 X127.868 Y54.218 Z-7.598 F1080
G1 X127.924 Y54.243 Z-7.601 F1080
G1 X127.976 Y54.276 Z-7.604 F1080
G1 X128.023 Y54.315 Z-7.607 F1080
G1 X128.065 Y54.36 Z-7.61 F1080
G1 X128.101 Y54.41 Z-7.613 F1080
G1 X128.13 Y54.464 Z-7.616 F1080
G1 X128.152 Y54.521 Z-7.619 F1080
G1 X128.166 Y54.581 Z-7.621 F1080
G1 X128.172 Y54.642 Z-7.624 F1080
G1 X128.17 Y54.704 Z-7.627 F1080
G1 X128.161 Y54.764 Z-7.63 F1080
G1 X128.143 Y54.823 Z-7.633 F1080
G1 X128.118 Y54.879 Z-7.636 F1080
G1 X128.086 Y54.932 Z-7.639 F1080
G1 X128.047 Y54.98 Z-7.642 F1080
G1 X128.003 Y55.022 Z-7.645 F1080
G1 X127.953 Y55.058 Z-7.648 F1080
G1 X127.899 Y55.088 Z-7.651 F1080
G1 X127.842 Y55.11 Z-7.654 F1080
G1 X127.782 Y55.125 Z-7.657 F1080
G1 X127.721 Y55.131 Z-7.66 F1080
G1 X127.66 Y55.13 Z-7.663 F1080
G1 X127.599 Y55.121 Z-7.666 F1080
G1 X127.54 Y55.104 Z-7.669 F1080
G1 X127.484 Y55.079 Z-7.672 F1080
G1 X127.431 Y55.048 Z-7.675 F1080
G1 X127.383 Y55.01 Z-7.678 F1080
G1 X127.34 Y54.966 Z-7.681 F1080
G1 X127.304 Y54.916 Z-7.684 F1080
G1 X127.274 Y54.863 Z-7.687 F1080
G1 X127.251 Y54.806 Z-7.69 F1080
G1 X127.236 Y54.746 Z-7.693 F1080
G1 X127.228 Y54.685 Z-7.696 F1080
G1 X127.229 Y54.624 Z-7.699 F1080
G1 X127.237 Y54.563 Z-7.702 F1080
G1 X127.254 Y54.504 Z-7.705 F1080
G1 X127.278 Y54.447 Z-7.708 F1080
G1 X127.309 Y54.394 Z-7.711 F1080
G1 X127.347 Y54.346 Z-7.714 F1080
G1 X127.39 Y54.302 Z-7.717 F1080
G1 X127.439 Y54.265 Z-7.72 F1080
G1 X127.493 Y54.235 Z-7.723 F1080
G1 X127.549 Y54.211 Z-7.726 F1080
G1 X127.609 Y54.196 Z-7.729 F1080
G1 X127.67 Y54.188 Z-7.732 F1080
G1 X127.731 Z-7.735 F1080
G1 X127.792 Y54.196 Z-7.738 F1080
G1 X127.851 Y54.212 Z-7.741 F1080
G1 X127.908 Y54.235 Z-7.744 F1080
G1 X127.962 Y54.266 Z-7.747 F1080
G1 X128.01 Y54.303 Z-7.75 F1080
G1 X128.054 Y54.346 Z-7.753 F1080
G1 X128.092 Y54.395 Z-7.756 F1080
G1 X128.123 Y54.448 Z-7.759 F1080
G1 X128.146 Y54.505 Z-7.762 F1080
G1 X128.163 Y54.564 Z-7.765 F1080
G1 X128.171 Y54.625 Z-7.767 F1080
G1 X128.172 Y54.686 Z-7.77 F1080
G1 X128.164 Y54.747 Z-7.773 F1080
G1 X128.149 Y54.807 Z-7.776 F1080
G1 X128.126 Y54.864 Z-7.779 F1080
G1 X128.096 Y54.917 Z-7.782 F1080
G1 X128.059 Y54.966 Z-7.785 F1080
G1 X128.016 Y55.01 Z-7.788 F1080
G1 X127.968 Y55.048 Z-7.791 F1080
G1 X127.915 Y55.08 Z-7.794 F1080
G1 X127.859 Y55.104 Z-7.797 F1080
G1 X127.8 Y55.121 Z-7.8 F1080
G1 X127.739 Y55.13 Z-7.803 F1080
G1 X127.678 Y55.131 Z-7.806 F1080
G1 X127.617 Y55.124 Z-7.809 F1080
G1 X127.557 Y55.11 Z-7.812 F1080
G1 X127.5 Y55.087 Z-7.815 F1080
G1 X127.446 Y55.058 Z-7.818 F1080
G1 X127.396 Y55.021 Z-7.821 F1080
G1 X127.352 Y54.979 Z-7.824 F1080
G1 X127.313 Y54.931 Z-7.827 F1080
G1 X127.281 Y54.879 Z-7.83 F1080
G1 X127.257 Y54.822 Z-7.833 F1080
G1 X127.239 Y54.763 Z-7.836 F1080
G1 X127.23 Y54.703 Z-7.839 F1080
G1 X127.228 Y54.641 Z-7.842 F1080
G1 X127.234 Y54.58 Z-7.845 F1080
G1 X127.248 Y54.52 Z-7.848 F1080
G1 X127.27 Y54.463 Z-7.851 F1080
G1 X127.299 Y54.409 Z-7.854 F1080
G1 X127.335 Y54.359 Z-7.857 F1080
G1 X127.377 Y54.314 Z-7.86 F1080
G1 X127.425 Y54.275 Z-7.863 F1080
G1 X127.477 Y54.243 Z-7.866 F1080
G1 X127.533 Y54.217 Z-7.869 F1080
G1 X127.591 Y54.199 Z-7.872 F1080
G1 X127.652 Y54.189 Z-7.875 F1080
G1 X127.713 Y54.187 Z-7.878 F1080
G1 X127.775 Y54.193 Z-7.881 F1080
G1 X127.835 Y54.206 Z-7.884 F1080
G1 X127.892 Y54.228 Z-7.887 F1080
G1 X127.947 Y54.256 Z-7.89 F1080
G1 X127.997 Y54.292 Z-7.893 F1080
G1 X128.042 Y54.333 Z-7.896 F1080
G1 X128.081 Y54.38 Z-7.899 F1080
G1 X128.114 Y54.432 Z-7.902 F1080
G1 X128.14 Y54.488 Z-7.905 F1080
G1 X128.159 Y54.546 Z-7.908 F1080
G1 X128.17 Y54.607 Z-7.911 F1080
G1 X128.172 Y54.668 Z-7.913 F1080
G1 X128.167 Y54.73 Z-7.916 F1080
G1 X128.154 Y54.79 Z-7.919 F1080
G1 X128.133 Y54.847 Z-7.922 F1080
G1 X128.105 Y54.902 Z-7.925 F1080
G1 X128.07 Y54.953 Z-7.928 F1080
G1 X128.029 Y54.998 Z-7.931 F1080
G1 X127.982 Y55.038 Z-7.934 F1080
G1 X127.931 Y55.072 Z-7.937 F1080
G1 X127.876 Y55.098 Z-7.94 F1080
G1 X127.817 Y55.117 Z-7.943 F1080
G1 X127.757 Y55.128 Z-7.946 F1080
G1 X127.695 Y55.132 Z-7.949 F1080
G1 X127.634 Y55.127 Z-7.952 F1080
G1 X127.574 Y55.115 Z-7.955 F1080
G1 X127.516 Y55.094 Z-7.958 F1080
G1 X127.461 Y55.067 Z-7.961 F1080
G1 X127.41 Y55.032 Z-7.964 F1080
G1 X127.364 Y54.992 Z-7.967 F1080
G1 X127.324 Y54.945 Z-7.97 F1080
G1 X127.29 Y54.894 Z-7.973 F1080
G1 X127.263 Y54.839 Z-7.976 F1080
G1 X127.243 Y54.781 Z-7.979 F1080
G1 X127.231 Y54.72 Z-7.982 F1080
G1 X127.227 Y54.659 Z-7.985 F1080
G1 X127.232 Y54.598 Z-7.988 F1080
G1 X127.243 Y54.538 Z-7.991 F1080
G1 X127.263 Y54.479 Z-7.994 F1080
G1 X127.29 Y54.424 Z-7.997 F1080
G1 X127.324 Y54.373 Z-8 F1080
G1 X127.364 Y54.327 Z-8.003 F1080
G1 X127.41 Y54.286 Z-8.006 F1080
G1 X127.461 Y54.251 Z-8.009 F1080
G1 X127.516 Y54.224 Z-8.012 F1080
G1 X127.574 Y54.204 Z-8.015 F1080
G1 X127.634 Y54.191 Z-8.018 F1080
G1 X127.696 Y54.187 Z-8.021 F1080
G1 X127.757 Y54.19 Z-8.024 F1080
G1 X127.817 Y54.202 Z-8.027 F1080
G1 X127.876 Y54.221 Z-8.03 F1080
G1 X127.931 Y54.247 Z-8.033 F1080
G1 X127.983 Y54.281 Z-8.036 F1080
G1 X128.03 Y54.321 Z-8.039 F1080
G1 X128.071 Y54.366 Z-8.042 F1080
G1 X128.106 Y54.417 Z-8.045 F1080
G1 X128.134 Y54.472 Z-8.048 F1080
G1 X128.154 Y54.529 Z-8.051 F1080
G1 X128.167 Y54.589 Z-8.054 F1080
G1 X128.172 Y54.651 Z-8.056 F1080
G1 X128.17 Y54.712 Z-8.059 F1080
G1 X128.159 Y54.772 Z-8.062 F1080
G1 X128.14 Y54.831 Z-8.065 F1080
G1 X128.114 Y54.887 Z-8.068 F1080
G1 X128.081 Y54.939 Z-8.071 F1080
G1 X128.042 Y54.986 Z-8.074 F1080
G1 X127.996 Y55.027 Z-8.077 F1080
G1 X127.946 Y55.063 Z-8.08 F1080
G1 X127.892 Y55.091 Z-8.083 F1080
G1 X127.834 Y55.112 Z-8.086 F1080
G1 X127.774 Y55.126 Z-8.089 F1080
G1 X127.713 Y55.132 Z-8.092 F1080
G1 X127.652 Y55.129 Z-8.095 F1080
G1 X127.591 Y55.119 Z-8.098 F1080
G1 X127.532 Y55.101 Z-8.101 F1080
G1 X127.476 Y55.076 Z-8.104 F1080
G1 X127.424 Y55.043 Z-8.107 F1080
G1 X127.377 Y55.004 Z-8.11 F1080
G1 X127.335 Y54.959 Z-8.113 F1080
G1 X127.299 Y54.909 Z-8.116 F1080
G1 X127.27 Y54.855 Z-8.119 F1080
G1 X127.248 Y54.798 Z-8.122 F1080
G1 X127.234 Y54.738 Z-8.125 F1080
G1 X127.228 Y54.677 Z-8.128 F1080
G1 X127.23 Y54.615 Z-8.131 F1080
G1 X127.239 Y54.555 Z-8.134 F1080
G1 X127.257 Y54.496 Z-8.137 F1080
G1 X127.282 Y54.44 Z-8.14 F1080
G1 X127.314 Y54.387 Z-8.143 F1080
G1 X127.352 Y54.339 Z-8.146 F1080
G1 X127.397 Y54.297 Z-8.149 F1080
G1 X127.446 Y54.261 Z-8.152 F1080
G1 X127.5 Y54.231 Z-8.155 F1080
G1 X127.557 Y54.209 Z-8.158 F1080
G1 X127.617 Y54.194 Z-8.161 F1080
G1 X127.678 Y54.187 Z-8.164 F1080
G1 X127.739 Y54.188 Z-8.167 F1080
G1 X127.8 Y54.198 Z-8.17 F1080
G1 X127.859 Y54.214 Z-8.173 F1080
G1 X127.916 Y54.239 Z-8.176 F1080
G1 X127.968 Y54.27 Z-8.179 F1080
G1 X128.017 Y54.309 Z-8.182 F1080
G1 X128.059 Y54.353 Z-8.185 F1080
G1 X128.096 Y54.402 Z-8.188 F1080
G1 X128.126 Y54.455 Z-8.191 F1080
G1 X128.149 Y54.512 Z-8.194 F1080
G1 X128.164 Y54.572 Z-8.197 F1080
G1 X128.172 Y54.633 Z-8.2 F1080
G1 X128.171 Y54.694 Z-8.202 F1080
G1 X128.163 Y54.755 Z-8.205 F1080
G1 X128.146 Y54.814 Z-8.208 F1080
G1 X128.122 Y54.871 Z-8.211 F1080
G1 X128.091 Y54.924 Z-8.214 F1080
G1 X128.054 Y54.973 Z-8.217 F1080
G1 X128.01 Y55.016 Z-8.22 F1080
G1 X127.961 Y55.053 Z-8.223 F1080
G1 X127.908 Y55.084 Z-8.226 F1080
G1 X127.851 Y55.107 Z-8.229 F1080
G1 X127.792 Y55.123 Z-8.232 F1080
G1 X127.731 Y55.131 Z-8.235 F1080
G1 X127.669 Z-8.238 F1080
G1 X127.608 Y55.123 Z-8.241 F1080
G1 X127.549 Y55.107 Z-8.244 F1080
G1 X127.492 Y55.084 Z-8.247 F1080
G1 X127.439 Y55.053 Z-8.25 F1080
G1 X127.39 Y55.016 Z-8.253 F1080
G1 X127.346 Y54.973 Z-8.256 F1080
G1 X127.309 Y54.924 Z-8.259 F1080
G1 X127.278 Y54.871 Z-8.262 F1080
G1 X127.254 Y54.815 Z-8.265 F1080
G1 X127.237 Y54.755 Z-8.268 F1080
G1 X127.229 Y54.695 Z-8.271 F1080
G1 X127.228 Y54.633 Z-8.274 F1080
G1 X127.236 Y54.572 Z-8.277 F1080
G1 X127.251 Y54.513 Z-8.28 F1080
G1 X127.274 Y54.456 Z-8.283 F1080
G1 X127.304 Y54.402 Z-8.286 F1080
G1 X127.34 Y54.353 Z-8.289 F1080
G1 X127.383 Y54.309 Z-8.292 F1080
G1 X127.431 Y54.271 Z-8.295 F1080
G1 X127.484 Y54.239 Z-8.298 F1080
G1 X127.541 Y54.215 Z-8.301 F1080
G1 X127.6 Y54.198 Z-8.304 F1080
G1 X127.66 Y54.188 Z-8.307 F1080
G1 X127.722 Y54.187 Z-8.31 F1080
G1 X127.783 Y54.194 Z-8.313 F1080
G1 X127.843 Y54.209 Z-8.316 F1080
G1 X127.9 Y54.231 Z-8.319 F1080
G1 X127.954 Y54.261 Z-8.322 F1080
G1 X128.003 Y54.297 Z-8.325 F1080
G1 X128.048 Y54.339 Z-8.328 F1080
G1 X128.086 Y54.387 Z-8.331 F1080
G1 X128.118 Y54.44 Z-8.334 F1080
G1 X128.143 Y54.496 Z-8.337 F1080
G1 X128.161 Y54.555 Z-8.34 F1080
G1 X128.17 Y54.615 Z-8.343 F1080
G1 X128.172 Y54.677 Z-8.346 F1080
G1 X128.166 Y54.738 Z-8.348 F1080
G1 X128.152 Y54.798 Z-8.351 F1080
G1 X128.13 Y54.855 Z-8.354 F1080
G1 X128.101 Y54.909 Z-8.357 F1080
G1 X128.065 Y54.959 Z-8.36 F1080
G1 X128.023 Y55.004 Z-8.363 F1080
G1 X127.976 Y55.043 Z-8.366 F1080
G1 X127.924 Y55.076 Z-8.369 F1080
G1 X127.868 Y55.101 Z-8.372 F1080
G1 X127.809 Y55.119 Z-8.375 F1080
G1 X127.748 Y55.129 Z-8.378 F1080
G1 X127.687 Y55.132 Z-8.381 F1080
G1 X127.626 Y55.126 Z-8.384 F1080
G1 X127.566 Y55.112 Z-8.387 F1080
G1 X127.508 Y55.091 Z-8.39 F1080
G1 X127.454 Y55.063 Z-8.393 F1080
G1 X127.404 Y55.027 Z-8.396 F1080
G1 X127.358 Y54.986 Z-8.399 F1080
G1 X127.319 Y54.939 Z-8.402 F1080
G1 X127.286 Y54.887 Z-8.405 F1080
G1 X127.26 Y54.831 Z-8.408 F1080
G1 X127.241 Y54.773 Z-8.411 F1080
G1 X127.23 Y54.712 Z-8.414 F1080
G1 X127.228 Y54.651 Z-8.417 F1080
G1 X127.233 Y54.59 Z-8.42 F1080
G1 X127.246 Y54.53 Z-8.423 F1080
G1 X127.266 Y54.472 Z-8.426 F1080
G1 X127.294 Y54.417 Z-8.429 F1080
G1 X127.329 Y54.366 Z-8.432 F1080
G1 X127.37 Y54.321 Z-8.435 F1080
G1 X127.417 Y54.281 Z-8.438 F1080
G1 X127.469 Y54.247 Z-8.441 F1080
G1 X127.524 Y54.221 Z-8.444 F1080
G1 X127.582 Y54.202 Z-8.447 F1080
G1 X127.643 Y54.19 Z-8.45 F1080
G1 X127.704 Y54.187 Z-8.453 F1080
G1 X127.765 Y54.191 Z-8.456 F1080
G1 X127.826 Y54.204 Z-8.459 F1080
G1 X127.884 Y54.224 Z-8.462 F1080
G1 X127.938 Y54.251 Z-8.465 F1080
G1 X127.989 Y54.286 Z-8.468 F1080
G1 X128.035 Y54.326 Z-8.471 F1080
G1 X128.076 Y54.373 Z-8.474 F1080
G1 X128.11 Y54.424 Z-8.477 F1080
G1 X128.137 Y54.479 Z-8.48 F1080
G1 X128.156 Y54.537 Z-8.483 F1080
G1 X128.168 Y54.598 Z-8.486 F1080
G1 X128.172 Y54.659 Z-8.489 F1080
G1 X128.169 Y54.72 Z-8.492 F1080
G1 X128.157 Y54.781 Z-8.494 F1080
G1 X128.137 Y54.839 Z-8.497 F1080
G1 X128.11 Y54.894 Z-8.5 F1080
G1 X128.076 Y54.945 Z-8.503 F1080
G1 X128.036 Y54.992 Z-8.506 F1080
G1 X127.99 Y55.032 Z-8.509 F1080
G1 X127.939 Y55.067 Z-8.512 F1080
G1 X127.884 Y55.094 Z-8.515 F1080
G1 X127.826 Y55.115 Z-8.518 F1080
G1 X127.766 Y55.127 Z-8.521 F1080
G1 X127.705 Y55.132 Z-8.524 F1080
G1 X127.643 Y55.128 Z-8.527 F1080
G1 X127.583 Y55.117 Z-8.53 F1080
G1 X127.525 Y55.098 Z-8.533 F1080
G1 X127.469 Y55.072 Z-8.536 F1080
G1 X127.418 Y55.038 Z-8.539 F1080
G1 X127.371 Y54.998 Z-8.542 F1080
G1 X127.33 Y54.953 Z-8.545 F1080
G1 X127.295 Y54.902 Z-8.548 F1080
G1 X127.267 Y54.848 Z-8.551 F1080
G1 X127.246 Y54.79 Z-8.554 F1080
G1 X127.233 Y54.73 Z-8.557 F1080
G1 X127.228 Y54.669 Z-8.56 F1080
G1 X127.23 Y54.607 Z-8.563 F1080
G1 X127.241 Y54.547 Z-8.566 F1080
G1 X127.26 Y54.488 Z-8.569 F1080
G1 X127.286 Y54.432 Z-8.572 F1080
G1 X127.319 Y54.381 Z-8.575 F1080
G1 X127.358 Y54.333 Z-8.578 F1080
G1 X127.403 Y54.292 Z-8.581 F1080
G1 X127.453 Y54.256 Z-8.584 F1080
G1 X127.508 Y54.228 Z-8.587 F1080
G1 X127.565 Y54.206 Z-8.59 F1080
G1 X127.625 Y54.193 Z-8.593 F1080
G1 X127.686 Y54.187 Z-8.596 F1080
G1 X127.748 Y54.189 Z-8.599 F1080
G1 X127.808 Y54.199 Z-8.602 F1080
G1 X127.867 Y54.217 Z-8.605 F1080
G1 X127.923 Y54.243 Z-8.608 F1080
G1 X127.975 Y54.275 Z-8.611 F1080
G1 X128.023 Y54.314 Z-8.614 F1080
G1 X128.065 Y54.359 Z-8.617 F1080
G1 X128.101 Y54.409 Z-8.62 F1080
G1 X128.13 Y54.463 Z-8.623 F1080
G1 X128.152 Y54.52 Z-8.626 F1080
G1 X128.166 Y54.58 Z-8.629 F1080
G1 X128.172 Y54.641 Z-8.632 F1080
G1 X128.171 Y54.703 Z-8.635 F1080
G1 X128.161 Y54.763 Z-8.637 F1080
G1 X128.144 Y54.822 Z-8.64 F1080
G1 X128.119 Y54.878 Z-8.643 F1080
G1 X128.087 Y54.931 Z-8.646 F1080
G1 X128.048 Y54.979 Z-8.649 F1080
G1 X128.004 Y55.021 Z-8.652 F1080
G1 X127.954 Y55.058 Z-8.655 F1080
G1 X127.9 Y55.087 Z-8.658 F1080
G1 X127.843 Y55.11 Z-8.661 F1080
G1 X127.784 Y55.124 Z-8.664 F1080
G1 X127.722 Y55.131 Z-8.667 F1080
G1 X127.661 Y55.13 Z-8.67 F1080
G1 X127.6 Y55.121 Z-8.673 F1080
