;Fusion CAM 2.0.20494
; Posts processor: MPCNC.cps
; Gcode generated: Monday, October 28, 2024 11:38:31 PM GMT
; Document: test v22
; Setup: Rear Pocket
;When using Fusion for Personal Use, the feedrate of rapid
;moves is reduced to match the feedrate of cutting moves,
;which can increase machining time. Unrestricted rapid moves
;are available with a Fusion Subscription.
; 
; Ranges Table:
;   X: Min=34.175 Max=115.325 Size=81.15
;   Y: Min=34.175 Max=115.325 Size=81.15
;   Z: Min=-12 Max=10 Size=22
; 
; Tools Table:
;  T5 D=6.35 CR=0 - ZMIN=-12 - flat end mill 
; 
; Feedrate and Scaling Properties:
;   Feed: Travel speed X/Y = 2500
;   Feed: Travel Speed Z = 300
;   Feed: Enforce Feedrate = true
;   Feed: Scale Feedrate = false
;   Feed: Max XY Cut Speed = 930
;   Feed: Max Z Cut Speed = 270
;   Feed: Max Toolpath Speed = 930
; 
; G1->G0 Mapping Properties:
;   Map: First G1 -> G0 Rapid = false
;   Map: G1s -> G0 Rapids = false
;   Map: SafeZ Mode = Retract : default = 15
;   Map: Allow Rapid Z = false
; 
; *** START begin ***
;   Set Absolute Positioning
;   Units = mm
;   Disable stepper timeout
G90
G21
M84 S0
; COMMAND_TOOL_MEASURE
; Probe to Zero Z
;   Ask User to Attach the Z Probe
;   Do Probing
;   Set Z to probe thickness: Z14
;   Retract the tool to 20
;   Ask User to Remove the Z Probe
M0 Attach ZProbe
G28 Z
G92 Z14
G0 Z20 F300
M400
M0 Detach ZProbe
; *** START end ***
; 
; *** SECTION begin ***
;   X Min: 34.175 - X Max: 115.325
;   Y Min: 34.175 - Y Max: 115.325
;   Z Min: -12 - Z Max: 10
; 2D Pocket3 - Milling - Tool: 5 -  flat end mill
; COMMAND_START_SPINDLE
; COMMAND_SPINDLE_CLOCKWISE
; >>> Spindle Speed: Manual
M0 Turn ON 10000RPM
; COMMAND_COOLANT_ON
M117  2D Pocket3
; MOVEMENT_CUTTING
G1 X76.143 Y74.739 Z10 F930
G1 Z5 F930
; MOVEMENT_PLUNGE
G1 Z3.135 F270
; MOVEMENT_RAMP_HELIX
G1 X76.117 Y74.753 Z2.943 F270
G1 X76.039 Y74.791 Z2.769 F270
G1 X75.916 Y74.846 Z2.629 F270
G1 X75.836 Y74.878 Z2.583 F270
G1 X75.756 Y74.907 Z2.536 F270
G1 X75.666 Y74.938 Z2.518 F270
G1 X75.574 Y74.965 Z2.5 F270
G1 X75.424 Y75.004 Z2.495 F270
G1 X75.272 Y75.034 Z2.489 F270
G1 X75.119 Y75.057 Z2.484 F270
G1 X74.964 Y75.072 Z2.478 F270
G1 X74.809 Y75.079 Z2.473 F270
G1 X74.654 Y75.078 Z2.467 F270
G1 X74.499 Y75.07 Z2.462 F270
G1 X74.345 Y75.053 Z2.457 F270
G1 X74.191 Y75.028 Z2.451 F270
G1 X74.04 Y74.995 Z2.446 F270
G1 X73.89 Y74.955 Z2.44 F270
G1 X73.742 Y74.907 Z2.435 F270
G1 X73.597 Y74.851 Z2.43 F270
G1 X73.456 Y74.788 Z2.424 F270
G1 X73.317 Y74.718 Z2.419 F270
G1 X73.183 Y74.641 Z2.413 F270
G1 X73.052 Y74.557 Z2.408 F270
G1 X72.926 Y74.466 Z2.402 F270
G1 X72.805 Y74.369 Z2.397 F270
G1 X72.689 Y74.266 Z2.392 F270
G1 X72.578 Y74.157 Z2.386 F270
G1 X72.474 Y74.043 Z2.381 F270
G1 X72.375 Y73.923 Z2.375 F270
G1 X72.282 Y73.798 Z2.37 F270
G1 X72.196 Y73.669 Z2.364 F270
G1 X72.117 Y73.536 Z2.359 F270
G1 X72.045 Y73.398 Z2.354 F270
G1 X71.98 Y73.257 Z2.348 F270
G1 X71.922 Y73.113 Z2.343 F270
G1 X71.872 Y72.966 Z2.337 F270
G1 X71.829 Y72.817 Z2.332 F270
G1 X71.794 Y72.666 Z2.327 F270
G1 X71.767 Y72.513 Z2.321 F270
G1 X71.748 Y72.359 Z2.316 F270
G1 X71.737 Y72.204 Z2.31 F270
G1 X71.734 Y72.049 Z2.305 F270
G1 X71.739 Y71.894 Z2.299 F270
G1 X71.751 Y71.739 Z2.294 F270
G1 X71.772 Y71.586 Z2.289 F270
G1 X71.8 Y71.433 Z2.283 F270
G1 X71.837 Y71.282 Z2.278 F270
G1 X71.881 Y71.133 Z2.272 F270
G1 X71.932 Y70.987 Z2.267 F270
G1 X71.992 Y70.843 Z2.262 F270
G1 X72.058 Y70.703 Z2.256 F270
G1 X72.132 Y70.567 Z2.251 F270
G1 X72.212 Y70.434 Z2.245 F270
G1 X72.299 Y70.305 Z2.24 F270
G1 X72.393 Y70.182 Z2.234 F270
G1 X72.493 Y70.063 Z2.229 F270
G1 X72.599 Y69.95 Z2.224 F270
G1 X72.71 Y69.842 Z2.218 F270
G1 X72.827 Y69.74 Z2.213 F270
G1 X72.949 Y69.644 Z2.207 F270
G1 X73.076 Y69.555 Z2.202 F270
G1 X73.208 Y69.472 Z2.196 F270
G1 X73.343 Y69.396 Z2.191 F270
G1 X73.482 Y69.327 Z2.186 F270
G1 X73.624 Y69.265 Z2.18 F270
G1 X73.77 Y69.211 Z2.175 F270
G1 X73.918 Y69.165 Z2.169 F270
G1 X74.068 Y69.126 Z2.164 F270
G1 X74.22 Y69.094 Z2.159 F270
G1 X74.374 Y69.071 Z2.153 F270
G1 X74.528 Y69.056 Z2.148 F270
G1 X74.683 Y69.048 Z2.142 F270
G1 X74.838 Y69.049 Z2.137 F270
G1 X74.993 Y69.057 Z2.131 F270
G1 X75.147 Y69.074 Z2.126 F270
G1 X75.301 Y69.098 Z2.121 F270
G1 X75.453 Y69.13 Z2.115 F270
G1 X75.602 Y69.17 Z2.11 F270
G1 X75.75 Y69.218 Z2.104 F270
G1 X75.895 Y69.273 Z2.099 F270
G1 X76.037 Y69.336 Z2.093 F270
G1 X76.176 Y69.406 Z2.088 F270
G1 X76.311 Y69.483 Z2.083 F270
G1 X76.441 Y69.566 Z2.077 F270
G1 X76.568 Y69.657 Z2.072 F270
G1 X76.689 Y69.753 Z2.066 F270
G1 X76.805 Y69.856 Z2.061 F270
G1 X76.916 Y69.965 Z2.056 F270
G1 X77.021 Y70.079 Z2.05 F270
G1 X77.12 Y70.198 Z2.045 F270
G1 X77.213 Y70.323 Z2.039 F270
G1 X77.299 Y70.452 Z2.034 F270
G1 X77.379 Y70.585 Z2.028 F270
G1 X77.451 Y70.722 Z2.023 F270
G1 X77.517 Y70.863 Z2.018 F270
G1 X77.575 Y71.007 Z2.012 F270
G1 X77.626 Y71.153 Z2.007 F270
G1 X77.669 Y71.303 Z2.001 F270
G1 X77.704 Y71.454 Z1.996 F270
G1 X77.731 Y71.606 Z1.991 F270
G1 X77.751 Y71.76 Z1.985 F270
G1 X77.763 Y71.915 Z1.98 F270
G1 X77.766 Y72.07 Z1.974 F270
G1 X77.762 Y72.225 Z1.969 F270
G1 X77.75 Y72.38 Z1.963 F270
G1 X77.729 Y72.534 Z1.958 F270
G1 X77.701 Y72.687 Z1.953 F270
G1 X77.665 Y72.838 Z1.947 F270
G1 X77.622 Y72.987 Z1.942 F270
G1 X77.57 Y73.133 Z1.936 F270
G1 X77.512 Y73.277 Z1.931 F270
G1 X77.446 Y73.417 Z1.925 F270
G1 X77.372 Y73.554 Z1.92 F270
G1 X77.292 Y73.687 Z1.915 F270
G1 X77.205 Y73.815 Z1.909 F270
G1 X77.112 Y73.939 Z1.904 F270
G1 X77.012 Y74.058 Z1.898 F270
G1 X76.907 Y74.172 Z1.893 F270
G1 X76.796 Y74.28 Z1.888 F270
G1 X76.679 Y74.383 Z1.882 F270
G1 X76.557 Y74.479 Z1.877 F270
G1 X76.43 Y74.569 Z1.871 F270
G1 X76.299 Y74.652 Z1.866 F270
G1 X76.164 Y74.728 Z1.86 F270
G1 X76.025 Y74.797 Z1.855 F270
G1 X75.883 Y74.859 Z1.85 F270
G1 X75.738 Y74.914 Z1.844 F270
G1 X75.59 Y74.961 Z1.839 F270
G1 X75.44 Y75 Z1.833 F270
G1 X75.288 Y75.032 Z1.828 F270
G1 X75.134 Y75.055 Z1.822 F270
G1 X74.98 Y75.071 Z1.817 F270
G1 X74.825 Y75.079 Z1.812 F270
G1 X74.67 Z1.806 F270
G1 X74.515 Y75.071 Z1.801 F270
G1 X74.361 Y75.055 Z1.795 F270
G1 X74.207 Y75.031 Z1.79 F270
G1 X74.055 Y74.999 Z1.785 F270
G1 X73.905 Y74.959 Z1.779 F270
G1 X73.757 Y74.912 Z1.774 F270
G1 X73.612 Y74.857 Z1.768 F270
G1 X73.47 Y74.795 Z1.763 F270
G1 X73.331 Y74.726 Z1.757 F270
G1 X73.196 Y74.649 Z1.752 F270
G1 X73.065 Y74.566 Z1.747 F270
G1 X72.939 Y74.476 Z1.741 F270
G1 X72.817 Y74.379 Z1.736 F270
G1 X72.701 Y74.277 Z1.73 F270
G1 X72.59 Y74.169 Z1.725 F270
G1 X72.484 Y74.055 Z1.72 F270
G1 X72.385 Y73.935 Z1.714 F270
G1 X72.292 Y73.811 Z1.709 F270
G1 X72.205 Y73.683 Z1.703 F270
G1 X72.125 Y73.55 Z1.698 F270
G1 X72.052 Y73.413 Z1.692 F270
G1 X71.986 Y73.272 Z1.687 F270
G1 X71.928 Y73.128 Z1.682 F270
G1 X71.877 Y72.982 Z1.676 F270
G1 X71.833 Y72.833 Z1.671 F270
G1 X71.798 Y72.682 Z1.665 F270
G1 X71.77 Y72.529 Z1.66 F270
G1 X71.75 Y72.375 Z1.654 F270
G1 X71.738 Y72.22 Z1.649 F270
G1 X71.734 Y72.065 Z1.644 F270
G1 X71.738 Y71.91 Z1.638 F270
G1 X71.75 Y71.755 Z1.633 F270
G1 X71.769 Y71.601 Z1.627 F270
G1 X71.797 Y71.449 Z1.622 F270
G1 X71.833 Y71.298 Z1.617 F270
G1 X71.876 Y71.149 Z1.611 F270
G1 X71.927 Y71.002 Z1.606 F270
G1 X71.985 Y70.858 Z1.6 F270
G1 X72.051 Y70.718 Z1.595 F270
G1 X72.124 Y70.581 Z1.589 F270
G1 X72.203 Y70.447 Z1.584 F270
G1 X72.29 Y70.319 Z1.579 F270
G1 X72.383 Y70.194 Z1.573 F270
G1 X72.482 Y70.075 Z1.568 F270
G1 X72.588 Y69.961 Z1.562 F270
G1 X72.699 Y69.853 Z1.557 F270
G1 X72.815 Y69.75 Z1.551 F270
G1 X72.937 Y69.654 Z1.546 F270
G1 X73.063 Y69.563 Z1.541 F270
G1 X73.194 Y69.48 Z1.535 F270
G1 X73.329 Y69.403 Z1.53 F270
G1 X73.467 Y69.334 Z1.524 F270
G1 X73.61 Y69.271 Z1.519 F270
G1 X73.755 Y69.216 Z1.514 F270
G1 X73.902 Y69.169 Z1.508 F270
G1 X74.052 Y69.129 Z1.503 F270
G1 X74.204 Y69.097 Z1.497 F270
G1 X74.358 Y69.073 Z1.492 F270
G1 X74.512 Y69.057 Z1.486 F270
G1 X74.667 Y69.049 Z1.481 F270
G1 X74.822 Y69.048 Z1.476 F270
G1 X74.977 Y69.056 Z1.47 F270
G1 X75.132 Y69.072 Z1.465 F270
G1 X75.285 Y69.095 Z1.459 F270
G1 X75.437 Y69.127 Z1.454 F270
G1 X75.587 Y69.166 Z1.449 F270
G1 X75.735 Y69.213 Z1.443 F270
G1 X75.88 Y69.267 Z1.438 F270
G1 X76.023 Y69.329 Z1.432 F270
G1 X76.162 Y69.398 Z1.427 F270
G1 X76.297 Y69.474 Z1.421 F270
G1 X76.428 Y69.557 Z1.416 F270
G1 X76.555 Y69.647 Z1.411 F270
G1 X76.677 Y69.743 Z1.405 F270
G1 X76.793 Y69.845 Z1.4 F270
G1 X76.905 Y69.953 Z1.394 F270
G1 X77.011 Y70.067 Z1.389 F270
G1 X77.11 Y70.186 Z1.383 F270
G1 X77.204 Y70.31 Z1.378 F270
G1 X77.291 Y70.438 Z1.373 F270
G1 X77.371 Y70.571 Z1.367 F270
G1 X77.444 Y70.708 Z1.362 F270
G1 X77.51 Y70.848 Z1.356 F270
G1 X77.569 Y70.992 Z1.351 F270
G1 X77.621 Y71.138 Z1.346 F270
G1 X77.665 Y71.287 Z1.34 F270
G1 X77.701 Y71.438 Z1.335 F270
G1 X77.729 Y71.591 Z1.329 F270
G1 X77.749 Y71.744 Z1.324 F270
G1 X77.762 Y71.899 Z1.318 F270
G1 X77.766 Y72.054 Z1.313 F270
G1 X77.763 Y72.209 Z1.308 F270
G1 X77.751 Y72.364 Z1.302 F270
G1 X77.732 Y72.518 Z1.297 F270
G1 X77.705 Y72.671 Z1.291 F270
G1 X77.669 Y72.822 Z1.286 F270
G1 X77.626 Y72.971 Z1.28 F270
G1 X77.576 Y73.118 Z1.275 F270
G1 X77.518 Y73.262 Z1.27 F270
G1 X77.453 Y73.403 Z1.264 F270
G1 X77.38 Y73.54 Z1.259 F270
G1 X77.301 Y73.673 Z1.253 F270
G1 X77.215 Y73.802 Z1.248 F270
G1 X77.122 Y73.927 Z1.243 F270
G1 X77.023 Y74.046 Z1.237 F270
G1 X76.918 Y74.161 Z1.232 F270
G1 X76.807 Y74.269 Z1.226 F270
G1 X76.691 Y74.372 Z1.221 F270
G1 X76.57 Y74.469 Z1.215 F270
G1 X76.444 Y74.56 Z1.21 F270
G1 X76.313 Y74.643 Z1.205 F270
G1 X76.178 Y74.72 Z1.199 F270
G1 X76.04 Y74.79 Z1.194 F270
G1 X75.898 Y74.853 Z1.188 F270
G1 X75.753 Y74.908 Z1.183 F270
G1 X75.605 Y74.956 Z1.178 F270
G1 X75.455 Y74.996 Z1.172 F270
G1 X75.304 Y75.029 Z1.167 F270
G1 X75.15 Y75.053 Z1.161 F270
G1 X74.996 Y75.07 Z1.156 F270
G1 X74.841 Y75.079 Z1.15 F270
G1 X74.686 Z1.145 F270
G1 X74.531 Y75.072 Z1.14 F270
G1 X74.376 Y75.057 Z1.134 F270
G1 X74.223 Y75.034 Z1.129 F270
G1 X74.071 Y75.003 Z1.123 F270
G1 X73.921 Y74.964 Z1.118 F270
G1 X73.773 Y74.917 Z1.112 F270
G1 X73.627 Y74.863 Z1.107 F270
G1 X73.485 Y74.802 Z1.102 F270
G1 X73.345 Y74.733 Z1.096 F270
G1 X73.21 Y74.657 Z1.091 F270
G1 X73.079 Y74.575 Z1.085 F270
G1 X72.952 Y74.485 Z1.08 F270
G1 X72.83 Y74.39 Z1.075 F270
G1 X72.712 Y74.288 Z1.069 F270
G1 X72.601 Y74.18 Z1.064 F270
G1 X72.495 Y74.067 Z1.058 F270
G1 X72.395 Y73.948 Z1.053 F270
G1 X72.301 Y73.824 Z1.047 F270
G1 X72.214 Y73.696 Z1.042 F270
G1 X72.133 Y73.563 Z1.037 F270
G1 X72.059 Y73.427 Z1.031 F270
G1 X71.993 Y73.287 Z1.026 F270
G1 X71.934 Y73.143 Z1.02 F270
G1 X71.882 Y72.997 Z1.015 F270
G1 X71.838 Y72.848 Z1.009 F270
G1 X71.801 Y72.697 Z1.004 F270
G1 X71.772 Y72.545 Z0.999 F270
G1 X71.752 Y72.391 Z0.993 F270
G1 X71.739 Y72.236 Z0.988 F270
G1 X71.734 Y72.081 Z0.982 F270
G1 X71.737 Y71.926 Z0.977 F270
G1 X71.748 Y71.771 Z0.972 F270
G1 X71.767 Y71.617 Z0.966 F270
G1 X71.794 Y71.464 Z0.961 F270
G1 X71.829 Y71.313 Z0.955 F270
G1 X71.871 Y71.164 Z0.95 F270
G1 X71.921 Y71.017 Z0.944 F270
G1 X71.979 Y70.873 Z0.939 F270
G1 X72.044 Y70.732 Z0.934 F270
G1 X72.116 Y70.594 Z0.928 F270
G1 X72.195 Y70.461 Z0.923 F270
G1 X72.281 Y70.332 Z0.917 F270
G1 X72.373 Y70.207 Z0.912 F270
G1 X72.472 Y70.087 Z0.907 F270
G1 X72.576 Y69.973 Z0.901 F270
G1 X72.687 Y69.864 Z0.896 F270
G1 X72.803 Y69.76 Z0.89 F270
G1 X72.924 Y69.663 Z0.885 F270
G1 X73.05 Y69.572 Z0.879 F270
G1 X73.18 Y69.488 Z0.874 F270
G1 X73.315 Y69.411 Z0.869 F270
G1 X73.453 Y69.341 Z0.863 F270
G1 X73.595 Y69.278 Z0.858 F270
G1 X73.74 Y69.222 Z0.852 F270
G1 X73.887 Y69.174 Z0.847 F270
G1 X74.037 Y69.133 Z0.841 F270
G1 X74.189 Y69.1 Z0.836 F270
G1 X74.342 Y69.075 Z0.831 F270
G1 X74.496 Y69.058 Z0.825 F270
G1 X74.651 Y69.049 Z0.82 F270
G1 X74.806 Y69.048 Z0.814 F270
G1 X74.961 Y69.055 Z0.809 F270
G1 X75.116 Y69.07 Z0.804 F270
G1 X75.269 Y69.093 Z0.798 F270
G1 X75.421 Y69.123 Z0.793 F270
G1 X75.572 Y69.162 Z0.787 F270
G1 X75.72 Y69.208 Z0.782 F270
G1 X75.865 Y69.261 Z0.776 F270
G1 X76.008 Y69.322 Z0.771 F270
G1 X76.147 Y69.391 Z0.766 F270
G1 X76.283 Y69.466 Z0.76 F270
G1 X76.415 Y69.548 Z0.755 F270
G1 X76.542 Y69.637 Z0.749 F270
G1 X76.664 Y69.733 Z0.744 F270
G1 X76.782 Y69.834 Z0.738 F270
G1 X76.894 Y69.942 Z0.733 F270
G1 X77 Y70.055 Z0.728 F270
G1 X77.1 Y70.173 Z0.722 F270
G1 X77.194 Y70.297 Z0.717 F270
G1 X77.282 Y70.425 Z0.711 F270
G1 X77.363 Y70.557 Z0.706 F270
G1 X77.437 Y70.693 Z0.701 F270
G1 X77.504 Y70.834 Z0.695 F270
G1 X77.564 Y70.977 Z0.69 F270
G1 X77.616 Y71.123 Z0.684 F270
G1 X77.66 Y71.272 Z0.679 F270
G1 X77.697 Y71.422 Z0.673 F270
G1 X77.726 Y71.575 Z0.668 F270
G1 X77.748 Y71.729 Z0.663 F270
G1 X77.761 Y71.883 Z0.657 F270
G1 X77.766 Y72.038 Z0.652 F270
G1 X77.763 Y72.193 Z0.646 F270
G1 X77.753 Y72.348 Z0.641 F270
G1 X77.734 Y72.502 Z0.636 F270
G1 X77.708 Y72.655 Z0.63 F270
G1 X77.673 Y72.807 Z0.625 F270
G1 X77.631 Y72.956 Z0.619 F270
G1 X77.582 Y73.103 Z0.614 F270
G1 X77.524 Y73.247 Z0.608 F270
G1 X77.46 Y73.388 Z0.603 F270
G1 X77.388 Y73.526 Z0.598 F270
G1 X77.309 Y73.66 Z0.592 F270
G1 X77.224 Y73.789 Z0.587 F270
G1 X77.132 Y73.914 Z0.581 F270
G1 X77.034 Y74.034 Z0.576 F270
G1 X76.929 Y74.149 Z0.57 F270
G1 X76.819 Y74.258 Z0.565 F270
G1 X76.703 Y74.362 Z0.56 F270
G1 X76.583 Y74.459 Z0.554 F270
G1 X76.457 Y74.551 Z0.549 F270
G1 X76.327 Y74.635 Z0.543 F270
G1 X76.192 Y74.713 Z0.538 F270
G1 X76.054 Y74.783 Z0.533 F270
G1 X75.913 Y74.847 Z0.527 F270
G1 X75.768 Y74.903 Z0.522 F270
G1 X75.621 Y74.952 Z0.516 F270
G1 X75.471 Y74.993 Z0.511 F270
G1 X75.319 Y75.026 Z0.505 F270
G1 X75.166 Y75.051 Z0.5 F270
G1 X75.012 Y75.069 Z0.495 F270
G1 X74.857 Y75.078 Z0.489 F270
G1 X74.702 Y75.08 Z0.484 F270
G1 X74.547 Y75.073 Z0.478 F270
G1 X74.392 Y75.059 Z0.473 F270
G1 X74.239 Y75.036 Z0.467 F270
G1 X74.087 Y75.006 Z0.462 F270
G1 X73.936 Y74.968 Z0.457 F270
G1 X73.788 Y74.922 Z0.451 F270
G1 X73.642 Y74.869 Z0.446 F270
G1 X73.499 Y74.808 Z0.44 F270
G1 X73.36 Y74.74 Z0.435 F270
G1 X73.224 Y74.665 Z0.43 F270
G1 X73.092 Y74.583 Z0.424 F270
G1 X72.965 Y74.495 Z0.419 F270
G1 X72.842 Y74.4 Z0.413 F270
G1 X72.724 Y74.299 Z0.408 F270
G1 X72.612 Y74.191 Z0.402 F270
G1 X72.505 Y74.079 Z0.397 F270
G1 X72.405 Y73.961 Z0.392 F270
G1 X72.31 Y73.837 Z0.386 F270
G1 X72.222 Y73.71 Z0.381 F270
G1 X72.141 Y73.577 Z0.375 F270
G1 X72.067 Y73.441 Z0.37 F270
G1 X71.999 Y73.301 Z0.364 F270
G1 X71.939 Y73.158 Z0.359 F270
G1 X71.887 Y73.012 Z0.354 F270
G1 X71.842 Y72.864 Z0.348 F270
G1 X71.804 Y72.713 Z0.343 F270
G1 X71.775 Y72.561 Z0.337 F270
G1 X71.753 Y72.407 Z0.332 F270
G1 X71.74 Y72.252 Z0.327 F270
G1 X71.734 Y72.097 Z0.321 F270
G1 X71.736 Y71.942 Z0.316 F270
G1 X71.746 Y71.787 Z0.31 F270
G1 X71.765 Y71.633 Z0.305 F270
G1 X71.791 Y71.48 Z0.299 F270
G1 X71.825 Y71.329 Z0.294 F270
G1 X71.866 Y71.179 Z0.289 F270
G1 X71.916 Y71.032 Z0.283 F270
G1 X71.972 Y70.888 Z0.278 F270
G1 X72.037 Y70.746 Z0.272 F270
G1 X72.108 Y70.609 Z0.267 F270
G1 X72.186 Y70.475 Z0.262 F270
G1 X72.272 Y70.345 Z0.256 F270
G1 X72.363 Y70.22 Z0.251 F270
G1 X72.461 Y70.099 Z0.245 F270
G1 X72.565 Y69.984 Z0.24 F270
G1 X72.675 Y69.875 Z0.234 F270
G1 X72.79 Y69.771 Z0.229 F270
G1 X72.911 Y69.673 Z0.224 F270
G1 X73.036 Y69.582 Z0.218 F270
G1 X73.166 Y69.497 Z0.213 F270
G1 X73.301 Y69.419 Z0.207 F270
G1 X73.438 Y69.348 Z0.202 F270
G1 X73.58 Y69.284 Z0.196 F270
G1 X73.724 Y69.227 Z0.191 F270
G1 X73.872 Y69.178 Z0.186 F270
G1 X74.021 Y69.137 Z0.18 F270
G1 X74.173 Y69.103 Z0.175 F270
G1 X74.326 Y69.077 Z0.169 F270
G1 X74.48 Y69.06 Z0.164 F270
G1 X74.635 Y69.05 Z0.159 F270
G1 X74.79 Y69.048 Z0.153 F270
G1 X74.945 Y69.054 Z0.148 F270
G1 X75.1 Y69.068 Z0.142 F270
G1 X75.253 Y69.09 Z0.137 F270
G1 X75.406 Y69.12 Z0.131 F270
G1 X75.556 Y69.157 Z0.126 F270
G1 X75.705 Y69.203 Z0.121 F270
G1 X75.851 Y69.255 Z0.115 F270
G1 X75.994 Y69.316 Z0.11 F270
G1 X76.133 Y69.383 Z0.104 F270
G1 X76.269 Y69.458 Z0.099 F270
G1 X76.401 Y69.54 Z0.093 F270
G1 X76.529 Y69.628 Z0.088 F270
G1 X76.652 Y69.723 Z0.083 F270
G1 X76.77 Y69.824 Z0.077 F270
G1 X76.882 Y69.93 Z0.072 F270
G1 X76.989 Y70.043 Z0.066 F270
G1 X77.09 Y70.161 Z0.061 F270
G1 X77.185 Y70.284 Z0.056 F270
G1 X77.273 Y70.411 Z0.05 F270
G1 X77.355 Y70.543 Z0.045 F270
G1 X77.43 Y70.679 Z0.039 F270
G1 X77.497 Y70.819 Z0.034 F270
G1 X77.558 Y70.962 Z0.028 F270
G1 X77.611 Y71.108 Z0.023 F270
G1 X77.656 Y71.256 Z0.018 F270
G1 X77.694 Y71.407 Z0.012 F270
G1 X77.724 Y71.559 Z0.007 F270
G1 X77.746 Y71.713 Z0.001 F270
G1 X77.76 Y71.867 Z-0.004 F270
G1 X77.766 Y72.022 Z-0.009 F270
G1 X77.764 Y72.177 Z-0.015 F270
G1 X77.754 Y72.332 Z-0.02 F270
G1 X77.736 Y72.486 Z-0.026 F270
G1 X77.711 Y72.64 Z-0.031 F270
G1 X77.677 Y72.791 Z-0.037 F270
G1 X77.636 Y72.941 Z-0.042 F270
G1 X77.587 Y73.088 Z-0.047 F270
G1 X77.531 Y73.232 Z-0.053 F270
G1 X77.467 Y73.374 Z-0.058 F270
G1 X77.396 Y73.512 Z-0.064 F270
G1 X77.318 Y73.646 Z-0.069 F270
G1 X77.233 Y73.776 Z-0.075 F270
G1 X77.142 Y73.902 Z-0.08 F270
G1 X77.044 Y74.022 Z-0.085 F270
G1 X76.94 Y74.138 Z-0.091 F270
G1 X76.831 Y74.247 Z-0.096 F270
G1 X76.716 Y74.352 Z-0.102 F270
G1 X76.595 Y74.45 Z-0.107 F270
G1 X76.47 Y74.541 Z-0.112 F270
G1 X76.34 Y74.627 Z-0.118 F270
G1 X76.207 Y74.705 Z-0.123 F270
G1 X76.069 Y74.776 Z-0.129 F270
G1 X75.927 Y74.841 Z-0.134 F270
G1 X75.783 Y74.898 Z-0.14 F270
G1 X75.636 Y74.947 Z-0.145 F270
G1 X75.486 Y74.989 Z-0.15 F270
G1 X75.335 Y75.023 Z-0.156 F270
G1 X75.182 Y75.049 Z-0.161 F270
G1 X75.028 Y75.067 Z-0.167 F270
G1 X74.873 Y75.077 Z-0.172 F270
G1 X74.718 Y75.08 Z-0.178 F270
G1 X74.563 Y75.074 Z-0.183 F270
G1 X74.408 Y75.061 Z-0.188 F270
G1 X74.255 Y75.039 Z-0.194 F270
G1 X74.102 Y75.01 Z-0.199 F270
G1 X73.952 Y74.972 Z-0.205 F270
G1 X73.803 Y74.927 Z-0.21 F270
G1 X73.657 Y74.875 Z-0.215 F270
G1 X73.514 Y74.815 Z-0.221 F270
G1 X73.374 Y74.748 Z-0.226 F270
G1 X73.238 Y74.673 Z-0.232 F270
G1 X73.105 Y74.592 Z-0.237 F270
G1 X72.978 Y74.504 Z-0.243 F270
G1 X72.854 Y74.41 Z-0.248 F270
G1 X72.736 Y74.309 Z-0.253 F270
G1 X72.623 Y74.203 Z-0.259 F270
G1 X72.516 Y74.091 Z-0.264 F270
G1 X72.415 Y73.973 Z-0.27 F270
G1 X72.32 Y73.85 Z-0.275 F270
G1 X72.231 Y73.723 Z-0.28 F270
G1 X72.149 Y73.591 Z-0.286 F270
G1 X72.074 Y73.455 Z-0.291 F270
G1 X72.006 Y73.316 Z-0.297 F270
G1 X71.945 Y73.173 Z-0.302 F270
G1 X71.892 Y73.027 Z-0.308 F270
G1 X71.846 Y72.879 Z-0.313 F270
G1 X71.808 Y72.729 Z-0.318 F270
G1 X71.778 Y72.576 Z-0.324 F270
G1 X71.755 Y72.423 Z-0.329 F270
G1 X71.741 Y72.268 Z-0.335 F270
G1 X71.734 Y72.113 Z-0.34 F270
G1 X71.736 Y71.958 Z-0.346 F270
G1 X71.745 Y71.803 Z-0.351 F270
G1 X71.762 Y71.649 Z-0.356 F270
G1 X71.788 Y71.496 Z-0.362 F270
G1 X71.821 Y71.344 Z-0.367 F270
G1 X71.862 Y71.195 Z-0.373 F270
G1 X71.91 Y71.047 Z-0.378 F270
G1 X71.966 Y70.902 Z-0.383 F270
G1 X72.03 Y70.761 Z-0.389 F270
G1 X72.1 Y70.623 Z-0.394 F270
G1 X72.178 Y70.488 Z-0.4 F270
G1 X72.262 Y70.358 Z-0.405 F270
G1 X72.353 Y70.232 Z-0.411 F270
G1 X72.451 Y70.111 Z-0.416 F270
G1 X72.554 Y69.996 Z-0.421 F270
G1 X72.664 Y69.886 Z-0.427 F270
G1 X72.778 Y69.781 Z-0.432 F270
G1 X72.898 Y69.683 Z-0.438 F270
G1 X73.023 Y69.591 Z-0.443 F270
G1 X73.153 Y69.505 Z-0.449 F270
G1 X73.286 Y69.426 Z-0.454 F270
G1 X73.424 Y69.355 Z-0.459 F270
G1 X73.565 Y69.29 Z-0.465 F270
G1 X73.709 Y69.233 Z-0.47 F270
G1 X73.856 Y69.183 Z-0.476 F270
G1 X74.006 Y69.141 Z-0.481 F270
G1 X74.157 Y69.106 Z-0.486 F270
G1 X74.31 Y69.08 Z-0.492 F270
G1 X74.464 Y69.061 Z-0.497 F270
G1 X74.619 Y69.05 Z-0.503 F270
G1 X74.774 Y69.048 Z-0.508 F270
G1 X74.929 Y69.053 Z-0.514 F270
G1 X75.084 Y69.066 Z-0.519 F270
G1 X75.238 Y69.087 Z-0.524 F270
G1 X75.39 Y69.116 Z-0.53 F270
G1 X75.541 Y69.153 Z-0.535 F270
G1 X75.689 Y69.198 Z-0.541 F270
G1 X75.836 Y69.25 Z-0.546 F270
G1 X75.979 Y69.309 Z-0.551 F270
G1 X76.119 Y69.376 Z-0.557 F270
G1 X76.255 Y69.45 Z-0.562 F270
G1 X76.388 Y69.531 Z-0.568 F270
G1 X76.516 Y69.619 Z-0.573 F270
G1 X76.639 Y69.713 Z-0.579 F270
G1 X76.758 Y69.813 Z-0.584 F270
G1 X76.871 Y69.919 Z-0.589 F270
G1 X76.978 Y70.031 Z-0.595 F270
G1 X77.08 Y70.148 Z-0.6 F270
G1 X77.175 Y70.271 Z-0.606 F270
G1 X77.264 Y70.398 Z-0.611 F270
G1 X77.347 Y70.529 Z-0.617 F270
G1 X77.422 Y70.665 Z-0.622 F270
G1 X77.491 Y70.804 Z-0.627 F270
G1 X77.552 Y70.947 Z-0.633 F270
G1 X77.606 Y71.093 Z-0.638 F270
G1 X77.652 Y71.241 Z-0.644 F270
G1 X77.69 Y71.391 Z-0.649 F270
G1 X77.721 Y71.543 Z-0.654 F270
G1 X77.744 Y71.697 Z-0.66 F270
G1 X77.759 Y71.851 Z-0.665 F270
G1 X77.766 Y72.006 Z-0.671 F270
G1 X77.765 Y72.161 Z-0.676 F270
G1 X77.756 Y72.316 Z-0.682 F270
G1 X77.739 Y72.471 Z-0.687 F270
G1 X77.714 Y72.624 Z-0.692 F270
G1 X77.681 Y72.775 Z-0.698 F270
G1 X77.641 Y72.925 Z-0.703 F270
G1 X77.592 Y73.073 Z-0.709 F270
G1 X77.537 Y73.218 Z-0.714 F270
G1 X77.474 Y73.359 Z-0.72 F270
G1 X77.403 Y73.498 Z-0.725 F270
G1 X77.326 Y73.632 Z-0.73 F270
G1 X77.242 Y73.763 Z-0.736 F270
G1 X77.151 Y73.889 Z-0.741 F270
G1 X77.054 Y74.01 Z-0.747 F270
G1 X76.951 Y74.126 Z-0.752 F270
G1 X76.842 Y74.236 Z-0.757 F270
G1 X76.728 Y74.341 Z-0.763 F270
G1 X76.608 Y74.44 Z-0.768 F270
G1 X76.483 Y74.532 Z-0.774 F270
G1 X76.354 Y74.618 Z-0.779 F270
G1 X76.221 Y74.697 Z-0.785 F270
G1 X76.083 Y74.769 Z-0.79 F270
G1 X75.942 Y74.834 Z-0.795 F270
G1 X75.798 Y74.892 Z-0.801 F270
G1 X75.651 Y74.942 Z-0.806 F270
G1 X75.502 Y74.985 Z-0.812 F270
G1 X75.351 Y75.02 Z-0.817 F270
G1 X75.198 Y75.047 Z-0.822 F270
G1 X75.044 Y75.066 Z-0.828 F270
G1 X74.889 Y75.077 Z-0.833 F270
G1 X74.734 Y75.08 Z-0.839 F270
G1 X74.579 Y75.075 Z-0.844 F270
G1 X74.424 Y75.062 Z-0.85 F270
G1 X74.27 Y75.042 Z-0.855 F270
G1 X74.118 Y75.013 Z-0.86 F270
G1 X73.967 Y74.977 Z-0.866 F270
G1 X73.818 Y74.932 Z-0.871 F270
G1 X73.672 Y74.881 Z-0.877 F270
G1 X73.528 Y74.822 Z-0.882 F270
G1 X73.388 Y74.755 Z-0.888 F270
G1 X73.252 Y74.681 Z-0.893 F270
G1 X73.119 Y74.601 Z-0.898 F270
G1 X72.991 Y74.514 Z-0.904 F270
G1 X72.867 Y74.42 Z-0.909 F270
G1 X72.748 Y74.32 Z-0.915 F270
G1 X72.635 Y74.214 Z-0.92 F270
G1 X72.527 Y74.102 Z-0.925 F270
G1 X72.425 Y73.985 Z-0.931 F270
G1 X72.329 Y73.863 Z-0.936 F270
G1 X72.24 Y73.736 Z-0.942 F270
G1 X72.157 Y73.605 Z-0.947 F270
G1 X72.081 Y73.47 Z-0.953 F270
G1 X72.013 Y73.33 Z-0.958 F270
G1 X71.951 Y73.188 Z-0.963 F270
G1 X71.897 Y73.043 Z-0.969 F270
G1 X71.85 Y72.895 Z-0.974 F270
G1 X71.812 Y72.744 Z-0.98 F270
G1 X71.78 Y72.592 Z-0.985 F270
G1 X71.757 Y72.439 Z-0.991 F270
G1 X71.742 Y72.284 Z-0.996 F270
G1 X71.734 Y72.129 Z-1.001 F270
G1 X71.735 Y71.974 Z-1.007 F270
G1 X71.744 Y71.819 Z-1.012 F270
G1 X71.76 Y71.665 Z-1.018 F270
G1 X71.785 Y71.512 Z-1.023 F270
G1 X71.817 Y71.36 Z-1.028 F270
G1 X71.857 Y71.21 Z-1.034 F270
G1 X71.905 Y71.062 Z-1.039 F270
G1 X71.96 Y70.917 Z-1.045 F270
G1 X72.023 Y70.775 Z-1.05 F270
G1 X72.093 Y70.637 Z-1.056 F270
G1 X72.17 Y70.502 Z-1.061 F270
G1 X72.253 Y70.371 Z-1.066 F270
G1 X72.344 Y70.245 Z-1.072 F270
G1 X72.44 Y70.124 Z-1.077 F270
G1 X72.543 Y70.007 Z-1.083 F270
G1 X72.652 Y69.897 Z-1.088 F270
G1 X72.766 Y69.792 Z-1.093 F270
G1 X72.886 Y69.693 Z-1.099 F270
G1 X73.01 Y69.6 Z-1.104 F270
G1 X73.139 Y69.514 Z-1.11 F270
G1 X73.272 Y69.434 Z-1.115 F270
G1 X73.41 Y69.362 Z-1.121 F270
G1 X73.55 Y69.296 Z-1.126 F270
G1 X73.694 Y69.238 Z-1.131 F270
G1 X73.841 Y69.188 Z-1.137 F270
G1 X73.99 Y69.145 Z-1.142 F270
G1 X74.141 Y69.11 Z-1.148 F270
G1 X74.294 Y69.082 Z-1.153 F270
G1 X74.448 Y69.063 Z-1.159 F270
G1 X74.603 Y69.051 Z-1.164 F270
G1 X74.758 Y69.048 Z-1.169 F270
G1 X74.913 Y69.052 Z-1.175 F270
G1 X75.068 Y69.064 Z-1.18 F270
G1 X75.222 Y69.085 Z-1.186 F270
G1 X75.374 Y69.113 Z-1.191 F270
G1 X75.525 Y69.149 Z-1.196 F270
G1 X75.674 Y69.193 Z-1.202 F270
G1 X75.821 Y69.244 Z-1.207 F270
G1 X75.964 Y69.303 Z-1.213 F270
G1 X76.105 Y69.369 Z-1.218 F270
G1 X76.241 Y69.442 Z-1.224 F270
G1 X76.374 Y69.522 Z-1.229 F270
G1 X76.503 Y69.609 Z-1.234 F270
G1 X76.627 Y69.703 Z-1.24 F270
G1 X76.746 Y69.802 Z-1.245 F270
G1 X76.859 Y69.908 Z-1.251 F270
G1 X76.968 Y70.019 Z-1.256 F270
G1 X77.07 Y70.136 Z-1.262 F270
G1 X77.166 Y70.258 Z-1.267 F270
G1 X77.256 Y70.385 Z-1.272 F270
G1 X77.339 Y70.516 Z-1.278 F270
G1 X77.415 Y70.651 Z-1.283 F270
G1 X77.484 Y70.79 Z-1.289 F270
G1 X77.546 Y70.932 Z-1.294 F270
G1 X77.6 Y71.077 Z-1.299 F270
G1 X77.647 Y71.225 Z-1.305 F270
G1 X77.687 Y71.375 Z-1.31 F270
G1 X77.718 Y71.527 Z-1.316 F270
G1 X77.742 Y71.681 Z-1.321 F270
G1 X77.758 Y71.835 Z-1.327 F270
G1 X77.765 Y71.99 Z-1.332 F270
G1 Y72.145 Z-1.337 F270
G1 X77.757 Y72.3 Z-1.343 F270
G1 X77.741 Y72.455 Z-1.348 F270
G1 X77.717 Y72.608 Z-1.354 F270
G1 X77.685 Y72.76 Z-1.359 F270
G1 X77.645 Y72.91 Z-1.364 F270
G1 X77.598 Y73.058 Z-1.37 F270
G1 X77.543 Y73.203 Z-1.375 F270
G1 X77.481 Y73.345 Z-1.381 F270
G1 X77.411 Y73.484 Z-1.386 F270
G1 X77.335 Y73.619 Z-1.392 F270
G1 X77.251 Y73.75 Z-1.397 F270
G1 X77.161 Y73.876 Z-1.402 F270
G1 X77.065 Y73.998 Z-1.408 F270
G1 X76.962 Y74.114 Z-1.413 F270
G1 X76.854 Y74.225 Z-1.419 F270
G1 X76.74 Y74.331 Z-1.424 F270
G1 X76.621 Y74.43 Z-1.43 F270
G1 X76.496 Y74.523 Z-1.435 F270
G1 X76.368 Y74.61 Z-1.44 F270
G1 X76.235 Y74.689 Z-1.446 F270
G1 X76.097 Y74.762 Z-1.451 F270
G1 X75.957 Y74.828 Z-1.457 F270
G1 X75.813 Y74.886 Z-1.462 F270
G1 X75.667 Y74.937 Z-1.467 F270
G1 X75.518 Y74.981 Z-1.473 F270
G1 X75.366 Y75.016 Z-1.478 F270
G1 X75.214 Y75.044 Z-1.484 F270
G1 X75.06 Y75.064 Z-1.489 F270
G1 X74.905 Y75.076 Z-1.495 F270
G1 X74.75 Y75.08 Z-1.5 F270
; MOVEMENT_CUTTING
G1 X74.739 F930
G3 X74.42 Y74.761 J-0.319 F930
G1 Y74.739 F930
G3 X74.739 Y74.42 I0.319 F930
G1 X74.761 F930
G3 X75.08 Y74.739 J0.319 F930
G1 Y74.761 F930
G3 X74.761 Y75.08 I-0.319 F930
G1 X74.75 F930
; MOVEMENT_LINK_TRANSITION
G2 X73.085 Y75.883 J2.128 F930
G3 X71.34 Y75.273 I-0.766 J-0.61 F930
; MOVEMENT_CUTTING
G1 Y71.659 F930
G3 X71.659 Y71.34 I0.319 F930
G1 X77.841 F930
G3 X78.16 Y71.659 J0.319 F930
G1 Y77.841 F930
G3 X77.841 Y78.16 I-0.319 F930
G1 X71.659 F930
G3 X71.34 Y77.841 J-0.319 F930
G1 Y75.273 F930
; MOVEMENT_LINK_TRANSITION
G2 X69.8 Y72.963 I-2.502 F930
G3 X68.26 Y70.653 I0.962 J-2.31 F930
; MOVEMENT_CUTTING
G1 Y68.579 F930
G3 X68.579 Y68.26 I0.319 F930
G1 X80.921 F930
G3 X81.24 Y68.579 J0.319 F930
G1 Y80.921 F930
G3 X80.921 Y81.24 I-0.319 F930
G1 X68.579 F930
G3 X68.26 Y80.921 J-0.319 F930
G1 Y70.653 F930
; MOVEMENT_LINK_TRANSITION
G2 X66.72 Y68.343 I-2.503 F930
G3 X65.18 Y66.033 I0.963 J-2.31 F930
; MOVEMENT_CUTTING
G1 Y65.499 F930
G3 X65.499 Y65.18 I0.319 F930
G1 X84.001 F930
G3 X84.32 Y65.499 J0.319 F930
G1 Y84.001 F930
G3 X84.001 Y84.32 I-0.319 F930
G1 X65.499 F930
G3 X65.18 Y84.001 J-0.319 F930
G1 Y66.033 F930
; MOVEMENT_LINK_TRANSITION
G2 X64.008 Y64.215 I-1.996 F930
G3 X64.464 Y62.1 I0.457 J-1.008 F930
; MOVEMENT_CUTTING
G1 X87.081 F930
G3 X87.4 Y62.419 J0.319 F930
G1 Y87.081 F930
G3 X87.081 Y87.4 I-0.319 F930
G1 X62.419 F930
G3 X62.1 Y87.081 J-0.319 F930
G1 Y62.419 F930
G3 X62.419 Y62.1 I0.319 F930
G1 X64.464 F930
; MOVEMENT_LINK_TRANSITION
G2 X66.774 Y60.56 J-2.502 F930
G3 X69.084 Y59.02 I2.31 J0.962 F930
; MOVEMENT_CUTTING
G1 X90.161 F930
G3 X90.48 Y59.339 J0.319 F930
G1 Y90.161 F930
G3 X90.161 Y90.48 I-0.319 F930
G1 X59.339 F930
G3 X59.02 Y90.161 J-0.319 F930
G1 Y59.339 F930
G3 X59.339 Y59.02 I0.319 F930
G1 X69.084 F930
; MOVEMENT_LINK_TRANSITION
G2 X71.394 Y57.48 J-2.502 F930
G3 X73.704 Y55.94 I2.31 J0.963 F930
; MOVEMENT_CUTTING
G1 X93.241 F930
G3 X93.56 Y56.259 J0.319 F930
G1 Y93.241 F930
G3 X93.241 Y93.56 I-0.319 F930
G1 X56.259 F930
G3 X55.94 Y93.241 J-0.319 F930
G1 Y56.259 F930
G3 X56.259 Y55.94 I0.319 F930
G1 X73.704 F930
; MOVEMENT_LINK_TRANSITION
G2 X76.014 Y54.4 J-2.502 F930
G3 X78.324 Y52.86 I2.31 J0.962 F930
; MOVEMENT_CUTTING
G1 X96.321 F930
G3 X96.64 Y53.179 J0.319 F930
G1 Y96.321 F930
G3 X96.321 Y96.64 I-0.319 F930
G1 X53.179 F930
G3 X52.86 Y96.321 J-0.319 F930
G1 Y53.179 F930
G3 X53.179 Y52.86 I0.319 F930
G1 X78.324 F930
; MOVEMENT_LINK_TRANSITION
G2 X80.634 Y51.32 J-2.503 F930
G3 X82.944 Y49.78 I2.31 J0.963 F930
; MOVEMENT_CUTTING
G1 X99.401 F930
G3 X99.72 Y50.099 J0.319 F930
G1 Y99.401 F930
G3 X99.401 Y99.72 I-0.319 F930
G1 X50.099 F930
G3 X49.78 Y99.401 J-0.319 F930
G1 Y50.099 F930
G3 X50.099 Y49.78 I0.319 F930
G1 X82.944 F930
; MOVEMENT_LINK_TRANSITION
G2 X85.254 Y48.24 J-2.502 F930
G3 X87.564 Y46.7 I2.31 J0.962 F930
; MOVEMENT_CUTTING
G1 X102.481 F930
G3 X102.8 Y47.019 J0.319 F930
G1 Y102.481 F930
G3 X102.481 Y102.8 I-0.319 F930
G1 X47.019 F930
G3 X46.7 Y102.481 J-0.319 F930
G1 Y47.019 F930
G3 X47.019 Y46.7 I0.319 F930
G1 X87.564 F930
; MOVEMENT_LINK_TRANSITION
G2 X89.874 Y45.16 J-2.503 F930
G3 X92.184 Y43.62 I2.31 J0.963 F930
; MOVEMENT_CUTTING
G1 X105.561 F930
G3 X105.88 Y43.939 J0.319 F930
G1 Y105.561 F930
G3 X105.561 Y105.88 I-0.319 F930
G1 X43.939 F930
G3 X43.62 Y105.561 J-0.319 F930
G1 Y43.939 F930
G3 X43.939 Y43.62 I0.319 F930
G1 X92.184 F930
; MOVEMENT_LINK_TRANSITION
G2 X94.46 Y42.103 J-2.466 F930
G3 X96.737 Y40.585 I2.276 J0.948 F930
; MOVEMENT_CUTTING
G1 X108.5 F930
G3 X108.915 Y41 J0.415 F930
G1 Y108.5 F930
G3 X108.5 Y108.915 I-0.415 F930
G1 X41 F930
G3 X40.585 Y108.5 J-0.415 F930
G1 Y41 F930
G3 X41 Y40.585 I0.415 F930
G1 X96.737 F930
; MOVEMENT_LINK_TRANSITION
G2 X99.047 Y39.045 J-2.502 F930
G3 X101.357 Y37.505 I2.31 J0.963 F930
; MOVEMENT_CUTTING
G1 X108.5 F930
G3 X111.995 Y41 J3.495 F930
G1 Y108.5 F930
G3 X108.5 Y111.995 I-3.495 F930
G1 X41 F930
G3 X37.505 Y108.5 J-3.495 F930
G1 Y41 F930
G3 X41 Y37.505 I3.495 F930
G1 X101.357 F930
; MOVEMENT_LINK_TRANSITION
G2 X103.704 Y35.94 J-2.543 F930
G3 X106.052 Y34.375 I2.348 J0.978 F930
; MOVEMENT_CUTTING
G1 X108.5 F930
G3 X115.125 Y41 J6.625 F930
G1 Y108.5 F930
G3 X108.5 Y115.125 I-6.625 F930
G1 X41 F930
G3 X34.375 Y108.5 J-6.625 F930
G1 Y41 F930
G3 X41 Y34.375 I6.625 F930
G1 X106.052 F930
; MOVEMENT_LINK_TRANSITION
G2 X106.202 Y34.275 J-0.162 F930
G3 X106.352 Y34.175 I0.15 J0.063 F930
; MOVEMENT_FINISH_CUTTING
G1 X108.5 F930
G3 X115.325 Y41 J6.825 F930
G1 Y108.5 F930
G3 X108.5 Y115.325 I-6.825 F930
G1 X41 F930
G3 X34.175 Y108.5 J-6.825 F930
G1 Y41 F930
G3 X41 Y34.175 I6.825 F930
G1 X106.352 F930
; MOVEMENT_LEAD_OUT
G1 X106.417 Y34.18 Z-1.49 F930
G1 X106.481 Y34.192 Z-1.479 F930
G1 X106.544 Y34.211 Z-1.469 F930
G1 X106.598 Y34.233 Z-1.439 F930
G1 X106.65 Y34.261 Z-1.409 F930
G1 X106.7 Y34.293 Z-1.379 F930
G1 X106.754 Y34.337 Z-1.308 F930
G1 X106.803 Y34.388 Z-1.238 F930
G1 X106.831 Y34.423 Z-1.15 F930
G1 X106.857 Y34.46 Z-1.061 F930
G1 X106.873 Y34.486 Z-0.865 F930
; MOVEMENT_CUTTING
G1 Z5 F930
G1 X76.143 Y74.739 F930
; MOVEMENT_PLUNGE
G1 Z1.635 F270
; MOVEMENT_RAMP_HELIX
G1 X76.117 Y74.753 Z1.443 F270
G1 X76.039 Y74.791 Z1.269 F270
G1 X75.916 Y74.846 Z1.129 F270
G1 X75.836 Y74.878 Z1.083 F270
G1 X75.756 Y74.907 Z1.036 F270
G1 X75.666 Y74.938 Z1.018 F270
G1 X75.574 Y74.965 Z1 F270
G1 X75.424 Y75.004 Z0.995 F270
G1 X75.272 Y75.034 Z0.989 F270
G1 X75.119 Y75.057 Z0.984 F270
G1 X74.964 Y75.072 Z0.978 F270
G1 X74.809 Y75.079 Z0.973 F270
G1 X74.654 Y75.078 Z0.967 F270
G1 X74.499 Y75.07 Z0.962 F270
G1 X74.345 Y75.053 Z0.957 F270
G1 X74.191 Y75.028 Z0.951 F270
G1 X74.04 Y74.995 Z0.946 F270
G1 X73.89 Y74.955 Z0.94 F270
G1 X73.742 Y74.907 Z0.935 F270
G1 X73.597 Y74.851 Z0.93 F270
G1 X73.456 Y74.788 Z0.924 F270
G1 X73.317 Y74.718 Z0.919 F270
G1 X73.183 Y74.641 Z0.913 F270
G1 X73.052 Y74.557 Z0.908 F270
G1 X72.926 Y74.466 Z0.902 F270
G1 X72.805 Y74.369 Z0.897 F270
G1 X72.689 Y74.266 Z0.892 F270
G1 X72.578 Y74.157 Z0.886 F270
G1 X72.474 Y74.043 Z0.881 F270
G1 X72.375 Y73.923 Z0.875 F270
G1 X72.282 Y73.798 Z0.87 F270
G1 X72.196 Y73.669 Z0.864 F270
G1 X72.117 Y73.536 Z0.859 F270
G1 X72.045 Y73.398 Z0.854 F270
G1 X71.98 Y73.257 Z0.848 F270
G1 X71.922 Y73.113 Z0.843 F270
G1 X71.872 Y72.966 Z0.837 F270
G1 X71.829 Y72.817 Z0.832 F270
G1 X71.794 Y72.666 Z0.827 F270
G1 X71.767 Y72.513 Z0.821 F270
G1 X71.748 Y72.359 Z0.816 F270
G1 X71.737 Y72.204 Z0.81 F270
G1 X71.734 Y72.049 Z0.805 F270
G1 X71.739 Y71.894 Z0.799 F270
G1 X71.751 Y71.739 Z0.794 F270
G1 X71.772 Y71.586 Z0.789 F270
G1 X71.8 Y71.433 Z0.783 F270
G1 X71.837 Y71.282 Z0.778 F270
G1 X71.881 Y71.133 Z0.772 F270
G1 X71.932 Y70.987 Z0.767 F270
G1 X71.992 Y70.843 Z0.762 F270
G1 X72.058 Y70.703 Z0.756 F270
G1 X72.132 Y70.567 Z0.751 F270
G1 X72.212 Y70.434 Z0.745 F270
G1 X72.299 Y70.305 Z0.74 F270
G1 X72.393 Y70.182 Z0.734 F270
G1 X72.493 Y70.063 Z0.729 F270
G1 X72.599 Y69.95 Z0.724 F270
G1 X72.71 Y69.842 Z0.718 F270
G1 X72.827 Y69.74 Z0.713 F270
G1 X72.949 Y69.644 Z0.707 F270
G1 X73.076 Y69.555 Z0.702 F270
G1 X73.208 Y69.472 Z0.696 F270
G1 X73.343 Y69.396 Z0.691 F270
G1 X73.482 Y69.327 Z0.686 F270
G1 X73.624 Y69.265 Z0.68 F270
G1 X73.77 Y69.211 Z0.675 F270
G1 X73.918 Y69.165 Z0.669 F270
G1 X74.068 Y69.126 Z0.664 F270
G1 X74.22 Y69.094 Z0.659 F270
G1 X74.374 Y69.071 Z0.653 F270
G1 X74.528 Y69.056 Z0.648 F270
G1 X74.683 Y69.048 Z0.642 F270
G1 X74.838 Y69.049 Z0.637 F270
G1 X74.993 Y69.057 Z0.631 F270
G1 X75.147 Y69.074 Z0.626 F270
G1 X75.301 Y69.098 Z0.621 F270
G1 X75.453 Y69.13 Z0.615 F270
G1 X75.602 Y69.17 Z0.61 F270
G1 X75.75 Y69.218 Z0.604 F270
G1 X75.895 Y69.273 Z0.599 F270
G1 X76.037 Y69.336 Z0.593 F270
G1 X76.176 Y69.406 Z0.588 F270
G1 X76.311 Y69.483 Z0.583 F270
G1 X76.441 Y69.566 Z0.577 F270
G1 X76.568 Y69.657 Z0.572 F270
G1 X76.689 Y69.753 Z0.566 F270
G1 X76.805 Y69.856 Z0.561 F270
G1 X76.916 Y69.965 Z0.556 F270
G1 X77.021 Y70.079 Z0.55 F270
G1 X77.12 Y70.198 Z0.545 F270
G1 X77.213 Y70.323 Z0.539 F270
G1 X77.299 Y70.452 Z0.534 F270
G1 X77.379 Y70.585 Z0.528 F270
G1 X77.451 Y70.722 Z0.523 F270
G1 X77.517 Y70.863 Z0.518 F270
G1 X77.575 Y71.007 Z0.512 F270
G1 X77.626 Y71.153 Z0.507 F270
G1 X77.669 Y71.303 Z0.501 F270
G1 X77.704 Y71.454 Z0.496 F270
G1 X77.731 Y71.606 Z0.491 F270
G1 X77.751 Y71.76 Z0.485 F270
G1 X77.763 Y71.915 Z0.48 F270
G1 X77.766 Y72.07 Z0.474 F270
G1 X77.762 Y72.225 Z0.469 F270
G1 X77.75 Y72.38 Z0.463 F270
G1 X77.729 Y72.534 Z0.458 F270
G1 X77.701 Y72.687 Z0.453 F270
G1 X77.665 Y72.838 Z0.447 F270
G1 X77.622 Y72.987 Z0.442 F270
G1 X77.57 Y73.133 Z0.436 F270
G1 X77.512 Y73.277 Z0.431 F270
G1 X77.446 Y73.417 Z0.425 F270
G1 X77.372 Y73.554 Z0.42 F270
G1 X77.292 Y73.687 Z0.415 F270
G1 X77.205 Y73.815 Z0.409 F270
G1 X77.112 Y73.939 Z0.404 F270
G1 X77.012 Y74.058 Z0.398 F270
G1 X76.907 Y74.172 Z0.393 F270
G1 X76.796 Y74.28 Z0.388 F270
G1 X76.679 Y74.383 Z0.382 F270
G1 X76.557 Y74.479 Z0.377 F270
G1 X76.43 Y74.569 Z0.371 F270
G1 X76.299 Y74.652 Z0.366 F270
G1 X76.164 Y74.728 Z0.36 F270
G1 X76.025 Y74.797 Z0.355 F270
G1 X75.883 Y74.859 Z0.35 F270
G1 X75.738 Y74.914 Z0.344 F270
G1 X75.59 Y74.961 Z0.339 F270
G1 X75.44 Y75 Z0.333 F270
G1 X75.288 Y75.032 Z0.328 F270
G1 X75.134 Y75.055 Z0.322 F270
G1 X74.98 Y75.071 Z0.317 F270
G1 X74.825 Y75.079 Z0.312 F270
G1 X74.67 Z0.306 F270
G1 X74.515 Y75.071 Z0.301 F270
G1 X74.361 Y75.055 Z0.295 F270
G1 X74.207 Y75.031 Z0.29 F270
G1 X74.055 Y74.999 Z0.285 F270
G1 X73.905 Y74.959 Z0.279 F270
G1 X73.757 Y74.912 Z0.274 F270
G1 X73.612 Y74.857 Z0.268 F270
G1 X73.47 Y74.795 Z0.263 F270
G1 X73.331 Y74.726 Z0.257 F270
G1 X73.196 Y74.649 Z0.252 F270
G1 X73.065 Y74.566 Z0.247 F270
G1 X72.939 Y74.476 Z0.241 F270
G1 X72.817 Y74.379 Z0.236 F270
G1 X72.701 Y74.277 Z0.23 F270
G1 X72.59 Y74.169 Z0.225 F270
G1 X72.484 Y74.055 Z0.22 F270
G1 X72.385 Y73.935 Z0.214 F270
G1 X72.292 Y73.811 Z0.209 F270
G1 X72.205 Y73.683 Z0.203 F270
G1 X72.125 Y73.55 Z0.198 F270
G1 X72.052 Y73.413 Z0.192 F270
G1 X71.986 Y73.272 Z0.187 F270
G1 X71.928 Y73.128 Z0.182 F270
G1 X71.877 Y72.982 Z0.176 F270
G1 X71.833 Y72.833 Z0.171 F270
G1 X71.798 Y72.682 Z0.165 F270
G1 X71.77 Y72.529 Z0.16 F270
G1 X71.75 Y72.375 Z0.154 F270
G1 X71.738 Y72.22 Z0.149 F270
G1 X71.734 Y72.065 Z0.144 F270
G1 X71.738 Y71.91 Z0.138 F270
G1 X71.75 Y71.755 Z0.133 F270
G1 X71.769 Y71.601 Z0.127 F270
G1 X71.797 Y71.449 Z0.122 F270
G1 X71.833 Y71.298 Z0.117 F270
G1 X71.876 Y71.149 Z0.111 F270
G1 X71.927 Y71.002 Z0.106 F270
G1 X71.985 Y70.858 Z0.1 F270
G1 X72.051 Y70.718 Z0.095 F270
G1 X72.124 Y70.581 Z0.089 F270
G1 X72.203 Y70.447 Z0.084 F270
G1 X72.29 Y70.319 Z0.079 F270
G1 X72.383 Y70.194 Z0.073 F270
G1 X72.482 Y70.075 Z0.068 F270
G1 X72.588 Y69.961 Z0.062 F270
G1 X72.699 Y69.853 Z0.057 F270
G1 X72.815 Y69.75 Z0.051 F270
G1 X72.937 Y69.654 Z0.046 F270
G1 X73.063 Y69.563 Z0.041 F270
G1 X73.194 Y69.48 Z0.035 F270
G1 X73.329 Y69.403 Z0.03 F270
G1 X73.467 Y69.334 Z0.024 F270
G1 X73.61 Y69.271 Z0.019 F270
G1 X73.755 Y69.216 Z0.014 F270
G1 X73.902 Y69.169 Z0.008 F270
G1 X74.052 Y69.129 Z0.003 F270
G1 X74.204 Y69.097 Z-0.003 F270
G1 X74.358 Y69.073 Z-0.008 F270
G1 X74.512 Y69.057 Z-0.014 F270
G1 X74.667 Y69.049 Z-0.019 F270
G1 X74.822 Y69.048 Z-0.024 F270
G1 X74.977 Y69.056 Z-0.03 F270
G1 X75.132 Y69.072 Z-0.035 F270
G1 X75.285 Y69.095 Z-0.041 F270
G1 X75.437 Y69.127 Z-0.046 F270
G1 X75.587 Y69.166 Z-0.051 F270
G1 X75.735 Y69.213 Z-0.057 F270
G1 X75.88 Y69.267 Z-0.062 F270
G1 X76.023 Y69.329 Z-0.068 F270
G1 X76.162 Y69.398 Z-0.073 F270
G1 X76.297 Y69.474 Z-0.079 F270
G1 X76.428 Y69.557 Z-0.084 F270
G1 X76.555 Y69.647 Z-0.089 F270
G1 X76.677 Y69.743 Z-0.095 F270
G1 X76.793 Y69.845 Z-0.1 F270
G1 X76.905 Y69.953 Z-0.106 F270
G1 X77.011 Y70.067 Z-0.111 F270
G1 X77.11 Y70.186 Z-0.117 F270
G1 X77.204 Y70.31 Z-0.122 F270
G1 X77.291 Y70.438 Z-0.127 F270
G1 X77.371 Y70.571 Z-0.133 F270
G1 X77.444 Y70.708 Z-0.138 F270
G1 X77.51 Y70.848 Z-0.144 F270
G1 X77.569 Y70.992 Z-0.149 F270
G1 X77.621 Y71.138 Z-0.154 F270
G1 X77.665 Y71.287 Z-0.16 F270
G1 X77.701 Y71.438 Z-0.165 F270
G1 X77.729 Y71.591 Z-0.171 F270
G1 X77.749 Y71.744 Z-0.176 F270
G1 X77.762 Y71.899 Z-0.182 F270
G1 X77.766 Y72.054 Z-0.187 F270
G1 X77.763 Y72.209 Z-0.192 F270
G1 X77.751 Y72.364 Z-0.198 F270
G1 X77.732 Y72.518 Z-0.203 F270
G1 X77.705 Y72.671 Z-0.209 F270
G1 X77.669 Y72.822 Z-0.214 F270
G1 X77.626 Y72.971 Z-0.22 F270
G1 X77.576 Y73.118 Z-0.225 F270
G1 X77.518 Y73.262 Z-0.23 F270
G1 X77.453 Y73.403 Z-0.236 F270
G1 X77.38 Y73.54 Z-0.241 F270
G1 X77.301 Y73.673 Z-0.247 F270
G1 X77.215 Y73.802 Z-0.252 F270
G1 X77.122 Y73.927 Z-0.257 F270
G1 X77.023 Y74.046 Z-0.263 F270
G1 X76.918 Y74.161 Z-0.268 F270
G1 X76.807 Y74.269 Z-0.274 F270
G1 X76.691 Y74.372 Z-0.279 F270
G1 X76.57 Y74.469 Z-0.285 F270
G1 X76.444 Y74.56 Z-0.29 F270
G1 X76.313 Y74.643 Z-0.295 F270
G1 X76.178 Y74.72 Z-0.301 F270
G1 X76.04 Y74.79 Z-0.306 F270
G1 X75.898 Y74.853 Z-0.312 F270
G1 X75.753 Y74.908 Z-0.317 F270
G1 X75.605 Y74.956 Z-0.322 F270
G1 X75.455 Y74.996 Z-0.328 F270
G1 X75.304 Y75.029 Z-0.333 F270
G1 X75.15 Y75.053 Z-0.339 F270
G1 X74.996 Y75.07 Z-0.344 F270
G1 X74.841 Y75.079 Z-0.35 F270
G1 X74.686 Z-0.355 F270
G1 X74.531 Y75.072 Z-0.36 F270
G1 X74.376 Y75.057 Z-0.366 F270
G1 X74.223 Y75.034 Z-0.371 F270
G1 X74.071 Y75.003 Z-0.377 F270
G1 X73.921 Y74.964 Z-0.382 F270
G1 X73.773 Y74.917 Z-0.388 F270
G1 X73.627 Y74.863 Z-0.393 F270
G1 X73.485 Y74.802 Z-0.398 F270
G1 X73.345 Y74.733 Z-0.404 F270
G1 X73.21 Y74.657 Z-0.409 F270
G1 X73.079 Y74.575 Z-0.415 F270
G1 X72.952 Y74.485 Z-0.42 F270
G1 X72.83 Y74.39 Z-0.425 F270
G1 X72.712 Y74.288 Z-0.431 F270
G1 X72.601 Y74.18 Z-0.436 F270
G1 X72.495 Y74.067 Z-0.442 F270
G1 X72.395 Y73.948 Z-0.447 F270
G1 X72.301 Y73.824 Z-0.453 F270
G1 X72.214 Y73.696 Z-0.458 F270
G1 X72.133 Y73.563 Z-0.463 F270
G1 X72.059 Y73.427 Z-0.469 F270
G1 X71.993 Y73.287 Z-0.474 F270
G1 X71.934 Y73.143 Z-0.48 F270
G1 X71.882 Y72.997 Z-0.485 F270
G1 X71.838 Y72.848 Z-0.491 F270
G1 X71.801 Y72.697 Z-0.496 F270
G1 X71.772 Y72.545 Z-0.501 F270
G1 X71.752 Y72.391 Z-0.507 F270
G1 X71.739 Y72.236 Z-0.512 F270
G1 X71.734 Y72.081 Z-0.518 F270
G1 X71.737 Y71.926 Z-0.523 F270
G1 X71.748 Y71.771 Z-0.528 F270
G1 X71.767 Y71.617 Z-0.534 F270
G1 X71.794 Y71.464 Z-0.539 F270
G1 X71.829 Y71.313 Z-0.545 F270
G1 X71.871 Y71.164 Z-0.55 F270
G1 X71.921 Y71.017 Z-0.556 F270
G1 X71.979 Y70.873 Z-0.561 F270
G1 X72.044 Y70.732 Z-0.566 F270
G1 X72.116 Y70.594 Z-0.572 F270
G1 X72.195 Y70.461 Z-0.577 F270
G1 X72.281 Y70.332 Z-0.583 F270
G1 X72.373 Y70.207 Z-0.588 F270
G1 X72.472 Y70.087 Z-0.593 F270
G1 X72.576 Y69.973 Z-0.599 F270
G1 X72.687 Y69.864 Z-0.604 F270
G1 X72.803 Y69.76 Z-0.61 F270
G1 X72.924 Y69.663 Z-0.615 F270
G1 X73.05 Y69.572 Z-0.621 F270
G1 X73.18 Y69.488 Z-0.626 F270
G1 X73.315 Y69.411 Z-0.631 F270
G1 X73.453 Y69.341 Z-0.637 F270
G1 X73.595 Y69.278 Z-0.642 F270
G1 X73.74 Y69.222 Z-0.648 F270
G1 X73.887 Y69.174 Z-0.653 F270
G1 X74.037 Y69.133 Z-0.659 F270
G1 X74.189 Y69.1 Z-0.664 F270
G1 X74.342 Y69.075 Z-0.669 F270
G1 X74.496 Y69.058 Z-0.675 F270
G1 X74.651 Y69.049 Z-0.68 F270
G1 X74.806 Y69.048 Z-0.686 F270
G1 X74.961 Y69.055 Z-0.691 F270
G1 X75.116 Y69.07 Z-0.696 F270
G1 X75.269 Y69.093 Z-0.702 F270
G1 X75.421 Y69.123 Z-0.707 F270
G1 X75.572 Y69.162 Z-0.713 F270
G1 X75.72 Y69.208 Z-0.718 F270
G1 X75.865 Y69.261 Z-0.724 F270
G1 X76.008 Y69.322 Z-0.729 F270
G1 X76.147 Y69.391 Z-0.734 F270
G1 X76.283 Y69.466 Z-0.74 F270
G1 X76.415 Y69.548 Z-0.745 F270
G1 X76.542 Y69.637 Z-0.751 F270
G1 X76.664 Y69.733 Z-0.756 F270
G1 X76.782 Y69.834 Z-0.762 F270
G1 X76.894 Y69.942 Z-0.767 F270
G1 X77 Y70.055 Z-0.772 F270
G1 X77.1 Y70.173 Z-0.778 F270
G1 X77.194 Y70.297 Z-0.783 F270
G1 X77.282 Y70.425 Z-0.789 F270
G1 X77.363 Y70.557 Z-0.794 F270
G1 X77.437 Y70.693 Z-0.799 F270
G1 X77.504 Y70.834 Z-0.805 F270
G1 X77.564 Y70.977 Z-0.81 F270
G1 X77.616 Y71.123 Z-0.816 F270
G1 X77.66 Y71.272 Z-0.821 F270
G1 X77.697 Y71.422 Z-0.827 F270
G1 X77.726 Y71.575 Z-0.832 F270
G1 X77.748 Y71.729 Z-0.837 F270
G1 X77.761 Y71.883 Z-0.843 F270
G1 X77.766 Y72.038 Z-0.848 F270
G1 X77.763 Y72.193 Z-0.854 F270
G1 X77.753 Y72.348 Z-0.859 F270
G1 X77.734 Y72.502 Z-0.864 F270
G1 X77.708 Y72.655 Z-0.87 F270
G1 X77.673 Y72.807 Z-0.875 F270
G1 X77.631 Y72.956 Z-0.881 F270
G1 X77.582 Y73.103 Z-0.886 F270
G1 X77.524 Y73.247 Z-0.892 F270
G1 X77.46 Y73.388 Z-0.897 F270
G1 X77.388 Y73.526 Z-0.902 F270
G1 X77.309 Y73.66 Z-0.908 F270
G1 X77.224 Y73.789 Z-0.913 F270
G1 X77.132 Y73.914 Z-0.919 F270
G1 X77.034 Y74.034 Z-0.924 F270
G1 X76.929 Y74.149 Z-0.93 F270
G1 X76.819 Y74.258 Z-0.935 F270
G1 X76.703 Y74.362 Z-0.94 F270
G1 X76.583 Y74.459 Z-0.946 F270
G1 X76.457 Y74.551 Z-0.951 F270
G1 X76.327 Y74.635 Z-0.957 F270
G1 X76.192 Y74.713 Z-0.962 F270
G1 X76.054 Y74.783 Z-0.967 F270
G1 X75.913 Y74.847 Z-0.973 F270
G1 X75.768 Y74.903 Z-0.978 F270
G1 X75.621 Y74.952 Z-0.984 F270
G1 X75.471 Y74.993 Z-0.989 F270
G1 X75.319 Y75.026 Z-0.995 F270
G1 X75.166 Y75.051 Z-1 F270
G1 X75.012 Y75.069 Z-1.005 F270
G1 X74.857 Y75.078 Z-1.011 F270
G1 X74.702 Y75.08 Z-1.016 F270
G1 X74.547 Y75.073 Z-1.022 F270
G1 X74.392 Y75.059 Z-1.027 F270
G1 X74.239 Y75.036 Z-1.033 F270
G1 X74.087 Y75.006 Z-1.038 F270
G1 X73.936 Y74.968 Z-1.043 F270
G1 X73.788 Y74.922 Z-1.049 F270
G1 X73.642 Y74.869 Z-1.054 F270
G1 X73.499 Y74.808 Z-1.06 F270
G1 X73.36 Y74.74 Z-1.065 F270
G1 X73.224 Y74.665 Z-1.07 F270
G1 X73.092 Y74.583 Z-1.076 F270
G1 X72.965 Y74.495 Z-1.081 F270
G1 X72.842 Y74.4 Z-1.087 F270
G1 X72.724 Y74.299 Z-1.092 F270
G1 X72.612 Y74.191 Z-1.098 F270
G1 X72.505 Y74.079 Z-1.103 F270
G1 X72.405 Y73.961 Z-1.108 F270
G1 X72.31 Y73.837 Z-1.114 F270
G1 X72.222 Y73.71 Z-1.119 F270
G1 X72.141 Y73.577 Z-1.125 F270
G1 X72.067 Y73.441 Z-1.13 F270
G1 X71.999 Y73.301 Z-1.136 F270
G1 X71.939 Y73.158 Z-1.141 F270
G1 X71.887 Y73.012 Z-1.146 F270
G1 X71.842 Y72.864 Z-1.152 F270
G1 X71.804 Y72.713 Z-1.157 F270
G1 X71.775 Y72.561 Z-1.163 F270
G1 X71.753 Y72.407 Z-1.168 F270
G1 X71.74 Y72.252 Z-1.173 F270
G1 X71.734 Y72.097 Z-1.179 F270
G1 X71.736 Y71.942 Z-1.184 F270
G1 X71.746 Y71.787 Z-1.19 F270
G1 X71.765 Y71.633 Z-1.195 F270
G1 X71.791 Y71.48 Z-1.201 F270
G1 X71.825 Y71.329 Z-1.206 F270
G1 X71.866 Y71.179 Z-1.211 F270
G1 X71.916 Y71.032 Z-1.217 F270
G1 X71.972 Y70.888 Z-1.222 F270
G1 X72.037 Y70.746 Z-1.228 F270
G1 X72.108 Y70.609 Z-1.233 F270
G1 X72.186 Y70.475 Z-1.238 F270
G1 X72.272 Y70.345 Z-1.244 F270
G1 X72.363 Y70.22 Z-1.249 F270
G1 X72.461 Y70.099 Z-1.255 F270
G1 X72.565 Y69.984 Z-1.26 F270
G1 X72.675 Y69.875 Z-1.266 F270
G1 X72.79 Y69.771 Z-1.271 F270
G1 X72.911 Y69.673 Z-1.276 F270
G1 X73.036 Y69.582 Z-1.282 F270
G1 X73.166 Y69.497 Z-1.287 F270
G1 X73.301 Y69.419 Z-1.293 F270
G1 X73.438 Y69.348 Z-1.298 F270
G1 X73.58 Y69.284 Z-1.304 F270
G1 X73.724 Y69.227 Z-1.309 F270
G1 X73.872 Y69.178 Z-1.314 F270
G1 X74.021 Y69.137 Z-1.32 F270
G1 X74.173 Y69.103 Z-1.325 F270
G1 X74.326 Y69.077 Z-1.331 F270
G1 X74.48 Y69.06 Z-1.336 F270
G1 X74.635 Y69.05 Z-1.341 F270
G1 X74.79 Y69.048 Z-1.347 F270
G1 X74.945 Y69.054 Z-1.352 F270
G1 X75.1 Y69.068 Z-1.358 F270
G1 X75.253 Y69.09 Z-1.363 F270
G1 X75.406 Y69.12 Z-1.369 F270
G1 X75.556 Y69.157 Z-1.374 F270
G1 X75.705 Y69.203 Z-1.379 F270
G1 X75.851 Y69.255 Z-1.385 F270
G1 X75.994 Y69.316 Z-1.39 F270
G1 X76.133 Y69.383 Z-1.396 F270
G1 X76.269 Y69.458 Z-1.401 F270
G1 X76.401 Y69.54 Z-1.407 F270
G1 X76.529 Y69.628 Z-1.412 F270
G1 X76.652 Y69.723 Z-1.417 F270
G1 X76.77 Y69.824 Z-1.423 F270
G1 X76.882 Y69.93 Z-1.428 F270
G1 X76.989 Y70.043 Z-1.434 F270
G1 X77.09 Y70.161 Z-1.439 F270
G1 X77.185 Y70.284 Z-1.444 F270
G1 X77.273 Y70.411 Z-1.45 F270
G1 X77.355 Y70.543 Z-1.455 F270
G1 X77.43 Y70.679 Z-1.461 F270
G1 X77.497 Y70.819 Z-1.466 F270
G1 X77.558 Y70.962 Z-1.472 F270
G1 X77.611 Y71.108 Z-1.477 F270
G1 X77.656 Y71.256 Z-1.482 F270
G1 X77.694 Y71.407 Z-1.488 F270
G1 X77.724 Y71.559 Z-1.493 F270
G1 X77.746 Y71.713 Z-1.499 F270
G1 X77.76 Y71.867 Z-1.504 F270
G1 X77.766 Y72.022 Z-1.509 F270
G1 X77.764 Y72.177 Z-1.515 F270
G1 X77.754 Y72.332 Z-1.52 F270
G1 X77.736 Y72.486 Z-1.526 F270
G1 X77.711 Y72.64 Z-1.531 F270
G1 X77.677 Y72.791 Z-1.537 F270
G1 X77.636 Y72.941 Z-1.542 F270
G1 X77.587 Y73.088 Z-1.547 F270
G1 X77.531 Y73.232 Z-1.553 F270
G1 X77.467 Y73.374 Z-1.558 F270
G1 X77.396 Y73.512 Z-1.564 F270
G1 X77.318 Y73.646 Z-1.569 F270
G1 X77.233 Y73.776 Z-1.575 F270
G1 X77.142 Y73.902 Z-1.58 F270
G1 X77.044 Y74.022 Z-1.585 F270
G1 X76.94 Y74.138 Z-1.591 F270
G1 X76.831 Y74.247 Z-1.596 F270
G1 X76.716 Y74.352 Z-1.602 F270
G1 X76.595 Y74.45 Z-1.607 F270
G1 X76.47 Y74.541 Z-1.612 F270
G1 X76.34 Y74.627 Z-1.618 F270
G1 X76.207 Y74.705 Z-1.623 F270
G1 X76.069 Y74.776 Z-1.629 F270
G1 X75.927 Y74.841 Z-1.634 F270
G1 X75.783 Y74.898 Z-1.64 F270
G1 X75.636 Y74.947 Z-1.645 F270
G1 X75.486 Y74.989 Z-1.65 F270
G1 X75.335 Y75.023 Z-1.656 F270
G1 X75.182 Y75.049 Z-1.661 F270
G1 X75.028 Y75.067 Z-1.667 F270
G1 X74.873 Y75.077 Z-1.672 F270
G1 X74.718 Y75.08 Z-1.678 F270
G1 X74.563 Y75.074 Z-1.683 F270
G1 X74.408 Y75.061 Z-1.688 F270
G1 X74.255 Y75.039 Z-1.694 F270
G1 X74.102 Y75.01 Z-1.699 F270
G1 X73.952 Y74.972 Z-1.705 F270
G1 X73.803 Y74.927 Z-1.71 F270
G1 X73.657 Y74.875 Z-1.715 F270
G1 X73.514 Y74.815 Z-1.721 F270
G1 X73.374 Y74.748 Z-1.726 F270
G1 X73.238 Y74.673 Z-1.732 F270
G1 X73.105 Y74.592 Z-1.737 F270
G1 X72.978 Y74.504 Z-1.743 F270
G1 X72.854 Y74.41 Z-1.748 F270
G1 X72.736 Y74.309 Z-1.753 F270
G1 X72.623 Y74.203 Z-1.759 F270
G1 X72.516 Y74.091 Z-1.764 F270
G1 X72.415 Y73.973 Z-1.77 F270
G1 X72.32 Y73.85 Z-1.775 F270
G1 X72.231 Y73.723 Z-1.78 F270
G1 X72.149 Y73.591 Z-1.786 F270
G1 X72.074 Y73.455 Z-1.791 F270
G1 X72.006 Y73.316 Z-1.797 F270
G1 X71.945 Y73.173 Z-1.802 F270
G1 X71.892 Y73.027 Z-1.808 F270
G1 X71.846 Y72.879 Z-1.813 F270
G1 X71.808 Y72.729 Z-1.818 F270
G1 X71.778 Y72.576 Z-1.824 F270
G1 X71.755 Y72.423 Z-1.829 F270
G1 X71.741 Y72.268 Z-1.835 F270
G1 X71.734 Y72.113 Z-1.84 F270
G1 X71.736 Y71.958 Z-1.846 F270
G1 X71.745 Y71.803 Z-1.851 F270
G1 X71.762 Y71.649 Z-1.856 F270
G1 X71.788 Y71.496 Z-1.862 F270
G1 X71.821 Y71.344 Z-1.867 F270
G1 X71.862 Y71.195 Z-1.873 F270
G1 X71.91 Y71.047 Z-1.878 F270
G1 X71.966 Y70.902 Z-1.883 F270
G1 X72.03 Y70.761 Z-1.889 F270
G1 X72.1 Y70.623 Z-1.894 F270
G1 X72.178 Y70.488 Z-1.9 F270
G1 X72.262 Y70.358 Z-1.905 F270
G1 X72.353 Y70.232 Z-1.911 F270
G1 X72.451 Y70.111 Z-1.916 F270
G1 X72.554 Y69.996 Z-1.921 F270
G1 X72.664 Y69.886 Z-1.927 F270
G1 X72.778 Y69.781 Z-1.932 F270
G1 X72.898 Y69.683 Z-1.938 F270
G1 X73.023 Y69.591 Z-1.943 F270
G1 X73.153 Y69.505 Z-1.949 F270
G1 X73.286 Y69.426 Z-1.954 F270
G1 X73.424 Y69.355 Z-1.959 F270
G1 X73.565 Y69.29 Z-1.965 F270
G1 X73.709 Y69.233 Z-1.97 F270
G1 X73.856 Y69.183 Z-1.976 F270
G1 X74.006 Y69.141 Z-1.981 F270
G1 X74.157 Y69.106 Z-1.986 F270
G1 X74.31 Y69.08 Z-1.992 F270
G1 X74.464 Y69.061 Z-1.997 F270
G1 X74.619 Y69.05 Z-2.003 F270
G1 X74.774 Y69.048 Z-2.008 F270
G1 X74.929 Y69.053 Z-2.014 F270
G1 X75.084 Y69.066 Z-2.019 F270
G1 X75.238 Y69.087 Z-2.024 F270
G1 X75.39 Y69.116 Z-2.03 F270
G1 X75.541 Y69.153 Z-2.035 F270
G1 X75.689 Y69.198 Z-2.041 F270
G1 X75.836 Y69.25 Z-2.046 F270
G1 X75.979 Y69.309 Z-2.051 F270
G1 X76.119 Y69.376 Z-2.057 F270
G1 X76.255 Y69.45 Z-2.062 F270
G1 X76.388 Y69.531 Z-2.068 F270
G1 X76.516 Y69.619 Z-2.073 F270
G1 X76.639 Y69.713 Z-2.079 F270
G1 X76.758 Y69.813 Z-2.084 F270
G1 X76.871 Y69.919 Z-2.089 F270
G1 X76.978 Y70.031 Z-2.095 F270
G1 X77.08 Y70.148 Z-2.1 F270
G1 X77.175 Y70.271 Z-2.106 F270
G1 X77.264 Y70.398 Z-2.111 F270
G1 X77.347 Y70.529 Z-2.117 F270
G1 X77.422 Y70.665 Z-2.122 F270
G1 X77.491 Y70.804 Z-2.127 F270
G1 X77.552 Y70.947 Z-2.133 F270
G1 X77.606 Y71.093 Z-2.138 F270
G1 X77.652 Y71.241 Z-2.144 F270
G1 X77.69 Y71.391 Z-2.149 F270
G1 X77.721 Y71.543 Z-2.154 F270
G1 X77.744 Y71.697 Z-2.16 F270
G1 X77.759 Y71.851 Z-2.165 F270
G1 X77.766 Y72.006 Z-2.171 F270
G1 X77.765 Y72.161 Z-2.176 F270
G1 X77.756 Y72.316 Z-2.182 F270
G1 X77.739 Y72.471 Z-2.187 F270
G1 X77.714 Y72.624 Z-2.192 F270
G1 X77.681 Y72.775 Z-2.198 F270
G1 X77.641 Y72.925 Z-2.203 F270
G1 X77.592 Y73.073 Z-2.209 F270
G1 X77.537 Y73.218 Z-2.214 F270
G1 X77.474 Y73.359 Z-2.22 F270
G1 X77.403 Y73.498 Z-2.225 F270
G1 X77.326 Y73.632 Z-2.23 F270
G1 X77.242 Y73.763 Z-2.236 F270
G1 X77.151 Y73.889 Z-2.241 F270
G1 X77.054 Y74.01 Z-2.247 F270
G1 X76.951 Y74.126 Z-2.252 F270
G1 X76.842 Y74.236 Z-2.257 F270
G1 X76.728 Y74.341 Z-2.263 F270
G1 X76.608 Y74.44 Z-2.268 F270
G1 X76.483 Y74.532 Z-2.274 F270
G1 X76.354 Y74.618 Z-2.279 F270
G1 X76.221 Y74.697 Z-2.285 F270
G1 X76.083 Y74.769 Z-2.29 F270
G1 X75.942 Y74.834 Z-2.295 F270
G1 X75.798 Y74.892 Z-2.301 F270
G1 X75.651 Y74.942 Z-2.306 F270
G1 X75.502 Y74.985 Z-2.312 F270
G1 X75.351 Y75.02 Z-2.317 F270
G1 X75.198 Y75.047 Z-2.322 F270
G1 X75.044 Y75.066 Z-2.328 F270
G1 X74.889 Y75.077 Z-2.333 F270
G1 X74.734 Y75.08 Z-2.339 F270
G1 X74.579 Y75.075 Z-2.344 F270
G1 X74.424 Y75.062 Z-2.35 F270
G1 X74.27 Y75.042 Z-2.355 F270
G1 X74.118 Y75.013 Z-2.36 F270
G1 X73.967 Y74.977 Z-2.366 F270
G1 X73.818 Y74.932 Z-2.371 F270
G1 X73.672 Y74.881 Z-2.377 F270
G1 X73.528 Y74.822 Z-2.382 F270
G1 X73.388 Y74.755 Z-2.388 F270
G1 X73.252 Y74.681 Z-2.393 F270
G1 X73.119 Y74.601 Z-2.398 F270
G1 X72.991 Y74.514 Z-2.404 F270
G1 X72.867 Y74.42 Z-2.409 F270
G1 X72.748 Y74.32 Z-2.415 F270
G1 X72.635 Y74.214 Z-2.42 F270
G1 X72.527 Y74.102 Z-2.425 F270
G1 X72.425 Y73.985 Z-2.431 F270
G1 X72.329 Y73.863 Z-2.436 F270
G1 X72.24 Y73.736 Z-2.442 F270
G1 X72.157 Y73.605 Z-2.447 F270
G1 X72.081 Y73.47 Z-2.453 F270
G1 X72.013 Y73.33 Z-2.458 F270
G1 X71.951 Y73.188 Z-2.463 F270
G1 X71.897 Y73.043 Z-2.469 F270
G1 X71.85 Y72.895 Z-2.474 F270
G1 X71.812 Y72.744 Z-2.48 F270
G1 X71.78 Y72.592 Z-2.485 F270
G1 X71.757 Y72.439 Z-2.491 F270
G1 X71.742 Y72.284 Z-2.496 F270
G1 X71.734 Y72.129 Z-2.501 F270
G1 X71.735 Y71.974 Z-2.507 F270
G1 X71.744 Y71.819 Z-2.512 F270
G1 X71.76 Y71.665 Z-2.518 F270
G1 X71.785 Y71.512 Z-2.523 F270
G1 X71.817 Y71.36 Z-2.528 F270
G1 X71.857 Y71.21 Z-2.534 F270
G1 X71.905 Y71.062 Z-2.539 F270
G1 X71.96 Y70.917 Z-2.545 F270
G1 X72.023 Y70.775 Z-2.55 F270
G1 X72.093 Y70.637 Z-2.556 F270
G1 X72.17 Y70.502 Z-2.561 F270
G1 X72.253 Y70.371 Z-2.566 F270
G1 X72.344 Y70.245 Z-2.572 F270
G1 X72.44 Y70.124 Z-2.577 F270
G1 X72.543 Y70.007 Z-2.583 F270
G1 X72.652 Y69.897 Z-2.588 F270
G1 X72.766 Y69.792 Z-2.593 F270
G1 X72.886 Y69.693 Z-2.599 F270
G1 X73.01 Y69.6 Z-2.604 F270
G1 X73.139 Y69.514 Z-2.61 F270
G1 X73.272 Y69.434 Z-2.615 F270
G1 X73.41 Y69.362 Z-2.621 F270
G1 X73.55 Y69.296 Z-2.626 F270
G1 X73.694 Y69.238 Z-2.631 F270
G1 X73.841 Y69.188 Z-2.637 F270
G1 X73.99 Y69.145 Z-2.642 F270
G1 X74.141 Y69.11 Z-2.648 F270
G1 X74.294 Y69.082 Z-2.653 F270
G1 X74.448 Y69.063 Z-2.659 F270
G1 X74.603 Y69.051 Z-2.664 F270
G1 X74.758 Y69.048 Z-2.669 F270
G1 X74.913 Y69.052 Z-2.675 F270
G1 X75.068 Y69.064 Z-2.68 F270
G1 X75.222 Y69.085 Z-2.686 F270
G1 X75.374 Y69.113 Z-2.691 F270
G1 X75.525 Y69.149 Z-2.696 F270
G1 X75.674 Y69.193 Z-2.702 F270
G1 X75.821 Y69.244 Z-2.707 F270
G1 X75.964 Y69.303 Z-2.713 F270
G1 X76.105 Y69.369 Z-2.718 F270
G1 X76.241 Y69.442 Z-2.724 F270
G1 X76.374 Y69.522 Z-2.729 F270
G1 X76.503 Y69.609 Z-2.734 F270
G1 X76.627 Y69.703 Z-2.74 F270
G1 X76.746 Y69.802 Z-2.745 F270
G1 X76.859 Y69.908 Z-2.751 F270
G1 X76.968 Y70.019 Z-2.756 F270
G1 X77.07 Y70.136 Z-2.762 F270
G1 X77.166 Y70.258 Z-2.767 F270
G1 X77.256 Y70.385 Z-2.772 F270
G1 X77.339 Y70.516 Z-2.778 F270
G1 X77.415 Y70.651 Z-2.783 F270
G1 X77.484 Y70.79 Z-2.789 F270
G1 X77.546 Y70.932 Z-2.794 F270
G1 X77.6 Y71.077 Z-2.799 F270
G1 X77.647 Y71.225 Z-2.805 F270
G1 X77.687 Y71.375 Z-2.81 F270
G1 X77.718 Y71.527 Z-2.816 F270
G1 X77.742 Y71.681 Z-2.821 F270
G1 X77.758 Y71.835 Z-2.827 F270
G1 X77.765 Y71.99 Z-2.832 F270
G1 Y72.145 Z-2.837 F270
G1 X77.757 Y72.3 Z-2.843 F270
G1 X77.741 Y72.455 Z-2.848 F270
G1 X77.717 Y72.608 Z-2.854 F270
G1 X77.685 Y72.76 Z-2.859 F270
G1 X77.645 Y72.91 Z-2.864 F270
G1 X77.598 Y73.058 Z-2.87 F270
G1 X77.543 Y73.203 Z-2.875 F270
G1 X77.481 Y73.345 Z-2.881 F270
G1 X77.411 Y73.484 Z-2.886 F270
G1 X77.335 Y73.619 Z-2.892 F270
G1 X77.251 Y73.75 Z-2.897 F270
G1 X77.161 Y73.876 Z-2.902 F270
G1 X77.065 Y73.998 Z-2.908 F270
G1 X76.962 Y74.114 Z-2.913 F270
G1 X76.854 Y74.225 Z-2.919 F270
G1 X76.74 Y74.331 Z-2.924 F270
G1 X76.621 Y74.43 Z-2.93 F270
G1 X76.496 Y74.523 Z-2.935 F270
G1 X76.368 Y74.61 Z-2.94 F270
G1 X76.235 Y74.689 Z-2.946 F270
G1 X76.097 Y74.762 Z-2.951 F270
G1 X75.957 Y74.828 Z-2.957 F270
G1 X75.813 Y74.886 Z-2.962 F270
G1 X75.667 Y74.937 Z-2.967 F270
G1 X75.518 Y74.981 Z-2.973 F270
G1 X75.366 Y75.016 Z-2.978 F270
G1 X75.214 Y75.044 Z-2.984 F270
G1 X75.06 Y75.064 Z-2.989 F270
G1 X74.905 Y75.076 Z-2.995 F270
G1 X74.75 Y75.08 Z-3 F270
; MOVEMENT_CUTTING
G1 X74.739 F930
G3 X74.42 Y74.761 J-0.319 F930
G1 Y74.739 F930
G3 X74.739 Y74.42 I0.319 F930
G1 X74.761 F930
G3 X75.08 Y74.739 J0.319 F930
G1 Y74.761 F930
G3 X74.761 Y75.08 I-0.319 F930
G1 X74.75 F930
; MOVEMENT_LINK_TRANSITION
G2 X73.085 Y75.883 J2.128 F930
G3 X71.34 Y75.273 I-0.766 J-0.61 F930
; MOVEMENT_CUTTING
G1 Y71.659 F930
G3 X71.659 Y71.34 I0.319 F930
G1 X77.841 F930
G3 X78.16 Y71.659 J0.319 F930
G1 Y77.841 F930
G3 X77.841 Y78.16 I-0.319 F930
G1 X71.659 F930
G3 X71.34 Y77.841 J-0.319 F930
G1 Y75.273 F930
; MOVEMENT_LINK_TRANSITION
G2 X69.8 Y72.963 I-2.502 F930
G3 X68.26 Y70.653 I0.962 J-2.31 F930
; MOVEMENT_CUTTING
G1 Y68.579 F930
G3 X68.579 Y68.26 I0.319 F930
G1 X80.921 F930
G3 X81.24 Y68.579 J0.319 F930
G1 Y80.921 F930
G3 X80.921 Y81.24 I-0.319 F930
G1 X68.579 F930
G3 X68.26 Y80.921 J-0.319 F930
G1 Y70.653 F930
; MOVEMENT_LINK_TRANSITION
G2 X66.72 Y68.343 I-2.503 F930
G3 X65.18 Y66.033 I0.963 J-2.31 F930
; MOVEMENT_CUTTING
G1 Y65.499 F930
G3 X65.499 Y65.18 I0.319 F930
G1 X84.001 F930
G3 X84.32 Y65.499 J0.319 F930
G1 Y84.001 F930
G3 X84.001 Y84.32 I-0.319 F930
G1 X65.499 F930
G3 X65.18 Y84.001 J-0.319 F930
G1 Y66.033 F930
; MOVEMENT_LINK_TRANSITION
G2 X64.008 Y64.215 I-1.996 F930
G3 X64.464 Y62.1 I0.457 J-1.008 F930
; MOVEMENT_CUTTING
G1 X87.081 F930
G3 X87.4 Y62.419 J0.319 F930
G1 Y87.081 F930
G3 X87.081 Y87.4 I-0.319 F930
G1 X62.419 F930
G3 X62.1 Y87.081 J-0.319 F930
G1 Y62.419 F930
G3 X62.419 Y62.1 I0.319 F930
G1 X64.464 F930
; MOVEMENT_LINK_TRANSITION
G2 X66.774 Y60.56 J-2.502 F930
G3 X69.084 Y59.02 I2.31 J0.962 F930
; MOVEMENT_CUTTING
G1 X90.161 F930
G3 X90.48 Y59.339 J0.319 F930
G1 Y90.161 F930
G3 X90.161 Y90.48 I-0.319 F930
G1 X59.339 F930
G3 X59.02 Y90.161 J-0.319 F930
G1 Y59.339 F930
G3 X59.339 Y59.02 I0.319 F930
G1 X69.084 F930
; MOVEMENT_LINK_TRANSITION
G2 X71.394 Y57.48 J-2.502 F930
G3 X73.704 Y55.94 I2.31 J0.963 F930
; MOVEMENT_CUTTING
G1 X93.241 F930
G3 X93.56 Y56.259 J0.319 F930
G1 Y93.241 F930
G3 X93.241 Y93.56 I-0.319 F930
G1 X56.259 F930
G3 X55.94 Y93.241 J-0.319 F930
G1 Y56.259 F930
G3 X56.259 Y55.94 I0.319 F930
G1 X73.704 F930
; MOVEMENT_LINK_TRANSITION
G2 X76.014 Y54.4 J-2.502 F930
G3 X78.324 Y52.86 I2.31 J0.962 F930
; MOVEMENT_CUTTING
G1 X96.321 F930
G3 X96.64 Y53.179 J0.319 F930
G1 Y96.321 F930
G3 X96.321 Y96.64 I-0.319 F930
G1 X53.179 F930
G3 X52.86 Y96.321 J-0.319 F930
G1 Y53.179 F930
G3 X53.179 Y52.86 I0.319 F930
G1 X78.324 F930
; MOVEMENT_LINK_TRANSITION
G2 X80.634 Y51.32 J-2.503 F930
G3 X82.944 Y49.78 I2.31 J0.963 F930
; MOVEMENT_CUTTING
G1 X99.401 F930
G3 X99.72 Y50.099 J0.319 F930
G1 Y99.401 F930
G3 X99.401 Y99.72 I-0.319 F930
G1 X50.099 F930
G3 X49.78 Y99.401 J-0.319 F930
G1 Y50.099 F930
G3 X50.099 Y49.78 I0.319 F930
G1 X82.944 F930
; MOVEMENT_LINK_TRANSITION
G2 X85.254 Y48.24 J-2.502 F930
G3 X87.564 Y46.7 I2.31 J0.962 F930
; MOVEMENT_CUTTING
G1 X102.481 F930
G3 X102.8 Y47.019 J0.319 F930
G1 Y102.481 F930
G3 X102.481 Y102.8 I-0.319 F930
G1 X47.019 F930
G3 X46.7 Y102.481 J-0.319 F930
G1 Y47.019 F930
G3 X47.019 Y46.7 I0.319 F930
G1 X87.564 F930
; MOVEMENT_LINK_TRANSITION
G2 X89.874 Y45.16 J-2.503 F930
G3 X92.184 Y43.62 I2.31 J0.963 F930
; MOVEMENT_CUTTING
G1 X105.561 F930
G3 X105.88 Y43.939 J0.319 F930
G1 Y105.561 F930
G3 X105.561 Y105.88 I-0.319 F930
G1 X43.939 F930
G3 X43.62 Y105.561 J-0.319 F930
G1 Y43.939 F930
G3 X43.939 Y43.62 I0.319 F930
G1 X92.184 F930
; MOVEMENT_LINK_TRANSITION
G2 X94.46 Y42.103 J-2.466 F930
G3 X96.737 Y40.585 I2.276 J0.948 F930
; MOVEMENT_CUTTING
G1 X108.5 F930
G3 X108.915 Y41 J0.415 F930
G1 Y108.5 F930
G3 X108.5 Y108.915 I-0.415 F930
G1 X41 F930
G3 X40.585 Y108.5 J-0.415 F930
G1 Y41 F930
G3 X41 Y40.585 I0.415 F930
G1 X96.737 F930
; MOVEMENT_LINK_TRANSITION
G2 X99.047 Y39.045 J-2.502 F930
G3 X101.357 Y37.505 I2.31 J0.963 F930
; MOVEMENT_CUTTING
G1 X108.5 F930
G3 X111.995 Y41 J3.495 F930
G1 Y108.5 F930
G3 X108.5 Y111.995 I-3.495 F930
G1 X41 F930
G3 X37.505 Y108.5 J-3.495 F930
G1 Y41 F930
G3 X41 Y37.505 I3.495 F930
G1 X101.357 F930
; MOVEMENT_LINK_TRANSITION
G2 X103.704 Y35.94 J-2.543 F930
G3 X106.052 Y34.375 I2.348 J0.978 F930
; MOVEMENT_CUTTING
G1 X108.5 F930
G3 X115.125 Y41 J6.625 F930
G1 Y108.5 F930
G3 X108.5 Y115.125 I-6.625 F930
G1 X41 F930
G3 X34.375 Y108.5 J-6.625 F930
G1 Y41 F930
G3 X41 Y34.375 I6.625 F930
G1 X106.052 F930
; MOVEMENT_LINK_TRANSITION
G2 X106.202 Y34.275 J-0.162 F930
G3 X106.352 Y34.175 I0.15 J0.063 F930
; MOVEMENT_FINISH_CUTTING
G1 X108.5 F930
G3 X115.325 Y41 J6.825 F930
G1 Y108.5 F930
G3 X108.5 Y115.325 I-6.825 F930
G1 X41 F930
G3 X34.175 Y108.5 J-6.825 F930
G1 Y41 F930
G3 X41 Y34.175 I6.825 F930
G1 X106.352 F930
; MOVEMENT_LEAD_OUT
G1 X106.417 Y34.18 Z-2.99 F930
G1 X106.481 Y34.192 Z-2.979 F930
G1 X106.544 Y34.211 Z-2.969 F930
G1 X106.598 Y34.233 Z-2.939 F930
G1 X106.65 Y34.261 Z-2.909 F930
G1 X106.7 Y34.293 Z-2.879 F930
G1 X106.754 Y34.337 Z-2.808 F930
G1 X106.803 Y34.388 Z-2.738 F930
G1 X106.831 Y34.423 Z-2.65 F930
G1 X106.857 Y34.46 Z-2.561 F930
G1 X106.873 Y34.486 Z-2.365 F930
; MOVEMENT_CUTTING
G1 Z5 F930
G1 X76.143 Y74.739 F930
; MOVEMENT_PLUNGE
G1 Z0.159 F270
; MOVEMENT_LEAD_IN
G1 Z0.135 F930
; MOVEMENT_RAMP_HELIX
G1 X76.117 Y74.753 Z-0.057 F270
G1 X76.039 Y74.791 Z-0.231 F270
G1 X75.916 Y74.846 Z-0.371 F270
G1 X75.836 Y74.878 Z-0.417 F270
G1 X75.756 Y74.907 Z-0.464 F270
G1 X75.666 Y74.938 Z-0.482 F270
G1 X75.574 Y74.965 Z-0.5 F270
G1 X75.424 Y75.004 Z-0.505 F270
G1 X75.272 Y75.034 Z-0.511 F270
G1 X75.119 Y75.057 Z-0.516 F270
G1 X74.964 Y75.072 Z-0.522 F270
G1 X74.809 Y75.079 Z-0.527 F270
G1 X74.654 Y75.078 Z-0.533 F270
G1 X74.499 Y75.07 Z-0.538 F270
G1 X74.345 Y75.053 Z-0.543 F270
G1 X74.191 Y75.028 Z-0.549 F270
G1 X74.04 Y74.995 Z-0.554 F270
G1 X73.89 Y74.955 Z-0.56 F270
G1 X73.742 Y74.907 Z-0.565 F270
G1 X73.597 Y74.851 Z-0.57 F270
G1 X73.456 Y74.788 Z-0.576 F270
G1 X73.317 Y74.718 Z-0.581 F270
G1 X73.183 Y74.641 Z-0.587 F270
G1 X73.052 Y74.557 Z-0.592 F270
G1 X72.926 Y74.466 Z-0.598 F270
G1 X72.805 Y74.369 Z-0.603 F270
G1 X72.689 Y74.266 Z-0.608 F270
G1 X72.578 Y74.157 Z-0.614 F270
G1 X72.474 Y74.043 Z-0.619 F270
G1 X72.375 Y73.923 Z-0.625 F270
G1 X72.282 Y73.798 Z-0.63 F270
G1 X72.196 Y73.669 Z-0.636 F270
G1 X72.117 Y73.536 Z-0.641 F270
G1 X72.045 Y73.398 Z-0.646 F270
G1 X71.98 Y73.257 Z-0.652 F270
G1 X71.922 Y73.113 Z-0.657 F270
G1 X71.872 Y72.966 Z-0.663 F270
G1 X71.829 Y72.817 Z-0.668 F270
G1 X71.794 Y72.666 Z-0.673 F270
G1 X71.767 Y72.513 Z-0.679 F270
G1 X71.748 Y72.359 Z-0.684 F270
G1 X71.737 Y72.204 Z-0.69 F270
G1 X71.734 Y72.049 Z-0.695 F270
G1 X71.739 Y71.894 Z-0.701 F270
G1 X71.751 Y71.739 Z-0.706 F270
G1 X71.772 Y71.586 Z-0.711 F270
G1 X71.8 Y71.433 Z-0.717 F270
G1 X71.837 Y71.282 Z-0.722 F270
G1 X71.881 Y71.133 Z-0.728 F270
G1 X71.932 Y70.987 Z-0.733 F270
G1 X71.992 Y70.843 Z-0.738 F270
G1 X72.058 Y70.703 Z-0.744 F270
G1 X72.132 Y70.567 Z-0.749 F270
G1 X72.212 Y70.434 Z-0.755 F270
G1 X72.299 Y70.305 Z-0.76 F270
G1 X72.393 Y70.182 Z-0.766 F270
G1 X72.493 Y70.063 Z-0.771 F270
G1 X72.599 Y69.95 Z-0.776 F270
G1 X72.71 Y69.842 Z-0.782 F270
G1 X72.827 Y69.74 Z-0.787 F270
G1 X72.949 Y69.644 Z-0.793 F270
G1 X73.076 Y69.555 Z-0.798 F270
G1 X73.208 Y69.472 Z-0.804 F270
G1 X73.343 Y69.396 Z-0.809 F270
G1 X73.482 Y69.327 Z-0.814 F270
G1 X73.624 Y69.265 Z-0.82 F270
G1 X73.77 Y69.211 Z-0.825 F270
G1 X73.918 Y69.165 Z-0.831 F270
G1 X74.068 Y69.126 Z-0.836 F270
G1 X74.22 Y69.094 Z-0.841 F270
G1 X74.374 Y69.071 Z-0.847 F270
G1 X74.528 Y69.056 Z-0.852 F270
G1 X74.683 Y69.048 Z-0.858 F270
G1 X74.838 Y69.049 Z-0.863 F270
G1 X74.993 Y69.057 Z-0.869 F270
G1 X75.147 Y69.074 Z-0.874 F270
G1 X75.301 Y69.098 Z-0.879 F270
G1 X75.453 Y69.13 Z-0.885 F270
G1 X75.602 Y69.17 Z-0.89 F270
G1 X75.75 Y69.218 Z-0.896 F270
G1 X75.895 Y69.273 Z-0.901 F270
G1 X76.037 Y69.336 Z-0.907 F270
G1 X76.176 Y69.406 Z-0.912 F270
G1 X76.311 Y69.483 Z-0.917 F270
G1 X76.441 Y69.566 Z-0.923 F270
G1 X76.568 Y69.657 Z-0.928 F270
G1 X76.689 Y69.753 Z-0.934 F270
G1 X76.805 Y69.856 Z-0.939 F270
G1 X76.916 Y69.965 Z-0.944 F270
G1 X77.021 Y70.079 Z-0.95 F270
G1 X77.12 Y70.198 Z-0.955 F270
G1 X77.213 Y70.323 Z-0.961 F270
G1 X77.299 Y70.452 Z-0.966 F270
G1 X77.379 Y70.585 Z-0.972 F270
G1 X77.451 Y70.722 Z-0.977 F270
G1 X77.517 Y70.863 Z-0.982 F270
G1 X77.575 Y71.007 Z-0.988 F270
G1 X77.626 Y71.153 Z-0.993 F270
G1 X77.669 Y71.303 Z-0.999 F270
G1 X77.704 Y71.454 Z-1.004 F270
G1 X77.731 Y71.606 Z-1.009 F270
G1 X77.751 Y71.76 Z-1.015 F270
G1 X77.763 Y71.915 Z-1.02 F270
G1 X77.766 Y72.07 Z-1.026 F270
G1 X77.762 Y72.225 Z-1.031 F270
G1 X77.75 Y72.38 Z-1.037 F270
G1 X77.729 Y72.534 Z-1.042 F270
G1 X77.701 Y72.687 Z-1.047 F270
G1 X77.665 Y72.838 Z-1.053 F270
G1 X77.622 Y72.987 Z-1.058 F270
G1 X77.57 Y73.133 Z-1.064 F270
G1 X77.512 Y73.277 Z-1.069 F270
G1 X77.446 Y73.417 Z-1.075 F270
G1 X77.372 Y73.554 Z-1.08 F270
G1 X77.292 Y73.687 Z-1.085 F270
G1 X77.205 Y73.815 Z-1.091 F270
G1 X77.112 Y73.939 Z-1.096 F270
G1 X77.012 Y74.058 Z-1.102 F270
G1 X76.907 Y74.172 Z-1.107 F270
G1 X76.796 Y74.28 Z-1.112 F270
G1 X76.679 Y74.383 Z-1.118 F270
G1 X76.557 Y74.479 Z-1.123 F270
G1 X76.43 Y74.569 Z-1.129 F270
G1 X76.299 Y74.652 Z-1.134 F270
G1 X76.164 Y74.728 Z-1.14 F270
G1 X76.025 Y74.797 Z-1.145 F270
G1 X75.883 Y74.859 Z-1.15 F270
G1 X75.738 Y74.914 Z-1.156 F270
G1 X75.59 Y74.961 Z-1.161 F270
G1 X75.44 Y75 Z-1.167 F270
G1 X75.288 Y75.032 Z-1.172 F270
G1 X75.134 Y75.055 Z-1.178 F270
G1 X74.98 Y75.071 Z-1.183 F270
G1 X74.825 Y75.079 Z-1.188 F270
G1 X74.67 Z-1.194 F270
G1 X74.515 Y75.071 Z-1.199 F270
G1 X74.361 Y75.055 Z-1.205 F270
G1 X74.207 Y75.031 Z-1.21 F270
G1 X74.055 Y74.999 Z-1.215 F270
G1 X73.905 Y74.959 Z-1.221 F270
G1 X73.757 Y74.912 Z-1.226 F270
G1 X73.612 Y74.857 Z-1.232 F270
G1 X73.47 Y74.795 Z-1.237 F270
G1 X73.331 Y74.726 Z-1.243 F270
G1 X73.196 Y74.649 Z-1.248 F270
G1 X73.065 Y74.566 Z-1.253 F270
G1 X72.939 Y74.476 Z-1.259 F270
G1 X72.817 Y74.379 Z-1.264 F270
G1 X72.701 Y74.277 Z-1.27 F270
G1 X72.59 Y74.169 Z-1.275 F270
G1 X72.484 Y74.055 Z-1.28 F270
G1 X72.385 Y73.935 Z-1.286 F270
G1 X72.292 Y73.811 Z-1.291 F270
G1 X72.205 Y73.683 Z-1.297 F270
G1 X72.125 Y73.55 Z-1.302 F270
G1 X72.052 Y73.413 Z-1.308 F270
G1 X71.986 Y73.272 Z-1.313 F270
G1 X71.928 Y73.128 Z-1.318 F270
G1 X71.877 Y72.982 Z-1.324 F270
G1 X71.833 Y72.833 Z-1.329 F270
G1 X71.798 Y72.682 Z-1.335 F270
G1 X71.77 Y72.529 Z-1.34 F270
G1 X71.75 Y72.375 Z-1.346 F270
G1 X71.738 Y72.22 Z-1.351 F270
G1 X71.734 Y72.065 Z-1.356 F270
G1 X71.738 Y71.91 Z-1.362 F270
G1 X71.75 Y71.755 Z-1.367 F270
G1 X71.769 Y71.601 Z-1.373 F270
G1 X71.797 Y71.449 Z-1.378 F270
G1 X71.833 Y71.298 Z-1.383 F270
G1 X71.876 Y71.149 Z-1.389 F270
G1 X71.927 Y71.002 Z-1.394 F270
G1 X71.985 Y70.858 Z-1.4 F270
G1 X72.051 Y70.718 Z-1.405 F270
G1 X72.124 Y70.581 Z-1.411 F270
G1 X72.203 Y70.447 Z-1.416 F270
G1 X72.29 Y70.319 Z-1.421 F270
G1 X72.383 Y70.194 Z-1.427 F270
G1 X72.482 Y70.075 Z-1.432 F270
G1 X72.588 Y69.961 Z-1.438 F270
G1 X72.699 Y69.853 Z-1.443 F270
G1 X72.815 Y69.75 Z-1.449 F270
G1 X72.937 Y69.654 Z-1.454 F270
G1 X73.063 Y69.563 Z-1.459 F270
G1 X73.194 Y69.48 Z-1.465 F270
G1 X73.329 Y69.403 Z-1.47 F270
G1 X73.467 Y69.334 Z-1.476 F270
G1 X73.61 Y69.271 Z-1.481 F270
G1 X73.755 Y69.216 Z-1.486 F270
G1 X73.902 Y69.169 Z-1.492 F270
G1 X74.052 Y69.129 Z-1.497 F270
G1 X74.204 Y69.097 Z-1.503 F270
G1 X74.358 Y69.073 Z-1.508 F270
G1 X74.512 Y69.057 Z-1.514 F270
G1 X74.667 Y69.049 Z-1.519 F270
G1 X74.822 Y69.048 Z-1.524 F270
G1 X74.977 Y69.056 Z-1.53 F270
G1 X75.132 Y69.072 Z-1.535 F270
G1 X75.285 Y69.095 Z-1.541 F270
G1 X75.437 Y69.127 Z-1.546 F270
G1 X75.587 Y69.166 Z-1.551 F270
G1 X75.735 Y69.213 Z-1.557 F270
G1 X75.88 Y69.267 Z-1.562 F270
G1 X76.023 Y69.329 Z-1.568 F270
G1 X76.162 Y69.398 Z-1.573 F270
G1 X76.297 Y69.474 Z-1.579 F270
G1 X76.428 Y69.557 Z-1.584 F270
G1 X76.555 Y69.647 Z-1.589 F270
G1 X76.677 Y69.743 Z-1.595 F270
G1 X76.793 Y69.845 Z-1.6 F270
G1 X76.905 Y69.953 Z-1.606 F270
G1 X77.011 Y70.067 Z-1.611 F270
G1 X77.11 Y70.186 Z-1.617 F270
G1 X77.204 Y70.31 Z-1.622 F270
G1 X77.291 Y70.438 Z-1.627 F270
G1 X77.371 Y70.571 Z-1.633 F270
G1 X77.444 Y70.708 Z-1.638 F270
G1 X77.51 Y70.848 Z-1.644 F270
G1 X77.569 Y70.992 Z-1.649 F270
G1 X77.621 Y71.138 Z-1.654 F270
G1 X77.665 Y71.287 Z-1.66 F270
G1 X77.701 Y71.438 Z-1.665 F270
G1 X77.729 Y71.591 Z-1.671 F270
G1 X77.749 Y71.744 Z-1.676 F270
G1 X77.762 Y71.899 Z-1.682 F270
G1 X77.766 Y72.054 Z-1.687 F270
G1 X77.763 Y72.209 Z-1.692 F270
G1 X77.751 Y72.364 Z-1.698 F270
G1 X77.732 Y72.518 Z-1.703 F270
G1 X77.705 Y72.671 Z-1.709 F270
G1 X77.669 Y72.822 Z-1.714 F270
G1 X77.626 Y72.971 Z-1.72 F270
G1 X77.576 Y73.118 Z-1.725 F270
G1 X77.518 Y73.262 Z-1.73 F270
G1 X77.453 Y73.403 Z-1.736 F270
G1 X77.38 Y73.54 Z-1.741 F270
G1 X77.301 Y73.673 Z-1.747 F270
G1 X77.215 Y73.802 Z-1.752 F270
G1 X77.122 Y73.927 Z-1.757 F270
G1 X77.023 Y74.046 Z-1.763 F270
G1 X76.918 Y74.161 Z-1.768 F270
G1 X76.807 Y74.269 Z-1.774 F270
G1 X76.691 Y74.372 Z-1.779 F270
G1 X76.57 Y74.469 Z-1.785 F270
G1 X76.444 Y74.56 Z-1.79 F270
G1 X76.313 Y74.643 Z-1.795 F270
G1 X76.178 Y74.72 Z-1.801 F270
G1 X76.04 Y74.79 Z-1.806 F270
G1 X75.898 Y74.853 Z-1.812 F270
G1 X75.753 Y74.908 Z-1.817 F270
G1 X75.605 Y74.956 Z-1.822 F270
G1 X75.455 Y74.996 Z-1.828 F270
G1 X75.304 Y75.029 Z-1.833 F270
G1 X75.15 Y75.053 Z-1.839 F270
G1 X74.996 Y75.07 Z-1.844 F270
G1 X74.841 Y75.079 Z-1.85 F270
G1 X74.686 Z-1.855 F270
G1 X74.531 Y75.072 Z-1.86 F270
G1 X74.376 Y75.057 Z-1.866 F270
G1 X74.223 Y75.034 Z-1.871 F270
G1 X74.071 Y75.003 Z-1.877 F270
G1 X73.921 Y74.964 Z-1.882 F270
G1 X73.773 Y74.917 Z-1.888 F270
G1 X73.627 Y74.863 Z-1.893 F270
G1 X73.485 Y74.802 Z-1.898 F270
G1 X73.345 Y74.733 Z-1.904 F270
G1 X73.21 Y74.657 Z-1.909 F270
G1 X73.079 Y74.575 Z-1.915 F270
G1 X72.952 Y74.485 Z-1.92 F270
G1 X72.83 Y74.39 Z-1.925 F270
G1 X72.712 Y74.288 Z-1.931 F270
G1 X72.601 Y74.18 Z-1.936 F270
G1 X72.495 Y74.067 Z-1.942 F270
G1 X72.395 Y73.948 Z-1.947 F270
G1 X72.301 Y73.824 Z-1.953 F270
G1 X72.214 Y73.696 Z-1.958 F270
G1 X72.133 Y73.563 Z-1.963 F270
G1 X72.059 Y73.427 Z-1.969 F270
G1 X71.993 Y73.287 Z-1.974 F270
G1 X71.934 Y73.143 Z-1.98 F270
G1 X71.882 Y72.997 Z-1.985 F270
G1 X71.838 Y72.848 Z-1.991 F270
G1 X71.801 Y72.697 Z-1.996 F270
G1 X71.772 Y72.545 Z-2.001 F270
G1 X71.752 Y72.391 Z-2.007 F270
G1 X71.739 Y72.236 Z-2.012 F270
G1 X71.734 Y72.081 Z-2.018 F270
G1 X71.737 Y71.926 Z-2.023 F270
G1 X71.748 Y71.771 Z-2.028 F270
G1 X71.767 Y71.617 Z-2.034 F270
G1 X71.794 Y71.464 Z-2.039 F270
G1 X71.829 Y71.313 Z-2.045 F270
G1 X71.871 Y71.164 Z-2.05 F270
G1 X71.921 Y71.017 Z-2.056 F270
G1 X71.979 Y70.873 Z-2.061 F270
G1 X72.044 Y70.732 Z-2.066 F270
G1 X72.116 Y70.594 Z-2.072 F270
G1 X72.195 Y70.461 Z-2.077 F270
G1 X72.281 Y70.332 Z-2.083 F270
G1 X72.373 Y70.207 Z-2.088 F270
G1 X72.472 Y70.087 Z-2.093 F270
G1 X72.576 Y69.973 Z-2.099 F270
G1 X72.687 Y69.864 Z-2.104 F270
G1 X72.803 Y69.76 Z-2.11 F270
G1 X72.924 Y69.663 Z-2.115 F270
G1 X73.05 Y69.572 Z-2.121 F270
G1 X73.18 Y69.488 Z-2.126 F270
G1 X73.315 Y69.411 Z-2.131 F270
G1 X73.453 Y69.341 Z-2.137 F270
G1 X73.595 Y69.278 Z-2.142 F270
G1 X73.74 Y69.222 Z-2.148 F270
G1 X73.887 Y69.174 Z-2.153 F270
G1 X74.037 Y69.133 Z-2.159 F270
G1 X74.189 Y69.1 Z-2.164 F270
G1 X74.342 Y69.075 Z-2.169 F270
G1 X74.496 Y69.058 Z-2.175 F270
G1 X74.651 Y69.049 Z-2.18 F270
G1 X74.806 Y69.048 Z-2.186 F270
G1 X74.961 Y69.055 Z-2.191 F270
G1 X75.116 Y69.07 Z-2.196 F270
G1 X75.269 Y69.093 Z-2.202 F270
G1 X75.421 Y69.123 Z-2.207 F270
G1 X75.572 Y69.162 Z-2.213 F270
G1 X75.72 Y69.208 Z-2.218 F270
G1 X75.865 Y69.261 Z-2.224 F270
G1 X76.008 Y69.322 Z-2.229 F270
G1 X76.147 Y69.391 Z-2.234 F270
G1 X76.283 Y69.466 Z-2.24 F270
G1 X76.415 Y69.548 Z-2.245 F270
G1 X76.542 Y69.637 Z-2.251 F270
G1 X76.664 Y69.733 Z-2.256 F270
G1 X76.782 Y69.834 Z-2.262 F270
G1 X76.894 Y69.942 Z-2.267 F270
G1 X77 Y70.055 Z-2.272 F270
G1 X77.1 Y70.173 Z-2.278 F270
G1 X77.194 Y70.297 Z-2.283 F270
G1 X77.282 Y70.425 Z-2.289 F270
G1 X77.363 Y70.557 Z-2.294 F270
G1 X77.437 Y70.693 Z-2.299 F270
G1 X77.504 Y70.834 Z-2.305 F270
G1 X77.564 Y70.977 Z-2.31 F270
G1 X77.616 Y71.123 Z-2.316 F270
G1 X77.66 Y71.272 Z-2.321 F270
G1 X77.697 Y71.422 Z-2.327 F270
G1 X77.726 Y71.575 Z-2.332 F270
G1 X77.748 Y71.729 Z-2.337 F270
G1 X77.761 Y71.883 Z-2.343 F270
G1 X77.766 Y72.038 Z-2.348 F270
G1 X77.763 Y72.193 Z-2.354 F270
G1 X77.753 Y72.348 Z-2.359 F270
G1 X77.734 Y72.502 Z-2.364 F270
G1 X77.708 Y72.655 Z-2.37 F270
G1 X77.673 Y72.807 Z-2.375 F270
G1 X77.631 Y72.956 Z-2.381 F270
G1 X77.582 Y73.103 Z-2.386 F270
G1 X77.524 Y73.247 Z-2.392 F270
G1 X77.46 Y73.388 Z-2.397 F270
G1 X77.388 Y73.526 Z-2.402 F270
G1 X77.309 Y73.66 Z-2.408 F270
G1 X77.224 Y73.789 Z-2.413 F270
G1 X77.132 Y73.914 Z-2.419 F270
G1 X77.034 Y74.034 Z-2.424 F270
G1 X76.929 Y74.149 Z-2.43 F270
G1 X76.819 Y74.258 Z-2.435 F270
G1 X76.703 Y74.362 Z-2.44 F270
G1 X76.583 Y74.459 Z-2.446 F270
G1 X76.457 Y74.551 Z-2.451 F270
G1 X76.327 Y74.635 Z-2.457 F270
G1 X76.192 Y74.713 Z-2.462 F270
G1 X76.054 Y74.783 Z-2.467 F270
G1 X75.913 Y74.847 Z-2.473 F270
G1 X75.768 Y74.903 Z-2.478 F270
G1 X75.621 Y74.952 Z-2.484 F270
G1 X75.471 Y74.993 Z-2.489 F270
G1 X75.319 Y75.026 Z-2.495 F270
G1 X75.166 Y75.051 Z-2.5 F270
G1 X75.012 Y75.069 Z-2.505 F270
G1 X74.857 Y75.078 Z-2.511 F270
G1 X74.702 Y75.08 Z-2.516 F270
G1 X74.547 Y75.073 Z-2.522 F270
G1 X74.392 Y75.059 Z-2.527 F270
G1 X74.239 Y75.036 Z-2.533 F270
G1 X74.087 Y75.006 Z-2.538 F270
G1 X73.936 Y74.968 Z-2.543 F270
G1 X73.788 Y74.922 Z-2.549 F270
G1 X73.642 Y74.869 Z-2.554 F270
G1 X73.499 Y74.808 Z-2.56 F270
G1 X73.36 Y74.74 Z-2.565 F270
G1 X73.224 Y74.665 Z-2.57 F270
G1 X73.092 Y74.583 Z-2.576 F270
G1 X72.965 Y74.495 Z-2.581 F270
G1 X72.842 Y74.4 Z-2.587 F270
G1 X72.724 Y74.299 Z-2.592 F270
G1 X72.612 Y74.191 Z-2.598 F270
G1 X72.505 Y74.079 Z-2.603 F270
G1 X72.405 Y73.961 Z-2.608 F270
G1 X72.31 Y73.837 Z-2.614 F270
G1 X72.222 Y73.71 Z-2.619 F270
G1 X72.141 Y73.577 Z-2.625 F270
G1 X72.067 Y73.441 Z-2.63 F270
G1 X71.999 Y73.301 Z-2.636 F270
G1 X71.939 Y73.158 Z-2.641 F270
G1 X71.887 Y73.012 Z-2.646 F270
G1 X71.842 Y72.864 Z-2.652 F270
G1 X71.804 Y72.713 Z-2.657 F270
G1 X71.775 Y72.561 Z-2.663 F270
G1 X71.753 Y72.407 Z-2.668 F270
G1 X71.74 Y72.252 Z-2.673 F270
G1 X71.734 Y72.097 Z-2.679 F270
G1 X71.736 Y71.942 Z-2.684 F270
G1 X71.746 Y71.787 Z-2.69 F270
G1 X71.765 Y71.633 Z-2.695 F270
G1 X71.791 Y71.48 Z-2.701 F270
G1 X71.825 Y71.329 Z-2.706 F270
G1 X71.866 Y71.179 Z-2.711 F270
G1 X71.916 Y71.032 Z-2.717 F270
G1 X71.972 Y70.888 Z-2.722 F270
G1 X72.037 Y70.746 Z-2.728 F270
G1 X72.108 Y70.609 Z-2.733 F270
G1 X72.186 Y70.475 Z-2.738 F270
G1 X72.272 Y70.345 Z-2.744 F270
G1 X72.363 Y70.22 Z-2.749 F270
G1 X72.461 Y70.099 Z-2.755 F270
G1 X72.565 Y69.984 Z-2.76 F270
G1 X72.675 Y69.875 Z-2.766 F270
G1 X72.79 Y69.771 Z-2.771 F270
G1 X72.911 Y69.673 Z-2.776 F270
G1 X73.036 Y69.582 Z-2.782 F270
G1 X73.166 Y69.497 Z-2.787 F270
G1 X73.301 Y69.419 Z-2.793 F270
G1 X73.438 Y69.348 Z-2.798 F270
G1 X73.58 Y69.284 Z-2.804 F270
G1 X73.724 Y69.227 Z-2.809 F270
G1 X73.872 Y69.178 Z-2.814 F270
G1 X74.021 Y69.137 Z-2.82 F270
G1 X74.173 Y69.103 Z-2.825 F270
G1 X74.326 Y69.077 Z-2.831 F270
G1 X74.48 Y69.06 Z-2.836 F270
G1 X74.635 Y69.05 Z-2.841 F270
G1 X74.79 Y69.048 Z-2.847 F270
G1 X74.945 Y69.054 Z-2.852 F270
G1 X75.1 Y69.068 Z-2.858 F270
G1 X75.253 Y69.09 Z-2.863 F270
G1 X75.406 Y69.12 Z-2.869 F270
G1 X75.556 Y69.157 Z-2.874 F270
G1 X75.705 Y69.203 Z-2.879 F270
G1 X75.851 Y69.255 Z-2.885 F270
G1 X75.994 Y69.316 Z-2.89 F270
G1 X76.133 Y69.383 Z-2.896 F270
G1 X76.269 Y69.458 Z-2.901 F270
G1 X76.401 Y69.54 Z-2.907 F270
G1 X76.529 Y69.628 Z-2.912 F270
G1 X76.652 Y69.723 Z-2.917 F270
G1 X76.77 Y69.824 Z-2.923 F270
G1 X76.882 Y69.93 Z-2.928 F270
G1 X76.989 Y70.043 Z-2.934 F270
G1 X77.09 Y70.161 Z-2.939 F270
G1 X77.185 Y70.284 Z-2.944 F270
G1 X77.273 Y70.411 Z-2.95 F270
G1 X77.355 Y70.543 Z-2.955 F270
G1 X77.43 Y70.679 Z-2.961 F270
G1 X77.497 Y70.819 Z-2.966 F270
G1 X77.558 Y70.962 Z-2.972 F270
G1 X77.611 Y71.108 Z-2.977 F270
G1 X77.656 Y71.256 Z-2.982 F270
G1 X77.694 Y71.407 Z-2.988 F270
G1 X77.724 Y71.559 Z-2.993 F270
G1 X77.746 Y71.713 Z-2.999 F270
G1 X77.76 Y71.867 Z-3.004 F270
G1 X77.766 Y72.022 Z-3.009 F270
G1 X77.764 Y72.177 Z-3.015 F270
G1 X77.754 Y72.332 Z-3.02 F270
G1 X77.736 Y72.486 Z-3.026 F270
G1 X77.711 Y72.64 Z-3.031 F270
G1 X77.677 Y72.791 Z-3.037 F270
G1 X77.636 Y72.941 Z-3.042 F270
G1 X77.587 Y73.088 Z-3.047 F270
G1 X77.531 Y73.232 Z-3.053 F270
G1 X77.467 Y73.374 Z-3.058 F270
G1 X77.396 Y73.512 Z-3.064 F270
G1 X77.318 Y73.646 Z-3.069 F270
G1 X77.233 Y73.776 Z-3.075 F270
G1 X77.142 Y73.902 Z-3.08 F270
G1 X77.044 Y74.022 Z-3.085 F270
G1 X76.94 Y74.138 Z-3.091 F270
G1 X76.831 Y74.247 Z-3.096 F270
G1 X76.716 Y74.352 Z-3.102 F270
G1 X76.595 Y74.45 Z-3.107 F270
G1 X76.47 Y74.541 Z-3.112 F270
G1 X76.34 Y74.627 Z-3.118 F270
G1 X76.207 Y74.705 Z-3.123 F270
G1 X76.069 Y74.776 Z-3.129 F270
G1 X75.927 Y74.841 Z-3.134 F270
G1 X75.783 Y74.898 Z-3.14 F270
G1 X75.636 Y74.947 Z-3.145 F270
G1 X75.486 Y74.989 Z-3.15 F270
G1 X75.335 Y75.023 Z-3.156 F270
G1 X75.182 Y75.049 Z-3.161 F270
G1 X75.028 Y75.067 Z-3.167 F270
G1 X74.873 Y75.077 Z-3.172 F270
G1 X74.718 Y75.08 Z-3.178 F270
G1 X74.563 Y75.074 Z-3.183 F270
G1 X74.408 Y75.061 Z-3.188 F270
G1 X74.255 Y75.039 Z-3.194 F270
G1 X74.102 Y75.01 Z-3.199 F270
G1 X73.952 Y74.972 Z-3.205 F270
G1 X73.803 Y74.927 Z-3.21 F270
G1 X73.657 Y74.875 Z-3.215 F270
G1 X73.514 Y74.815 Z-3.221 F270
G1 X73.374 Y74.748 Z-3.226 F270
G1 X73.238 Y74.673 Z-3.232 F270
G1 X73.105 Y74.592 Z-3.237 F270
G1 X72.978 Y74.504 Z-3.243 F270
G1 X72.854 Y74.41 Z-3.248 F270
G1 X72.736 Y74.309 Z-3.253 F270
G1 X72.623 Y74.203 Z-3.259 F270
G1 X72.516 Y74.091 Z-3.264 F270
G1 X72.415 Y73.973 Z-3.27 F270
G1 X72.32 Y73.85 Z-3.275 F270
G1 X72.231 Y73.723 Z-3.28 F270
G1 X72.149 Y73.591 Z-3.286 F270
G1 X72.074 Y73.455 Z-3.291 F270
G1 X72.006 Y73.316 Z-3.297 F270
G1 X71.945 Y73.173 Z-3.302 F270
G1 X71.892 Y73.027 Z-3.308 F270
G1 X71.846 Y72.879 Z-3.313 F270
G1 X71.808 Y72.729 Z-3.318 F270
G1 X71.778 Y72.576 Z-3.324 F270
G1 X71.755 Y72.423 Z-3.329 F270
G1 X71.741 Y72.268 Z-3.335 F270
G1 X71.734 Y72.113 Z-3.34 F270
G1 X71.736 Y71.958 Z-3.346 F270
G1 X71.745 Y71.803 Z-3.351 F270
G1 X71.762 Y71.649 Z-3.356 F270
G1 X71.788 Y71.496 Z-3.362 F270
G1 X71.821 Y71.344 Z-3.367 F270
G1 X71.862 Y71.195 Z-3.373 F270
G1 X71.91 Y71.047 Z-3.378 F270
G1 X71.966 Y70.902 Z-3.383 F270
G1 X72.03 Y70.761 Z-3.389 F270
G1 X72.1 Y70.623 Z-3.394 F270
G1 X72.178 Y70.488 Z-3.4 F270
G1 X72.262 Y70.358 Z-3.405 F270
G1 X72.353 Y70.232 Z-3.411 F270
G1 X72.451 Y70.111 Z-3.416 F270
G1 X72.554 Y69.996 Z-3.421 F270
G1 X72.664 Y69.886 Z-3.427 F270
G1 X72.778 Y69.781 Z-3.432 F270
G1 X72.898 Y69.683 Z-3.438 F270
G1 X73.023 Y69.591 Z-3.443 F270
G1 X73.153 Y69.505 Z-3.449 F270
G1 X73.286 Y69.426 Z-3.454 F270
G1 X73.424 Y69.355 Z-3.459 F270
G1 X73.565 Y69.29 Z-3.465 F270
G1 X73.709 Y69.233 Z-3.47 F270
G1 X73.856 Y69.183 Z-3.476 F270
G1 X74.006 Y69.141 Z-3.481 F270
G1 X74.157 Y69.106 Z-3.486 F270
G1 X74.31 Y69.08 Z-3.492 F270
G1 X74.464 Y69.061 Z-3.497 F270
G1 X74.619 Y69.05 Z-3.503 F270
G1 X74.774 Y69.048 Z-3.508 F270
G1 X74.929 Y69.053 Z-3.514 F270
G1 X75.084 Y69.066 Z-3.519 F270
G1 X75.238 Y69.087 Z-3.524 F270
G1 X75.39 Y69.116 Z-3.53 F270
G1 X75.541 Y69.153 Z-3.535 F270
G1 X75.689 Y69.198 Z-3.541 F270
G1 X75.836 Y69.25 Z-3.546 F270
G1 X75.979 Y69.309 Z-3.551 F270
G1 X76.119 Y69.376 Z-3.557 F270
G1 X76.255 Y69.45 Z-3.562 F270
G1 X76.388 Y69.531 Z-3.568 F270
G1 X76.516 Y69.619 Z-3.573 F270
G1 X76.639 Y69.713 Z-3.579 F270
G1 X76.758 Y69.813 Z-3.584 F270
G1 X76.871 Y69.919 Z-3.589 F270
G1 X76.978 Y70.031 Z-3.595 F270
G1 X77.08 Y70.148 Z-3.6 F270
G1 X77.175 Y70.271 Z-3.606 F270
G1 X77.264 Y70.398 Z-3.611 F270
G1 X77.347 Y70.529 Z-3.617 F270
G1 X77.422 Y70.665 Z-3.622 F270
G1 X77.491 Y70.804 Z-3.627 F270
G1 X77.552 Y70.947 Z-3.633 F270
G1 X77.606 Y71.093 Z-3.638 F270
G1 X77.652 Y71.241 Z-3.644 F270
G1 X77.69 Y71.391 Z-3.649 F270
G1 X77.721 Y71.543 Z-3.654 F270
G1 X77.744 Y71.697 Z-3.66 F270
G1 X77.759 Y71.851 Z-3.665 F270
G1 X77.766 Y72.006 Z-3.671 F270
G1 X77.765 Y72.161 Z-3.676 F270
G1 X77.756 Y72.316 Z-3.682 F270
G1 X77.739 Y72.471 Z-3.687 F270
G1 X77.714 Y72.624 Z-3.692 F270
G1 X77.681 Y72.775 Z-3.698 F270
G1 X77.641 Y72.925 Z-3.703 F270
G1 X77.592 Y73.073 Z-3.709 F270
G1 X77.537 Y73.218 Z-3.714 F270
G1 X77.474 Y73.359 Z-3.72 F270
G1 X77.403 Y73.498 Z-3.725 F270
G1 X77.326 Y73.632 Z-3.73 F270
G1 X77.242 Y73.763 Z-3.736 F270
G1 X77.151 Y73.889 Z-3.741 F270
G1 X77.054 Y74.01 Z-3.747 F270
G1 X76.951 Y74.126 Z-3.752 F270
G1 X76.842 Y74.236 Z-3.757 F270
G1 X76.728 Y74.341 Z-3.763 F270
G1 X76.608 Y74.44 Z-3.768 F270
G1 X76.483 Y74.532 Z-3.774 F270
G1 X76.354 Y74.618 Z-3.779 F270
G1 X76.221 Y74.697 Z-3.785 F270
G1 X76.083 Y74.769 Z-3.79 F270
G1 X75.942 Y74.834 Z-3.795 F270
G1 X75.798 Y74.892 Z-3.801 F270
G1 X75.651 Y74.942 Z-3.806 F270
G1 X75.502 Y74.985 Z-3.812 F270
G1 X75.351 Y75.02 Z-3.817 F270
G1 X75.198 Y75.047 Z-3.822 F270
G1 X75.044 Y75.066 Z-3.828 F270
G1 X74.889 Y75.077 Z-3.833 F270
G1 X74.734 Y75.08 Z-3.839 F270
G1 X74.579 Y75.075 Z-3.844 F270
G1 X74.424 Y75.062 Z-3.85 F270
G1 X74.27 Y75.042 Z-3.855 F270
G1 X74.118 Y75.013 Z-3.86 F270
G1 X73.967 Y74.977 Z-3.866 F270
G1 X73.818 Y74.932 Z-3.871 F270
G1 X73.672 Y74.881 Z-3.877 F270
G1 X73.528 Y74.822 Z-3.882 F270
G1 X73.388 Y74.755 Z-3.888 F270
G1 X73.252 Y74.681 Z-3.893 F270
G1 X73.119 Y74.601 Z-3.898 F270
G1 X72.991 Y74.514 Z-3.904 F270
G1 X72.867 Y74.42 Z-3.909 F270
G1 X72.748 Y74.32 Z-3.915 F270
G1 X72.635 Y74.214 Z-3.92 F270
G1 X72.527 Y74.102 Z-3.925 F270
G1 X72.425 Y73.985 Z-3.931 F270
G1 X72.329 Y73.863 Z-3.936 F270
G1 X72.24 Y73.736 Z-3.942 F270
G1 X72.157 Y73.605 Z-3.947 F270
G1 X72.081 Y73.47 Z-3.953 F270
G1 X72.013 Y73.33 Z-3.958 F270
G1 X71.951 Y73.188 Z-3.963 F270
G1 X71.897 Y73.043 Z-3.969 F270
G1 X71.85 Y72.895 Z-3.974 F270
G1 X71.812 Y72.744 Z-3.98 F270
G1 X71.78 Y72.592 Z-3.985 F270
G1 X71.757 Y72.439 Z-3.991 F270
G1 X71.742 Y72.284 Z-3.996 F270
G1 X71.734 Y72.129 Z-4.001 F270
G1 X71.735 Y71.974 Z-4.007 F270
G1 X71.744 Y71.819 Z-4.012 F270
G1 X71.76 Y71.665 Z-4.018 F270
G1 X71.785 Y71.512 Z-4.023 F270
G1 X71.817 Y71.36 Z-4.028 F270
G1 X71.857 Y71.21 Z-4.034 F270
G1 X71.905 Y71.062 Z-4.039 F270
G1 X71.96 Y70.917 Z-4.045 F270
G1 X72.023 Y70.775 Z-4.05 F270
G1 X72.093 Y70.637 Z-4.056 F270
G1 X72.17 Y70.502 Z-4.061 F270
G1 X72.253 Y70.371 Z-4.066 F270
G1 X72.344 Y70.245 Z-4.072 F270
G1 X72.44 Y70.124 Z-4.077 F270
G1 X72.543 Y70.007 Z-4.083 F270
G1 X72.652 Y69.897 Z-4.088 F270
G1 X72.766 Y69.792 Z-4.093 F270
G1 X72.886 Y69.693 Z-4.099 F270
G1 X73.01 Y69.6 Z-4.104 F270
G1 X73.139 Y69.514 Z-4.11 F270
G1 X73.272 Y69.434 Z-4.115 F270
G1 X73.41 Y69.362 Z-4.121 F270
G1 X73.55 Y69.296 Z-4.126 F270
G1 X73.694 Y69.238 Z-4.131 F270
G1 X73.841 Y69.188 Z-4.137 F270
G1 X73.99 Y69.145 Z-4.142 F270
G1 X74.141 Y69.11 Z-4.148 F270
G1 X74.294 Y69.082 Z-4.153 F270
G1 X74.448 Y69.063 Z-4.159 F270
G1 X74.603 Y69.051 Z-4.164 F270
G1 X74.758 Y69.048 Z-4.169 F270
G1 X74.913 Y69.052 Z-4.175 F270
G1 X75.068 Y69.064 Z-4.18 F270
G1 X75.222 Y69.085 Z-4.186 F270
G1 X75.374 Y69.113 Z-4.191 F270
G1 X75.525 Y69.149 Z-4.196 F270
G1 X75.674 Y69.193 Z-4.202 F270
G1 X75.821 Y69.244 Z-4.207 F270
G1 X75.964 Y69.303 Z-4.213 F270
G1 X76.105 Y69.369 Z-4.218 F270
G1 X76.241 Y69.442 Z-4.224 F270
G1 X76.374 Y69.522 Z-4.229 F270
G1 X76.503 Y69.609 Z-4.234 F270
G1 X76.627 Y69.703 Z-4.24 F270
G1 X76.746 Y69.802 Z-4.245 F270
G1 X76.859 Y69.908 Z-4.251 F270
G1 X76.968 Y70.019 Z-4.256 F270
G1 X77.07 Y70.136 Z-4.262 F270
G1 X77.166 Y70.258 Z-4.267 F270
G1 X77.256 Y70.385 Z-4.272 F270
G1 X77.339 Y70.516 Z-4.278 F270
G1 X77.415 Y70.651 Z-4.283 F270
G1 X77.484 Y70.79 Z-4.289 F270
G1 X77.546 Y70.932 Z-4.294 F270
G1 X77.6 Y71.077 Z-4.299 F270
G1 X77.647 Y71.225 Z-4.305 F270
G1 X77.687 Y71.375 Z-4.31 F270
G1 X77.718 Y71.527 Z-4.316 F270
G1 X77.742 Y71.681 Z-4.321 F270
G1 X77.758 Y71.835 Z-4.327 F270
G1 X77.765 Y71.99 Z-4.332 F270
G1 Y72.145 Z-4.337 F270
G1 X77.757 Y72.3 Z-4.343 F270
G1 X77.741 Y72.455 Z-4.348 F270
G1 X77.717 Y72.608 Z-4.354 F270
G1 X77.685 Y72.76 Z-4.359 F270
G1 X77.645 Y72.91 Z-4.364 F270
G1 X77.598 Y73.058 Z-4.37 F270
G1 X77.543 Y73.203 Z-4.375 F270
G1 X77.481 Y73.345 Z-4.381 F270
G1 X77.411 Y73.484 Z-4.386 F270
G1 X77.335 Y73.619 Z-4.392 F270
G1 X77.251 Y73.75 Z-4.397 F270
G1 X77.161 Y73.876 Z-4.402 F270
G1 X77.065 Y73.998 Z-4.408 F270
G1 X76.962 Y74.114 Z-4.413 F270
G1 X76.854 Y74.225 Z-4.419 F270
G1 X76.74 Y74.331 Z-4.424 F270
G1 X76.621 Y74.43 Z-4.43 F270
G1 X76.496 Y74.523 Z-4.435 F270
G1 X76.368 Y74.61 Z-4.44 F270
G1 X76.235 Y74.689 Z-4.446 F270
G1 X76.097 Y74.762 Z-4.451 F270
G1 X75.957 Y74.828 Z-4.457 F270
G1 X75.813 Y74.886 Z-4.462 F270
G1 X75.667 Y74.937 Z-4.467 F270
G1 X75.518 Y74.981 Z-4.473 F270
G1 X75.366 Y75.016 Z-4.478 F270
G1 X75.214 Y75.044 Z-4.484 F270
G1 X75.06 Y75.064 Z-4.489 F270
G1 X74.905 Y75.076 Z-4.495 F270
G1 X74.75 Y75.08 Z-4.5 F270
; MOVEMENT_CUTTING
G1 X74.739 F930
G3 X74.42 Y74.761 J-0.319 F930
G1 Y74.739 F930
G3 X74.739 Y74.42 I0.319 F930
G1 X74.761 F930
G3 X75.08 Y74.739 J0.319 F930
G1 Y74.761 F930
G3 X74.761 Y75.08 I-0.319 F930
G1 X74.75 F930
; MOVEMENT_LINK_TRANSITION
G2 X73.085 Y75.883 J2.128 F930
G3 X71.34 Y75.273 I-0.766 J-0.61 F930
; MOVEMENT_CUTTING
G1 Y71.659 F930
G3 X71.659 Y71.34 I0.319 F930
G1 X77.841 F930
G3 X78.16 Y71.659 J0.319 F930
G1 Y77.841 F930
G3 X77.841 Y78.16 I-0.319 F930
G1 X71.659 F930
G3 X71.34 Y77.841 J-0.319 F930
G1 Y75.273 F930
; MOVEMENT_LINK_TRANSITION
G2 X69.8 Y72.963 I-2.502 F930
G3 X68.26 Y70.653 I0.962 J-2.31 F930
; MOVEMENT_CUTTING
G1 Y68.579 F930
G3 X68.579 Y68.26 I0.319 F930
G1 X80.921 F930
G3 X81.24 Y68.579 J0.319 F930
G1 Y80.921 F930
G3 X80.921 Y81.24 I-0.319 F930
G1 X68.579 F930
G3 X68.26 Y80.921 J-0.319 F930
G1 Y70.653 F930
; MOVEMENT_LINK_TRANSITION
G2 X66.72 Y68.343 I-2.503 F930
G3 X65.18 Y66.033 I0.963 J-2.31 F930
; MOVEMENT_CUTTING
G1 Y65.499 F930
G3 X65.499 Y65.18 I0.319 F930
G1 X84.001 F930
G3 X84.32 Y65.499 J0.319 F930
G1 Y84.001 F930
G3 X84.001 Y84.32 I-0.319 F930
G1 X65.499 F930
G3 X65.18 Y84.001 J-0.319 F930
G1 Y66.033 F930
; MOVEMENT_LINK_TRANSITION
G2 X64.008 Y64.215 I-1.996 F930
G3 X64.464 Y62.1 I0.457 J-1.008 F930
; MOVEMENT_CUTTING
G1 X87.081 F930
G3 X87.4 Y62.419 J0.319 F930
G1 Y87.081 F930
G3 X87.081 Y87.4 I-0.319 F930
G1 X62.419 F930
G3 X62.1 Y87.081 J-0.319 F930
G1 Y62.419 F930
G3 X62.419 Y62.1 I0.319 F930
G1 X64.464 F930
; MOVEMENT_LINK_TRANSITION
G2 X66.774 Y60.56 J-2.502 F930
G3 X69.084 Y59.02 I2.31 J0.962 F930
; MOVEMENT_CUTTING
G1 X90.161 F930
G3 X90.48 Y59.339 J0.319 F930
G1 Y90.161 F930
G3 X90.161 Y90.48 I-0.319 F930
G1 X59.339 F930
G3 X59.02 Y90.161 J-0.319 F930
G1 Y59.339 F930
G3 X59.339 Y59.02 I0.319 F930
G1 X69.084 F930
; MOVEMENT_LINK_TRANSITION
G2 X71.394 Y57.48 J-2.502 F930
G3 X73.704 Y55.94 I2.31 J0.963 F930
; MOVEMENT_CUTTING
G1 X93.241 F930
G3 X93.56 Y56.259 J0.319 F930
G1 Y93.241 F930
G3 X93.241 Y93.56 I-0.319 F930
G1 X56.259 F930
G3 X55.94 Y93.241 J-0.319 F930
G1 Y56.259 F930
G3 X56.259 Y55.94 I0.319 F930
G1 X73.704 F930
; MOVEMENT_LINK_TRANSITION
G2 X76.014 Y54.4 J-2.502 F930
G3 X78.324 Y52.86 I2.31 J0.962 F930
; MOVEMENT_CUTTING
G1 X96.321 F930
G3 X96.64 Y53.179 J0.319 F930
G1 Y96.321 F930
G3 X96.321 Y96.64 I-0.319 F930
G1 X53.179 F930
G3 X52.86 Y96.321 J-0.319 F930
G1 Y53.179 F930
G3 X53.179 Y52.86 I0.319 F930
G1 X78.324 F930
; MOVEMENT_LINK_TRANSITION
G2 X80.634 Y51.32 J-2.503 F930
G3 X82.944 Y49.78 I2.31 J0.963 F930
; MOVEMENT_CUTTING
G1 X99.401 F930
G3 X99.72 Y50.099 J0.319 F930
G1 Y99.401 F930
G3 X99.401 Y99.72 I-0.319 F930
G1 X50.099 F930
G3 X49.78 Y99.401 J-0.319 F930
G1 Y50.099 F930
G3 X50.099 Y49.78 I0.319 F930
G1 X82.944 F930
; MOVEMENT_LINK_TRANSITION
G2 X85.254 Y48.24 J-2.502 F930
G3 X87.564 Y46.7 I2.31 J0.962 F930
; MOVEMENT_CUTTING
G1 X102.481 F930
G3 X102.8 Y47.019 J0.319 F930
G1 Y102.481 F930
G3 X102.481 Y102.8 I-0.319 F930
G1 X47.019 F930
G3 X46.7 Y102.481 J-0.319 F930
G1 Y47.019 F930
G3 X47.019 Y46.7 I0.319 F930
G1 X87.564 F930
; MOVEMENT_LINK_TRANSITION
G2 X89.874 Y45.16 J-2.503 F930
G3 X92.184 Y43.62 I2.31 J0.963 F930
; MOVEMENT_CUTTING
G1 X105.561 F930
G3 X105.88 Y43.939 J0.319 F930
G1 Y105.561 F930
G3 X105.561 Y105.88 I-0.319 F930
G1 X43.939 F930
G3 X43.62 Y105.561 J-0.319 F930
G1 Y43.939 F930
G3 X43.939 Y43.62 I0.319 F930
G1 X92.184 F930
; MOVEMENT_LINK_TRANSITION
G2 X94.46 Y42.103 J-2.466 F930
G3 X96.737 Y40.585 I2.276 J0.948 F930
; MOVEMENT_CUTTING
G1 X108.5 F930
G3 X108.915 Y41 J0.415 F930
G1 Y108.5 F930
G3 X108.5 Y108.915 I-0.415 F930
G1 X41 F930
G3 X40.585 Y108.5 J-0.415 F930
G1 Y41 F930
G3 X41 Y40.585 I0.415 F930
G1 X96.737 F930
; MOVEMENT_LINK_TRANSITION
G2 X99.047 Y39.045 J-2.502 F930
G3 X101.357 Y37.505 I2.31 J0.963 F930
; MOVEMENT_CUTTING
G1 X108.5 F930
G3 X111.995 Y41 J3.495 F930
G1 Y108.5 F930
G3 X108.5 Y111.995 I-3.495 F930
G1 X41 F930
G3 X37.505 Y108.5 J-3.495 F930
G1 Y41 F930
G3 X41 Y37.505 I3.495 F930
G1 X101.357 F930
; MOVEMENT_LINK_TRANSITION
G2 X103.704 Y35.94 J-2.543 F930
G3 X106.052 Y34.375 I2.348 J0.978 F930
; MOVEMENT_CUTTING
G1 X108.5 F930
G3 X115.125 Y41 J6.625 F930
G1 Y108.5 F930
G3 X108.5 Y115.125 I-6.625 F930
G1 X41 F930
G3 X34.375 Y108.5 J-6.625 F930
G1 Y41 F930
G3 X41 Y34.375 I6.625 F930
G1 X106.052 F930
; MOVEMENT_LINK_TRANSITION
G2 X106.202 Y34.275 J-0.162 F930
G3 X106.352 Y34.175 I0.15 J0.063 F930
; MOVEMENT_FINISH_CUTTING
G1 X108.5 F930
G3 X115.325 Y41 J6.825 F930
G1 Y108.5 F930
G3 X108.5 Y115.325 I-6.825 F930
G1 X41 F930
G3 X34.175 Y108.5 J-6.825 F930
G1 Y41 F930
G3 X41 Y34.175 I6.825 F930
G1 X106.352 F930
; MOVEMENT_LEAD_OUT
G1 X106.417 Y34.18 Z-4.49 F930
G1 X106.481 Y34.192 Z-4.479 F930
G1 X106.544 Y34.211 Z-4.469 F930
G1 X106.598 Y34.233 Z-4.439 F930
G1 X106.65 Y34.261 Z-4.409 F930
G1 X106.7 Y34.293 Z-4.379 F930
G1 X106.754 Y34.337 Z-4.308 F930
G1 X106.803 Y34.388 Z-4.238 F930
G1 X106.831 Y34.423 Z-4.15 F930
G1 X106.857 Y34.46 Z-4.061 F930
G1 X106.873 Y34.486 Z-3.865 F930
; MOVEMENT_CUTTING
G1 Z5 F930
G1 X76.143 Y74.739 F930
; MOVEMENT_PLUNGE
G1 Z0.159 F270
; MOVEMENT_LEAD_IN
G1 Z-1.365 F930
; MOVEMENT_RAMP_HELIX
G1 X76.117 Y74.753 Z-1.557 F270
G1 X76.039 Y74.791 Z-1.731 F270
G1 X75.916 Y74.846 Z-1.871 F270
G1 X75.836 Y74.878 Z-1.917 F270
G1 X75.756 Y74.907 Z-1.964 F270
G1 X75.666 Y74.938 Z-1.982 F270
G1 X75.574 Y74.965 Z-2 F270
G1 X75.424 Y75.004 Z-2.005 F270
G1 X75.272 Y75.034 Z-2.011 F270
G1 X75.119 Y75.057 Z-2.016 F270
G1 X74.964 Y75.072 Z-2.022 F270
G1 X74.809 Y75.079 Z-2.027 F270
G1 X74.654 Y75.078 Z-2.033 F270
G1 X74.499 Y75.07 Z-2.038 F270
G1 X74.345 Y75.053 Z-2.043 F270
G1 X74.191 Y75.028 Z-2.049 F270
G1 X74.04 Y74.995 Z-2.054 F270
G1 X73.89 Y74.955 Z-2.06 F270
G1 X73.742 Y74.907 Z-2.065 F270
G1 X73.597 Y74.851 Z-2.07 F270
G1 X73.456 Y74.788 Z-2.076 F270
G1 X73.317 Y74.718 Z-2.081 F270
G1 X73.183 Y74.641 Z-2.087 F270
G1 X73.052 Y74.557 Z-2.092 F270
G1 X72.926 Y74.466 Z-2.098 F270
G1 X72.805 Y74.369 Z-2.103 F270
G1 X72.689 Y74.266 Z-2.108 F270
G1 X72.578 Y74.157 Z-2.114 F270
G1 X72.474 Y74.043 Z-2.119 F270
G1 X72.375 Y73.923 Z-2.125 F270
G1 X72.282 Y73.798 Z-2.13 F270
G1 X72.196 Y73.669 Z-2.136 F270
G1 X72.117 Y73.536 Z-2.141 F270
G1 X72.045 Y73.398 Z-2.146 F270
G1 X71.98 Y73.257 Z-2.152 F270
G1 X71.922 Y73.113 Z-2.157 F270
G1 X71.872 Y72.966 Z-2.163 F270
G1 X71.829 Y72.817 Z-2.168 F270
G1 X71.794 Y72.666 Z-2.173 F270
G1 X71.767 Y72.513 Z-2.179 F270
G1 X71.748 Y72.359 Z-2.184 F270
G1 X71.737 Y72.204 Z-2.19 F270
G1 X71.734 Y72.049 Z-2.195 F270
G1 X71.739 Y71.894 Z-2.201 F270
G1 X71.751 Y71.739 Z-2.206 F270
G1 X71.772 Y71.586 Z-2.211 F270
G1 X71.8 Y71.433 Z-2.217 F270
G1 X71.837 Y71.282 Z-2.222 F270
G1 X71.881 Y71.133 Z-2.228 F270
G1 X71.932 Y70.987 Z-2.233 F270
G1 X71.992 Y70.843 Z-2.238 F270
G1 X72.058 Y70.703 Z-2.244 F270
G1 X72.132 Y70.567 Z-2.249 F270
G1 X72.212 Y70.434 Z-2.255 F270
G1 X72.299 Y70.305 Z-2.26 F270
G1 X72.393 Y70.182 Z-2.266 F270
G1 X72.493 Y70.063 Z-2.271 F270
G1 X72.599 Y69.95 Z-2.276 F270
G1 X72.71 Y69.842 Z-2.282 F270
G1 X72.827 Y69.74 Z-2.287 F270
G1 X72.949 Y69.644 Z-2.293 F270
G1 X73.076 Y69.555 Z-2.298 F270
G1 X73.208 Y69.472 Z-2.304 F270
G1 X73.343 Y69.396 Z-2.309 F270
G1 X73.482 Y69.327 Z-2.314 F270
G1 X73.624 Y69.265 Z-2.32 F270
G1 X73.77 Y69.211 Z-2.325 F270
G1 X73.918 Y69.165 Z-2.331 F270
G1 X74.068 Y69.126 Z-2.336 F270
G1 X74.22 Y69.094 Z-2.341 F270
G1 X74.374 Y69.071 Z-2.347 F270
G1 X74.528 Y69.056 Z-2.352 F270
G1 X74.683 Y69.048 Z-2.358 F270
G1 X74.838 Y69.049 Z-2.363 F270
G1 X74.993 Y69.057 Z-2.369 F270
G1 X75.147 Y69.074 Z-2.374 F270
G1 X75.301 Y69.098 Z-2.379 F270
G1 X75.453 Y69.13 Z-2.385 F270
G1 X75.602 Y69.17 Z-2.39 F270
G1 X75.75 Y69.218 Z-2.396 F270
G1 X75.895 Y69.273 Z-2.401 F270
G1 X76.037 Y69.336 Z-2.407 F270
G1 X76.176 Y69.406 Z-2.412 F270
G1 X76.311 Y69.483 Z-2.417 F270
G1 X76.441 Y69.566 Z-2.423 F270
G1 X76.568 Y69.657 Z-2.428 F270
G1 X76.689 Y69.753 Z-2.434 F270
G1 X76.805 Y69.856 Z-2.439 F270
G1 X76.916 Y69.965 Z-2.444 F270
G1 X77.021 Y70.079 Z-2.45 F270
G1 X77.12 Y70.198 Z-2.455 F270
G1 X77.213 Y70.323 Z-2.461 F270
G1 X77.299 Y70.452 Z-2.466 F270
G1 X77.379 Y70.585 Z-2.472 F270
G1 X77.451 Y70.722 Z-2.477 F270
G1 X77.517 Y70.863 Z-2.482 F270
G1 X77.575 Y71.007 Z-2.488 F270
G1 X77.626 Y71.153 Z-2.493 F270
G1 X77.669 Y71.303 Z-2.499 F270
G1 X77.704 Y71.454 Z-2.504 F270
G1 X77.731 Y71.606 Z-2.509 F270
G1 X77.751 Y71.76 Z-2.515 F270
G1 X77.763 Y71.915 Z-2.52 F270
G1 X77.766 Y72.07 Z-2.526 F270
G1 X77.762 Y72.225 Z-2.531 F270
G1 X77.75 Y72.38 Z-2.537 F270
G1 X77.729 Y72.534 Z-2.542 F270
G1 X77.701 Y72.687 Z-2.547 F270
G1 X77.665 Y72.838 Z-2.553 F270
G1 X77.622 Y72.987 Z-2.558 F270
G1 X77.57 Y73.133 Z-2.564 F270
G1 X77.512 Y73.277 Z-2.569 F270
G1 X77.446 Y73.417 Z-2.575 F270
G1 X77.372 Y73.554 Z-2.58 F270
G1 X77.292 Y73.687 Z-2.585 F270
G1 X77.205 Y73.815 Z-2.591 F270
G1 X77.112 Y73.939 Z-2.596 F270
G1 X77.012 Y74.058 Z-2.602 F270
G1 X76.907 Y74.172 Z-2.607 F270
G1 X76.796 Y74.28 Z-2.612 F270
G1 X76.679 Y74.383 Z-2.618 F270
G1 X76.557 Y74.479 Z-2.623 F270
G1 X76.43 Y74.569 Z-2.629 F270
G1 X76.299 Y74.652 Z-2.634 F270
G1 X76.164 Y74.728 Z-2.64 F270
G1 X76.025 Y74.797 Z-2.645 F270
G1 X75.883 Y74.859 Z-2.65 F270
G1 X75.738 Y74.914 Z-2.656 F270
G1 X75.59 Y74.961 Z-2.661 F270
G1 X75.44 Y75 Z-2.667 F270
G1 X75.288 Y75.032 Z-2.672 F270
G1 X75.134 Y75.055 Z-2.678 F270
G1 X74.98 Y75.071 Z-2.683 F270
G1 X74.825 Y75.079 Z-2.688 F270
G1 X74.67 Z-2.694 F270
G1 X74.515 Y75.071 Z-2.699 F270
G1 X74.361 Y75.055 Z-2.705 F270
G1 X74.207 Y75.031 Z-2.71 F270
G1 X74.055 Y74.999 Z-2.715 F270
G1 X73.905 Y74.959 Z-2.721 F270
G1 X73.757 Y74.912 Z-2.726 F270
G1 X73.612 Y74.857 Z-2.732 F270
G1 X73.47 Y74.795 Z-2.737 F270
G1 X73.331 Y74.726 Z-2.743 F270
G1 X73.196 Y74.649 Z-2.748 F270
G1 X73.065 Y74.566 Z-2.753 F270
G1 X72.939 Y74.476 Z-2.759 F270
G1 X72.817 Y74.379 Z-2.764 F270
G1 X72.701 Y74.277 Z-2.77 F270
G1 X72.59 Y74.169 Z-2.775 F270
G1 X72.484 Y74.055 Z-2.78 F270
G1 X72.385 Y73.935 Z-2.786 F270
G1 X72.292 Y73.811 Z-2.791 F270
G1 X72.205 Y73.683 Z-2.797 F270
G1 X72.125 Y73.55 Z-2.802 F270
G1 X72.052 Y73.413 Z-2.808 F270
G1 X71.986 Y73.272 Z-2.813 F270
G1 X71.928 Y73.128 Z-2.818 F270
G1 X71.877 Y72.982 Z-2.824 F270
G1 X71.833 Y72.833 Z-2.829 F270
G1 X71.798 Y72.682 Z-2.835 F270
G1 X71.77 Y72.529 Z-2.84 F270
G1 X71.75 Y72.375 Z-2.846 F270
G1 X71.738 Y72.22 Z-2.851 F270
G1 X71.734 Y72.065 Z-2.856 F270
G1 X71.738 Y71.91 Z-2.862 F270
G1 X71.75 Y71.755 Z-2.867 F270
G1 X71.769 Y71.601 Z-2.873 F270
G1 X71.797 Y71.449 Z-2.878 F270
G1 X71.833 Y71.298 Z-2.883 F270
G1 X71.876 Y71.149 Z-2.889 F270
G1 X71.927 Y71.002 Z-2.894 F270
G1 X71.985 Y70.858 Z-2.9 F270
G1 X72.051 Y70.718 Z-2.905 F270
G1 X72.124 Y70.581 Z-2.911 F270
G1 X72.203 Y70.447 Z-2.916 F270
G1 X72.29 Y70.319 Z-2.921 F270
G1 X72.383 Y70.194 Z-2.927 F270
G1 X72.482 Y70.075 Z-2.932 F270
G1 X72.588 Y69.961 Z-2.938 F270
G1 X72.699 Y69.853 Z-2.943 F270
G1 X72.815 Y69.75 Z-2.949 F270
G1 X72.937 Y69.654 Z-2.954 F270
G1 X73.063 Y69.563 Z-2.959 F270
G1 X73.194 Y69.48 Z-2.965 F270
G1 X73.329 Y69.403 Z-2.97 F270
G1 X73.467 Y69.334 Z-2.976 F270
G1 X73.61 Y69.271 Z-2.981 F270
G1 X73.755 Y69.216 Z-2.986 F270
G1 X73.902 Y69.169 Z-2.992 F270
G1 X74.052 Y69.129 Z-2.997 F270
G1 X74.204 Y69.097 Z-3.003 F270
G1 X74.358 Y69.073 Z-3.008 F270
G1 X74.512 Y69.057 Z-3.014 F270
G1 X74.667 Y69.049 Z-3.019 F270
G1 X74.822 Y69.048 Z-3.024 F270
G1 X74.977 Y69.056 Z-3.03 F270
G1 X75.132 Y69.072 Z-3.035 F270
G1 X75.285 Y69.095 Z-3.041 F270
G1 X75.437 Y69.127 Z-3.046 F270
G1 X75.587 Y69.166 Z-3.051 F270
G1 X75.735 Y69.213 Z-3.057 F270
G1 X75.88 Y69.267 Z-3.062 F270
G1 X76.023 Y69.329 Z-3.068 F270
G1 X76.162 Y69.398 Z-3.073 F270
G1 X76.297 Y69.474 Z-3.079 F270
G1 X76.428 Y69.557 Z-3.084 F270
G1 X76.555 Y69.647 Z-3.089 F270
G1 X76.677 Y69.743 Z-3.095 F270
G1 X76.793 Y69.845 Z-3.1 F270
G1 X76.905 Y69.953 Z-3.106 F270
G1 X77.011 Y70.067 Z-3.111 F270
G1 X77.11 Y70.186 Z-3.117 F270
G1 X77.204 Y70.31 Z-3.122 F270
G1 X77.291 Y70.438 Z-3.127 F270
G1 X77.371 Y70.571 Z-3.133 F270
G1 X77.444 Y70.708 Z-3.138 F270
G1 X77.51 Y70.848 Z-3.144 F270
G1 X77.569 Y70.992 Z-3.149 F270
G1 X77.621 Y71.138 Z-3.154 F270
G1 X77.665 Y71.287 Z-3.16 F270
G1 X77.701 Y71.438 Z-3.165 F270
G1 X77.729 Y71.591 Z-3.171 F270
G1 X77.749 Y71.744 Z-3.176 F270
G1 X77.762 Y71.899 Z-3.182 F270
G1 X77.766 Y72.054 Z-3.187 F270
G1 X77.763 Y72.209 Z-3.192 F270
G1 X77.751 Y72.364 Z-3.198 F270
G1 X77.732 Y72.518 Z-3.203 F270
G1 X77.705 Y72.671 Z-3.209 F270
G1 X77.669 Y72.822 Z-3.214 F270
G1 X77.626 Y72.971 Z-3.22 F270
G1 X77.576 Y73.118 Z-3.225 F270
G1 X77.518 Y73.262 Z-3.23 F270
G1 X77.453 Y73.403 Z-3.236 F270
G1 X77.38 Y73.54 Z-3.241 F270
G1 X77.301 Y73.673 Z-3.247 F270
G1 X77.215 Y73.802 Z-3.252 F270
G1 X77.122 Y73.927 Z-3.257 F270
G1 X77.023 Y74.046 Z-3.263 F270
G1 X76.918 Y74.161 Z-3.268 F270
G1 X76.807 Y74.269 Z-3.274 F270
G1 X76.691 Y74.372 Z-3.279 F270
G1 X76.57 Y74.469 Z-3.285 F270
G1 X76.444 Y74.56 Z-3.29 F270
G1 X76.313 Y74.643 Z-3.295 F270
G1 X76.178 Y74.72 Z-3.301 F270
G1 X76.04 Y74.79 Z-3.306 F270
G1 X75.898 Y74.853 Z-3.312 F270
G1 X75.753 Y74.908 Z-3.317 F270
G1 X75.605 Y74.956 Z-3.322 F270
G1 X75.455 Y74.996 Z-3.328 F270
G1 X75.304 Y75.029 Z-3.333 F270
G1 X75.15 Y75.053 Z-3.339 F270
G1 X74.996 Y75.07 Z-3.344 F270
G1 X74.841 Y75.079 Z-3.35 F270
G1 X74.686 Z-3.355 F270
G1 X74.531 Y75.072 Z-3.36 F270
G1 X74.376 Y75.057 Z-3.366 F270
G1 X74.223 Y75.034 Z-3.371 F270
G1 X74.071 Y75.003 Z-3.377 F270
G1 X73.921 Y74.964 Z-3.382 F270
G1 X73.773 Y74.917 Z-3.388 F270
G1 X73.627 Y74.863 Z-3.393 F270
G1 X73.485 Y74.802 Z-3.398 F270
G1 X73.345 Y74.733 Z-3.404 F270
G1 X73.21 Y74.657 Z-3.409 F270
G1 X73.079 Y74.575 Z-3.415 F270
G1 X72.952 Y74.485 Z-3.42 F270
G1 X72.83 Y74.39 Z-3.425 F270
G1 X72.712 Y74.288 Z-3.431 F270
G1 X72.601 Y74.18 Z-3.436 F270
G1 X72.495 Y74.067 Z-3.442 F270
G1 X72.395 Y73.948 Z-3.447 F270
G1 X72.301 Y73.824 Z-3.453 F270
G1 X72.214 Y73.696 Z-3.458 F270
G1 X72.133 Y73.563 Z-3.463 F270
G1 X72.059 Y73.427 Z-3.469 F270
G1 X71.993 Y73.287 Z-3.474 F270
G1 X71.934 Y73.143 Z-3.48 F270
G1 X71.882 Y72.997 Z-3.485 F270
G1 X71.838 Y72.848 Z-3.491 F270
G1 X71.801 Y72.697 Z-3.496 F270
G1 X71.772 Y72.545 Z-3.501 F270
G1 X71.752 Y72.391 Z-3.507 F270
G1 X71.739 Y72.236 Z-3.512 F270
G1 X71.734 Y72.081 Z-3.518 F270
G1 X71.737 Y71.926 Z-3.523 F270
G1 X71.748 Y71.771 Z-3.528 F270
G1 X71.767 Y71.617 Z-3.534 F270
G1 X71.794 Y71.464 Z-3.539 F270
G1 X71.829 Y71.313 Z-3.545 F270
G1 X71.871 Y71.164 Z-3.55 F270
G1 X71.921 Y71.017 Z-3.556 F270
G1 X71.979 Y70.873 Z-3.561 F270
G1 X72.044 Y70.732 Z-3.566 F270
G1 X72.116 Y70.594 Z-3.572 F270
G1 X72.195 Y70.461 Z-3.577 F270
G1 X72.281 Y70.332 Z-3.583 F270
G1 X72.373 Y70.207 Z-3.588 F270
G1 X72.472 Y70.087 Z-3.593 F270
G1 X72.576 Y69.973 Z-3.599 F270
G1 X72.687 Y69.864 Z-3.604 F270
G1 X72.803 Y69.76 Z-3.61 F270
G1 X72.924 Y69.663 Z-3.615 F270
G1 X73.05 Y69.572 Z-3.621 F270
G1 X73.18 Y69.488 Z-3.626 F270
G1 X73.315 Y69.411 Z-3.631 F270
G1 X73.453 Y69.341 Z-3.637 F270
G1 X73.595 Y69.278 Z-3.642 F270
G1 X73.74 Y69.222 Z-3.648 F270
G1 X73.887 Y69.174 Z-3.653 F270
G1 X74.037 Y69.133 Z-3.659 F270
G1 X74.189 Y69.1 Z-3.664 F270
G1 X74.342 Y69.075 Z-3.669 F270
G1 X74.496 Y69.058 Z-3.675 F270
G1 X74.651 Y69.049 Z-3.68 F270
G1 X74.806 Y69.048 Z-3.686 F270
G1 X74.961 Y69.055 Z-3.691 F270
G1 X75.116 Y69.07 Z-3.696 F270
G1 X75.269 Y69.093 Z-3.702 F270
G1 X75.421 Y69.123 Z-3.707 F270
G1 X75.572 Y69.162 Z-3.713 F270
G1 X75.72 Y69.208 Z-3.718 F270
G1 X75.865 Y69.261 Z-3.724 F270
G1 X76.008 Y69.322 Z-3.729 F270
G1 X76.147 Y69.391 Z-3.734 F270
G1 X76.283 Y69.466 Z-3.74 F270
G1 X76.415 Y69.548 Z-3.745 F270
G1 X76.542 Y69.637 Z-3.751 F270
G1 X76.664 Y69.733 Z-3.756 F270
G1 X76.782 Y69.834 Z-3.762 F270
G1 X76.894 Y69.942 Z-3.767 F270
G1 X77 Y70.055 Z-3.772 F270
G1 X77.1 Y70.173 Z-3.778 F270
G1 X77.194 Y70.297 Z-3.783 F270
G1 X77.282 Y70.425 Z-3.789 F270
G1 X77.363 Y70.557 Z-3.794 F270
G1 X77.437 Y70.693 Z-3.799 F270
G1 X77.504 Y70.834 Z-3.805 F270
G1 X77.564 Y70.977 Z-3.81 F270
G1 X77.616 Y71.123 Z-3.816 F270
G1 X77.66 Y71.272 Z-3.821 F270
G1 X77.697 Y71.422 Z-3.827 F270
G1 X77.726 Y71.575 Z-3.832 F270
G1 X77.748 Y71.729 Z-3.837 F270
G1 X77.761 Y71.883 Z-3.843 F270
G1 X77.766 Y72.038 Z-3.848 F270
G1 X77.763 Y72.193 Z-3.854 F270
G1 X77.753 Y72.348 Z-3.859 F270
G1 X77.734 Y72.502 Z-3.864 F270
G1 X77.708 Y72.655 Z-3.87 F270
G1 X77.673 Y72.807 Z-3.875 F270
G1 X77.631 Y72.956 Z-3.881 F270
G1 X77.582 Y73.103 Z-3.886 F270
G1 X77.524 Y73.247 Z-3.892 F270
G1 X77.46 Y73.388 Z-3.897 F270
G1 X77.388 Y73.526 Z-3.902 F270
G1 X77.309 Y73.66 Z-3.908 F270
G1 X77.224 Y73.789 Z-3.913 F270
G1 X77.132 Y73.914 Z-3.919 F270
G1 X77.034 Y74.034 Z-3.924 F270
G1 X76.929 Y74.149 Z-3.93 F270
G1 X76.819 Y74.258 Z-3.935 F270
G1 X76.703 Y74.362 Z-3.94 F270
G1 X76.583 Y74.459 Z-3.946 F270
G1 X76.457 Y74.551 Z-3.951 F270
G1 X76.327 Y74.635 Z-3.957 F270
G1 X76.192 Y74.713 Z-3.962 F270
G1 X76.054 Y74.783 Z-3.967 F270
G1 X75.913 Y74.847 Z-3.973 F270
G1 X75.768 Y74.903 Z-3.978 F270
G1 X75.621 Y74.952 Z-3.984 F270
G1 X75.471 Y74.993 Z-3.989 F270
G1 X75.319 Y75.026 Z-3.995 F270
G1 X75.166 Y75.051 Z-4 F270
G1 X75.012 Y75.069 Z-4.005 F270
G1 X74.857 Y75.078 Z-4.011 F270
G1 X74.702 Y75.08 Z-4.016 F270
G1 X74.547 Y75.073 Z-4.022 F270
G1 X74.392 Y75.059 Z-4.027 F270
G1 X74.239 Y75.036 Z-4.033 F270
G1 X74.087 Y75.006 Z-4.038 F270
G1 X73.936 Y74.968 Z-4.043 F270
G1 X73.788 Y74.922 Z-4.049 F270
G1 X73.642 Y74.869 Z-4.054 F270
G1 X73.499 Y74.808 Z-4.06 F270
G1 X73.36 Y74.74 Z-4.065 F270
G1 X73.224 Y74.665 Z-4.07 F270
G1 X73.092 Y74.583 Z-4.076 F270
G1 X72.965 Y74.495 Z-4.081 F270
G1 X72.842 Y74.4 Z-4.087 F270
G1 X72.724 Y74.299 Z-4.092 F270
G1 X72.612 Y74.191 Z-4.098 F270
G1 X72.505 Y74.079 Z-4.103 F270
G1 X72.405 Y73.961 Z-4.108 F270
G1 X72.31 Y73.837 Z-4.114 F270
G1 X72.222 Y73.71 Z-4.119 F270
G1 X72.141 Y73.577 Z-4.125 F270
G1 X72.067 Y73.441 Z-4.13 F270
G1 X71.999 Y73.301 Z-4.136 F270
G1 X71.939 Y73.158 Z-4.141 F270
G1 X71.887 Y73.012 Z-4.146 F270
G1 X71.842 Y72.864 Z-4.152 F270
