;Fusion CAM 2.0.20494
; Posts processor: MPCNC.cps
; Gcode generated: Monday, October 28, 2024 11:38:22 PM GMT
; Document: test v22
; Setup: Rear O-Ring
;When using Fusion for Personal Use, the feedrate of rapid
;moves is reduced to match the feedrate of cutting moves,
;which can increase machining time. Unrestricted rapid moves
;are available with a Fusion Subscription.
; 
; Ranges Table:
;   X: Min=27.197 Max=122.303 Size=95.106
;   Y: Min=27.197 Max=122.303 Size=95.106
;   Z: Min=-1.3 Max=10 Size=11.3
; 
; Tools Table:
;  T3 D=0.794 CR=0 - ZMIN=-1.3 - flat end mill 
; 
; Feedrate and Scaling Properties:
;   Feed: Travel speed X/Y = 2500
;   Feed: Travel Speed Z = 300
;   Feed: Enforce Feedrate = true
;   Feed: Scale Feedrate = false
;   Feed: Max XY Cut Speed = 600
;   Feed: Max Z Cut Speed = 180
;   Feed: Max Toolpath Speed = 1000
; 
; G1->G0 Mapping Properties:
;   Map: First G1 -> G0 Rapid = false
;   Map: G1s -> G0 Rapids = false
;   Map: SafeZ Mode = Retract : default = 15
;   Map: Allow Rapid Z = false
; 
; *** START begin ***
;   Set Absolute Positioning
;   Units = mm
;   Disable stepper timeout
G90
G21
M84 S0
; COMMAND_TOOL_MEASURE
; Probe to Zero Z
;   Ask User to Attach the Z Probe
;   Do Probing
;   Set Z to probe thickness: Z14
;   Retract the tool to 20
;   Ask User to Remove the Z Probe
M0 Attach ZProbe
G28 Z
G92 Z14
G0 Z20 F300
M400
M0 Detach ZProbe
; *** START end ***
; 
; *** SECTION begin ***
;   X Min: 27.197 - X Max: 122.303
;   Y Min: 27.197 - Y Max: 122.303
;   Z Min: -1.3 - Z Max: 10
; 2D Pocket2 - Milling - Tool: 3 -  flat end mill
; COMMAND_START_SPINDLE
; COMMAND_SPINDLE_CLOCKWISE
; >>> Spindle Speed: Manual
M0 Turn ON 10000RPM
; COMMAND_COOLANT_ON
M117  2D Pocket2
; MOVEMENT_CUTTING
G1 X40.994 Y122.077 Z10 F600
G1 Z5 F600
; MOVEMENT_PLUNGE
G1 Z2.579 F333
; MOVEMENT_RAMP_HELIX
G1 X40.972 Y122.076 Z2.524 F180
G1 X40.918 Y122.068 Z2.5 F180
G1 X40.866 Y122.053 Z2.498 F180
G1 X40.816 Y122.029 Z2.496 F180
G1 X40.77 Y121.999 Z2.494 F180
G1 X40.729 Y121.963 Z2.492 F180
G1 X40.694 Y121.921 Z2.49 F180
G1 X40.665 Y121.874 Z2.488 F180
G1 X40.644 Y121.824 Z2.487 F180
G1 X40.63 Y121.771 Z2.485 F180
G1 X40.623 Y121.716 Z2.483 F180
G1 X40.625 Y121.661 Z2.481 F180
G1 X40.635 Y121.607 Z2.479 F180
G1 X40.652 Y121.555 Z2.477 F180
G1 X40.677 Y121.506 Z2.475 F180
G1 X40.708 Y121.461 Z2.473 F180
G1 X40.746 Y121.422 Z2.471 F180
G1 X40.789 Y121.388 Z2.469 F180
G1 X40.837 Y121.36 Z2.467 F180
G1 X40.888 Y121.34 Z2.465 F180
G1 X40.941 Y121.328 Z2.464 F180
G1 X40.996 Y121.323 Z2.462 F180
G1 X41.05 Y121.327 Z2.46 F180
G1 X41.104 Y121.338 Z2.458 F180
G1 X41.156 Y121.357 Z2.456 F180
G1 X41.204 Y121.383 Z2.454 F180
G1 X41.248 Y121.416 Z2.452 F180
G1 X41.286 Y121.455 Z2.45 F180
G1 X41.319 Y121.499 Z2.448 F180
G1 X41.345 Y121.547 Z2.446 F180
G1 X41.363 Y121.599 Z2.444 F180
G1 X41.374 Y121.653 Z2.442 F180
G1 X41.377 Y121.707 Z2.441 F180
G1 X41.372 Y121.762 Z2.439 F180
G1 X41.359 Y121.815 Z2.437 F180
G1 X41.338 Y121.866 Z2.435 F180
G1 X41.311 Y121.914 Z2.433 F180
G1 X41.277 Y121.956 Z2.431 F180
G1 X41.236 Y121.994 Z2.429 F180
G1 X41.191 Y122.025 Z2.427 F180
G1 X41.142 Y122.049 Z2.425 F180
G1 X41.09 Y122.066 Z2.423 F180
G1 X41.036 Y122.075 Z2.421 F180
G1 X40.981 Y122.077 Z2.419 F180
G1 X40.927 Y122.07 Z2.418 F180
G1 X40.874 Y122.055 Z2.416 F180
G1 X40.824 Y122.033 Z2.414 F180
G1 X40.777 Y122.004 Z2.412 F180
G1 X40.735 Y121.969 Z2.41 F180
G1 X40.699 Y121.927 Z2.408 F180
G1 X40.669 Y121.881 Z2.406 F180
G1 X40.647 Y121.831 Z2.404 F180
G1 X40.631 Y121.779 Z2.402 F180
G1 X40.624 Y121.724 Z2.4 F180
G1 Y121.67 Z2.398 F180
G1 X40.633 Y121.615 Z2.396 F180
G1 X40.649 Y121.563 Z2.395 F180
G1 X40.672 Y121.514 Z2.393 F180
G1 X40.703 Y121.468 Z2.391 F180
G1 X40.74 Y121.427 Z2.389 F180
G1 X40.782 Y121.392 Z2.387 F180
G1 X40.829 Y121.364 Z2.385 F180
G1 X40.88 Y121.343 Z2.383 F180
G1 X40.933 Y121.329 Z2.381 F180
G1 X40.987 Y121.323 Z2.379 F180
G1 X41.042 Y121.325 Z2.377 F180
G1 X41.096 Y121.336 Z2.375 F180
G1 X41.148 Y121.353 Z2.373 F180
G1 X41.197 Y121.378 Z2.372 F180
G1 X41.241 Y121.41 Z2.37 F180
G1 X41.281 Y121.448 Z2.368 F180
G1 X41.314 Y121.492 Z2.366 F180
G1 X41.341 Y121.54 Z2.364 F180
G1 X41.361 Y121.591 Z2.362 F180
G1 X41.373 Y121.644 Z2.36 F180
G1 X41.377 Y121.699 Z2.358 F180
G1 X41.373 Y121.754 Z2.356 F180
G1 X41.361 Y121.807 Z2.354 F180
G1 X41.342 Y121.859 Z2.352 F180
G1 X41.315 Y121.907 Z2.35 F180
G1 X41.282 Y121.95 Z2.349 F180
G1 X41.243 Y121.988 Z2.347 F180
G1 X41.199 Y122.021 Z2.345 F180
G1 X41.15 Y122.046 Z2.343 F180
G1 X41.098 Y122.064 Z2.341 F180
G1 X41.044 Y122.075 Z2.339 F180
G1 X40.99 Y122.077 Z2.337 F180
G1 X40.935 Y122.072 Z2.335 F180
G1 X40.882 Y122.058 Z2.333 F180
G1 X40.831 Y122.037 Z2.331 F180
G1 X40.784 Y122.009 Z2.329 F180
G1 X40.741 Y121.975 Z2.327 F180
G1 X40.704 Y121.934 Z2.326 F180
G1 X40.674 Y121.889 Z2.324 F180
G1 X40.65 Y121.839 Z2.322 F180
G1 X40.633 Y121.787 Z2.32 F180
G1 X40.624 Y121.733 Z2.318 F180
G1 Y121.678 Z2.316 F180
G1 X40.631 Y121.624 Z2.314 F180
G1 X40.646 Y121.571 Z2.312 F180
G1 X40.668 Y121.521 Z2.31 F180
G1 X40.698 Y121.475 Z2.308 F180
G1 X40.734 Y121.433 Z2.306 F180
G1 X40.775 Y121.397 Z2.304 F180
G1 X40.822 Y121.368 Z2.303 F180
G1 X40.872 Y121.346 Z2.301 F180
G1 X40.924 Y121.331 Z2.299 F180
G1 X40.979 Y121.324 Z2.297 F180
G1 X41.034 Y121.325 Z2.295 F180
G1 X41.088 Y121.333 Z2.293 F180
G1 X41.14 Y121.35 Z2.291 F180
G1 X41.189 Y121.374 Z2.289 F180
G1 X41.235 Y121.405 Z2.287 F180
G1 X41.275 Y121.442 Z2.285 F180
G1 X41.31 Y121.485 Z2.283 F180
G1 X41.337 Y121.532 Z2.281 F180
G1 X41.358 Y121.583 Z2.28 F180
G1 X41.372 Y121.636 Z2.278 F180
G1 X41.377 Y121.691 Z2.276 F180
G1 X41.374 Y121.745 Z2.274 F180
G1 X41.364 Y121.799 Z2.272 F180
G1 X41.346 Y121.851 Z2.27 F180
G1 X41.32 Y121.899 Z2.268 F180
G1 X41.288 Y121.944 Z2.266 F180
G1 X41.249 Y121.983 Z2.264 F180
G1 X41.206 Y122.016 Z2.262 F180
G1 X41.158 Y122.043 Z2.26 F180
G1 X41.106 Y122.062 Z2.258 F180
G1 X41.053 Y122.073 Z2.257 F180
G1 X40.998 Y122.077 Z2.255 F180
G1 X40.943 Y122.073 Z2.253 F180
G1 X40.89 Y122.061 Z2.251 F180
G1 X40.839 Y122.041 Z2.249 F180
G1 X40.791 Y122.014 Z2.247 F180
G1 X40.748 Y121.98 Z2.245 F180
G1 X40.71 Y121.941 Z2.243 F180
G1 X40.678 Y121.896 Z2.241 F180
G1 X40.653 Y121.847 Z2.239 F180
G1 X40.635 Y121.795 Z2.237 F180
G1 X40.625 Y121.741 Z2.235 F180
G1 X40.623 Y121.687 Z2.234 F180
G1 X40.629 Y121.632 Z2.232 F180
G1 X40.643 Y121.579 Z2.23 F180
G1 X40.664 Y121.528 Z2.228 F180
G1 X40.693 Y121.482 Z2.226 F180
G1 X40.728 Y121.439 Z2.224 F180
G1 X40.769 Y121.403 Z2.222 F180
G1 X40.814 Y121.372 Z2.22 F180
G1 X40.864 Y121.349 Z2.218 F180
G1 X40.916 Y121.333 Z2.216 F180
G1 X40.97 Y121.324 Z2.214 F180
G1 X41.025 Z2.212 F180
G1 X41.08 Y121.332 Z2.211 F180
G1 X41.132 Y121.347 Z2.209 F180
G1 X41.182 Y121.37 Z2.207 F180
G1 X41.228 Y121.4 Z2.205 F180
G1 X41.269 Y121.436 Z2.203 F180
G1 X41.305 Y121.478 Z2.201 F180
G1 X41.334 Y121.525 Z2.199 F180
G1 X41.356 Y121.575 Z2.197 F180
G1 X41.37 Y121.628 Z2.195 F180
G1 X41.377 Y121.682 Z2.193 F180
G1 X41.375 Y121.737 Z2.191 F180
G1 X41.366 Y121.791 Z2.189 F180
G1 X41.349 Y121.843 Z2.188 F180
G1 X41.324 Y121.892 Z2.186 F180
G1 X41.293 Y121.937 Z2.184 F180
G1 X41.256 Y121.977 Z2.182 F180
G1 X41.213 Y122.011 Z2.18 F180
G1 X41.165 Y122.039 Z2.178 F180
G1 X41.114 Y122.059 Z2.176 F180
G1 X41.061 Y122.072 Z2.174 F180
G1 X41.006 Y122.077 Z2.172 F180
G1 X40.952 Y122.074 Z2.17 F180
G1 X40.898 Y122.063 Z2.168 F180
G1 X40.846 Y122.044 Z2.166 F180
G1 X40.798 Y122.019 Z2.165 F180
G1 X40.754 Y121.986 Z2.163 F180
G1 X40.715 Y121.947 Z2.161 F180
G1 X40.682 Y121.903 Z2.159 F180
G1 X40.656 Y121.855 Z2.157 F180
G1 X40.637 Y121.803 Z2.155 F180
G1 X40.626 Y121.75 Z2.153 F180
G1 X40.623 Y121.695 Z2.151 F180
G1 X40.628 Y121.64 Z2.149 F180
G1 X40.64 Y121.587 Z2.147 F180
G1 X40.661 Y121.536 Z2.145 F180
G1 X40.688 Y121.488 Z2.143 F180
G1 X40.722 Y121.445 Z2.142 F180
G1 X40.762 Y121.408 Z2.14 F180
G1 X40.807 Y121.376 Z2.138 F180
G1 X40.856 Y121.352 Z2.136 F180
G1 X40.908 Y121.335 Z2.134 F180
G1 X40.962 Y121.325 Z2.132 F180
G1 X41.017 Y121.324 Z2.13 F180
G1 X41.071 Y121.33 Z2.128 F180
G1 X41.124 Y121.344 Z2.126 F180
G1 X41.175 Y121.366 Z2.124 F180
G1 X41.221 Y121.395 Z2.122 F180
G1 X41.263 Y121.43 Z2.12 F180
G1 X41.3 Y121.471 Z2.119 F180
G1 X41.33 Y121.517 Z2.117 F180
G1 X41.353 Y121.567 Z2.115 F180
G1 X41.368 Y121.619 Z2.113 F180
G1 X41.376 Y121.674 Z2.111 F180
G1 Y121.729 Z2.109 F180
G1 X41.368 Y121.783 Z2.107 F180
G1 X41.352 Y121.835 Z2.105 F180
G1 X41.329 Y121.885 Z2.103 F180
G1 X41.298 Y121.931 Z2.101 F180
G1 X41.262 Y121.972 Z2.099 F180
G1 X41.22 Y122.007 Z2.097 F180
G1 X41.173 Y122.035 Z2.096 F180
G1 X41.122 Y122.057 Z2.094 F180
G1 X41.069 Y122.071 Z2.092 F180
G1 X41.015 Y122.077 Z2.09 F180
G1 X40.96 Y122.075 Z2.088 F180
G1 X40.906 Y122.065 Z2.086 F180
G1 X40.854 Y122.048 Z2.084 F180
G1 X40.805 Y122.023 Z2.082 F180
G1 X40.76 Y121.991 Z2.08 F180
G1 X40.721 Y121.953 Z2.078 F180
G1 X40.687 Y121.91 Z2.076 F180
G1 X40.66 Y121.863 Z2.074 F180
G1 X40.64 Y121.811 Z2.073 F180
G1 X40.627 Y121.758 Z2.071 F180
G1 X40.623 Y121.703 Z2.069 F180
G1 X40.627 Y121.649 Z2.067 F180
G1 X40.638 Y121.595 Z2.065 F180
G1 X40.657 Y121.544 Z2.063 F180
G1 X40.683 Y121.495 Z2.061 F180
G1 X40.716 Y121.452 Z2.059 F180
G1 X40.755 Y121.413 Z2.057 F180
G1 X40.8 Y121.381 Z2.055 F180
G1 X40.848 Y121.355 Z2.053 F180
G1 X40.9 Y121.337 Z2.051 F180
G1 X40.954 Y121.326 Z2.05 F180
G1 X41.008 Y121.323 Z2.048 F180
G1 X41.063 Y121.328 Z2.046 F180
G1 X41.116 Y121.341 Z2.044 F180
G1 X41.167 Y121.362 Z2.042 F180
G1 X41.214 Y121.39 Z2.04 F180
G1 X41.257 Y121.424 Z2.038 F180
G1 X41.294 Y121.465 Z2.036 F180
G1 X41.325 Y121.51 Z2.034 F180
G1 X41.35 Y121.559 Z2.032 F180
G1 X41.366 Y121.611 Z2.03 F180
G1 X41.375 Y121.665 Z2.028 F180
G1 X41.376 Y121.72 Z2.027 F180
G1 X41.37 Y121.775 Z2.025 F180
G1 X41.355 Y121.827 Z2.023 F180
G1 X41.333 Y121.878 Z2.021 F180
G1 X41.303 Y121.924 Z2.019 F180
G1 X41.268 Y121.966 Z2.017 F180
G1 X41.226 Y122.002 Z2.015 F180
G1 X41.18 Y122.031 Z2.013 F180
G1 X41.13 Y122.054 Z2.011 F180
G1 X41.078 Y122.069 Z2.009 F180
G1 X41.023 Y122.076 Z2.007 F180
G1 X40.968 Z2.005 F180
G1 X40.914 Y122.067 Z2.003 F180
G1 X40.862 Y122.051 Z2.002 F180
G1 X40.812 Y122.027 Z2 F180
G1 X40.767 Y121.997 Z1.998 F180
G1 X40.726 Y121.96 Z1.996 F180
G1 X40.692 Y121.917 Z1.994 F180
G1 X40.663 Y121.87 Z1.992 F180
G1 X40.642 Y121.82 Z1.99 F180
G1 X40.629 Y121.766 Z1.988 F180
G1 X40.623 Y121.712 Z1.986 F180
G1 X40.625 Y121.657 Z1.984 F180
G1 X40.636 Y121.603 Z1.982 F180
G1 X40.654 Y121.551 Z1.98 F180
G1 X40.679 Y121.503 Z1.979 F180
G1 X40.711 Y121.458 Z1.977 F180
G1 X40.749 Y121.419 Z1.975 F180
G1 X40.793 Y121.385 Z1.973 F180
G1 X40.84 Y121.359 Z1.971 F180
G1 X40.892 Y121.339 Z1.969 F180
G1 X40.945 Y121.327 Z1.967 F180
G1 X41 Y121.323 Z1.965 F180
G1 X41.055 Y121.327 Z1.963 F180
G1 X41.108 Y121.339 Z1.961 F180
G1 X41.159 Y121.359 Z1.959 F180
G1 X41.207 Y121.385 Z1.957 F180
G1 X41.251 Y121.419 Z1.956 F180
G1 X41.289 Y121.458 Z1.954 F180
G1 X41.321 Y121.503 Z1.952 F180
G1 X41.346 Y121.551 Z1.95 F180
G1 X41.364 Y121.603 Z1.948 F180
G1 X41.375 Y121.657 Z1.946 F180
G1 X41.377 Y121.712 Z1.944 F180
G1 X41.371 Y121.766 Z1.942 F180
G1 X41.358 Y121.819 Z1.94 F180
G1 X41.337 Y121.87 Z1.938 F180
G1 X41.308 Y121.917 Z1.936 F180
G1 X41.274 Y121.96 Z1.934 F180
G1 X41.233 Y121.996 Z1.933 F180
G1 X41.188 Y122.027 Z1.931 F180
G1 X41.138 Y122.051 Z1.929 F180
G1 X41.086 Y122.067 Z1.927 F180
G1 X41.032 Y122.076 Z1.925 F180
G1 X40.977 Z1.923 F180
G1 X40.922 Y122.069 Z1.921 F180
G1 X40.87 Y122.054 Z1.919 F180
G1 X40.82 Y122.031 Z1.917 F180
G1 X40.774 Y122.002 Z1.915 F180
G1 X40.732 Y121.966 Z1.913 F180
G1 X40.697 Y121.924 Z1.911 F180
G1 X40.667 Y121.878 Z1.91 F180
G1 X40.645 Y121.828 Z1.908 F180
G1 X40.63 Y121.775 Z1.906 F180
G1 X40.624 Y121.72 Z1.904 F180
G1 X40.625 Y121.665 Z1.902 F180
G1 X40.634 Y121.611 Z1.9 F180
G1 X40.65 Y121.559 Z1.898 F180
G1 X40.675 Y121.51 Z1.896 F180
G1 X40.706 Y121.465 Z1.894 F180
G1 X40.743 Y121.424 Z1.892 F180
G1 X40.786 Y121.39 Z1.89 F180
G1 X40.833 Y121.362 Z1.888 F180
G1 X40.884 Y121.342 Z1.887 F180
G1 X40.937 Y121.328 Z1.885 F180
G1 X40.991 Y121.323 Z1.883 F180
G1 X41.046 Y121.326 Z1.881 F180
G1 X41.1 Y121.337 Z1.879 F180
G1 X41.152 Y121.355 Z1.877 F180
G1 X41.2 Y121.381 Z1.875 F180
G1 X41.244 Y121.413 Z1.873 F180
G1 X41.284 Y121.452 Z1.871 F180
G1 X41.317 Y121.495 Z1.869 F180
G1 X41.343 Y121.543 Z1.867 F180
G1 X41.362 Y121.595 Z1.865 F180
G1 X41.373 Y121.649 Z1.864 F180
G1 X41.377 Y121.703 Z1.862 F180
G1 X41.373 Y121.758 Z1.86 F180
G1 X41.36 Y121.811 Z1.858 F180
G1 X41.34 Y121.862 Z1.856 F180
G1 X41.313 Y121.91 Z1.854 F180
G1 X41.279 Y121.953 Z1.852 F180
G1 X41.24 Y121.991 Z1.85 F180
G1 X41.195 Y122.023 Z1.848 F180
G1 X41.146 Y122.048 Z1.846 F180
G1 X41.094 Y122.065 Z1.844 F180
G1 X41.04 Y122.075 Z1.842 F180
G1 X40.985 Y122.077 Z1.841 F180
G1 X40.931 Y122.071 Z1.839 F180
G1 X40.878 Y122.057 Z1.837 F180
G1 X40.827 Y122.035 Z1.835 F180
G1 X40.78 Y122.007 Z1.833 F180
G1 X40.738 Y121.972 Z1.831 F180
G1 X40.702 Y121.931 Z1.829 F180
G1 X40.671 Y121.885 Z1.827 F180
G1 X40.648 Y121.835 Z1.825 F180
G1 X40.632 Y121.783 Z1.823 F180
G1 X40.624 Y121.729 Z1.821 F180
G1 Y121.674 Z1.819 F180
G1 X40.632 Y121.62 Z1.818 F180
G1 X40.647 Y121.567 Z1.816 F180
G1 X40.67 Y121.517 Z1.814 F180
G1 X40.7 Y121.471 Z1.812 F180
G1 X40.737 Y121.43 Z1.81 F180
G1 X40.779 Y121.395 Z1.808 F180
G1 X40.825 Y121.366 Z1.806 F180
G1 X40.876 Y121.344 Z1.804 F180
G1 X40.929 Y121.33 Z1.802 F180
G1 X40.983 Y121.324 Z1.8 F180
G1 X41.038 Y121.325 Z1.798 F180
G1 X41.092 Y121.335 Z1.796 F180
G1 X41.144 Y121.352 Z1.795 F180
G1 X41.193 Y121.376 Z1.793 F180
G1 X41.238 Y121.408 Z1.791 F180
G1 X41.278 Y121.445 Z1.789 F180
G1 X41.312 Y121.488 Z1.787 F180
G1 X41.339 Y121.536 Z1.785 F180
G1 X41.36 Y121.587 Z1.783 F180
G1 X41.372 Y121.64 Z1.781 F180
G1 X41.377 Y121.695 Z1.779 F180
G1 X41.374 Y121.75 Z1.777 F180
G1 X41.363 Y121.803 Z1.775 F180
G1 X41.344 Y121.855 Z1.773 F180
G1 X41.318 Y121.903 Z1.772 F180
G1 X41.285 Y121.947 Z1.77 F180
G1 X41.246 Y121.986 Z1.768 F180
G1 X41.202 Y122.018 Z1.766 F180
G1 X41.154 Y122.044 Z1.764 F180
G1 X41.102 Y122.063 Z1.762 F180
G1 X41.048 Y122.074 Z1.76 F180
G1 X40.994 Y122.077 Z1.758 F180
G1 X40.939 Y122.072 Z1.756 F180
G1 X40.886 Y122.059 Z1.754 F180
G1 X40.835 Y122.039 Z1.752 F180
G1 X40.787 Y122.012 Z1.75 F180
G1 X40.744 Y121.977 Z1.749 F180
G1 X40.707 Y121.937 Z1.747 F180
G1 X40.676 Y121.892 Z1.745 F180
G1 X40.651 Y121.843 Z1.743 F180
G1 X40.634 Y121.791 Z1.741 F180
G1 X40.625 Y121.737 Z1.739 F180
G1 X40.623 Y121.682 Z1.737 F180
G1 X40.63 Y121.628 Z1.735 F180
G1 X40.644 Y121.575 Z1.733 F180
G1 X40.666 Y121.525 Z1.731 F180
G1 X40.695 Y121.478 Z1.729 F180
G1 X40.731 Y121.436 Z1.727 F180
G1 X40.772 Y121.4 Z1.726 F180
G1 X40.818 Y121.37 Z1.724 F180
G1 X40.868 Y121.347 Z1.722 F180
G1 X40.92 Y121.332 Z1.72 F180
G1 X40.975 Y121.324 Z1.718 F180
G1 X41.029 Z1.716 F180
G1 X41.084 Y121.333 Z1.714 F180
G1 X41.136 Y121.349 Z1.712 F180
G1 X41.186 Y121.372 Z1.71 F180
G1 X41.231 Y121.402 Z1.708 F180
G1 X41.272 Y121.439 Z1.706 F180
G1 X41.307 Y121.481 Z1.704 F180
G1 X41.336 Y121.528 Z1.703 F180
G1 X41.357 Y121.579 Z1.701 F180
G1 X41.371 Y121.632 Z1.699 F180
G1 X41.377 Y121.686 Z1.697 F180
G1 X41.375 Y121.741 Z1.695 F180
G1 X41.365 Y121.795 Z1.693 F180
G1 X41.347 Y121.847 Z1.691 F180
G1 X41.322 Y121.896 Z1.689 F180
G1 X41.29 Y121.941 Z1.687 F180
G1 X41.252 Y121.98 Z1.685 F180
G1 X41.209 Y122.014 Z1.683 F180
G1 X41.161 Y122.041 Z1.681 F180
G1 X41.11 Y122.061 Z1.68 F180
G1 X41.057 Y122.073 Z1.678 F180
G1 X41.002 Y122.077 Z1.676 F180
G1 X40.947 Y122.074 Z1.674 F180
G1 X40.894 Y122.062 Z1.672 F180
G1 X40.842 Y122.043 Z1.67 F180
G1 X40.794 Y122.016 Z1.668 F180
G1 X40.751 Y121.983 Z1.666 F180
G1 X40.712 Y121.944 Z1.664 F180
G1 X40.68 Y121.9 Z1.662 F180
G1 X40.654 Y121.851 Z1.66 F180
G1 X40.636 Y121.799 Z1.658 F180
G1 X40.626 Y121.745 Z1.657 F180
G1 X40.623 Y121.691 Z1.655 F180
G1 X40.628 Y121.636 Z1.653 F180
G1 X40.642 Y121.583 Z1.651 F180
G1 X40.662 Y121.532 Z1.649 F180
G1 X40.69 Y121.485 Z1.647 F180
G1 X40.725 Y121.442 Z1.645 F180
G1 X40.765 Y121.405 Z1.643 F180
G1 X40.811 Y121.374 Z1.641 F180
G1 X40.86 Y121.35 Z1.639 F180
G1 X40.912 Y121.334 Z1.637 F180
G1 X40.966 Y121.325 Z1.635 F180
G1 X41.021 Y121.324 Z1.634 F180
G1 X41.075 Y121.331 Z1.632 F180
G1 X41.128 Y121.346 Z1.63 F180
G1 X41.178 Y121.368 Z1.628 F180
G1 X41.225 Y121.397 Z1.626 F180
G1 X41.266 Y121.433 Z1.624 F180
G1 X41.302 Y121.475 Z1.622 F180
G1 X41.332 Y121.521 Z1.62 F180
G1 X41.354 Y121.571 Z1.618 F180
G1 X41.369 Y121.624 Z1.616 F180
G1 X41.376 Y121.678 Z1.614 F180
G1 Y121.733 Z1.612 F180
G1 X41.367 Y121.787 Z1.611 F180
G1 X41.35 Y121.839 Z1.609 F180
G1 X41.327 Y121.889 Z1.607 F180
G1 X41.296 Y121.934 Z1.605 F180
G1 X41.259 Y121.974 Z1.603 F180
G1 X41.216 Y122.009 Z1.601 F180
G1 X41.169 Y122.037 Z1.599 F180
G1 X41.118 Y122.058 Z1.597 F180
G1 X41.065 Y122.072 Z1.595 F180
G1 X41.011 Y122.077 Z1.593 F180
G1 X40.956 Y122.075 Z1.591 F180
G1 X40.902 Y122.064 Z1.589 F180
G1 X40.85 Y122.046 Z1.588 F180
G1 X40.802 Y122.021 Z1.586 F180
G1 X40.757 Y121.989 Z1.584 F180
G1 X40.718 Y121.95 Z1.582 F180
G1 X40.685 Y121.907 Z1.58 F180
G1 X40.658 Y121.859 Z1.578 F180
G1 X40.639 Y121.807 Z1.576 F180
G1 X40.627 Y121.754 Z1.574 F180
G1 X40.623 Y121.699 Z1.572 F180
G1 X40.627 Y121.644 Z1.57 F180
G1 X40.639 Y121.591 Z1.568 F180
G1 X40.659 Y121.54 Z1.566 F180
G1 X40.686 Y121.492 Z1.565 F180
G1 X40.719 Y121.449 Z1.563 F180
G1 X40.759 Y121.41 Z1.561 F180
G1 X40.803 Y121.379 Z1.559 F180
G1 X40.852 Y121.353 Z1.557 F180
G1 X40.904 Y121.336 Z1.555 F180
G1 X40.958 Y121.325 Z1.553 F180
G1 X41.013 Y121.323 Z1.551 F180
G1 X41.067 Y121.329 Z1.549 F180
G1 X41.12 Y121.343 Z1.547 F180
G1 X41.171 Y121.364 Z1.545 F180
G1 X41.218 Y121.392 Z1.543 F180
G1 X41.26 Y121.427 Z1.542 F180
G1 X41.297 Y121.468 Z1.54 F180
G1 X41.328 Y121.513 Z1.538 F180
G1 X41.351 Y121.563 Z1.536 F180
G1 X41.367 Y121.615 Z1.534 F180
G1 X41.376 Y121.67 Z1.532 F180
G1 Y121.724 Z1.53 F180
G1 X41.369 Y121.779 Z1.528 F180
G1 X41.353 Y121.831 Z1.526 F180
G1 X41.331 Y121.881 Z1.524 F180
G1 X41.301 Y121.927 Z1.522 F180
G1 X41.265 Y121.969 Z1.52 F180
G1 X41.223 Y122.004 Z1.518 F180
G1 X41.177 Y122.033 Z1.517 F180
G1 X41.126 Y122.055 Z1.515 F180
G1 X41.073 Y122.07 Z1.513 F180
G1 X41.019 Y122.077 Z1.511 F180
G1 X40.964 Y122.075 Z1.509 F180
G1 X40.91 Y122.066 Z1.507 F180
G1 X40.858 Y122.049 Z1.505 F180
G1 X40.809 Y122.025 Z1.503 F180
G1 X40.764 Y121.994 Z1.501 F180
G1 X40.724 Y121.957 Z1.499 F180
G1 X40.689 Y121.914 Z1.497 F180
G1 X40.662 Y121.866 Z1.495 F180
G1 X40.641 Y121.816 Z1.494 F180
G1 X40.628 Y121.762 Z1.492 F180
G1 X40.623 Y121.708 Z1.49 F180
G1 X40.626 Y121.653 Z1.488 F180
G1 X40.637 Y121.599 Z1.486 F180
G1 X40.655 Y121.547 Z1.484 F180
G1 X40.681 Y121.499 Z1.482 F180
G1 X40.714 Y121.455 Z1.48 F180
G1 X40.752 Y121.416 Z1.478 F180
G1 X40.796 Y121.383 Z1.476 F180
G1 X40.844 Y121.357 Z1.474 F180
G1 X40.896 Y121.338 Z1.472 F180
G1 X40.949 Y121.327 Z1.471 F180
G1 X41.004 Y121.323 Z1.469 F180
G1 X41.059 Y121.328 Z1.467 F180
G1 X41.112 Y121.34 Z1.465 F180
G1 X41.163 Y121.36 Z1.463 F180
G1 X41.211 Y121.388 Z1.461 F180
G1 X41.254 Y121.421 Z1.459 F180
G1 X41.292 Y121.461 Z1.457 F180
G1 X41.323 Y121.506 Z1.455 F180
G1 X41.348 Y121.555 Z1.453 F180
G1 X41.365 Y121.607 Z1.451 F180
G1 X41.375 Y121.661 Z1.449 F180
G1 X41.377 Y121.716 Z1.448 F180
G1 X41.37 Y121.77 Z1.446 F180
G1 X41.356 Y121.823 Z1.444 F180
G1 X41.335 Y121.874 Z1.442 F180
G1 X41.306 Y121.921 Z1.44 F180
G1 X41.271 Y121.963 Z1.438 F180
G1 X41.23 Y121.999 Z1.436 F180
G1 X41.184 Y122.029 Z1.434 F180
G1 X41.134 Y122.052 Z1.432 F180
G1 X41.082 Y122.068 Z1.43 F180
G1 X41.027 Y122.076 Z1.428 F180
G1 X40.973 Z1.426 F180
G1 X40.918 Y122.068 Z1.425 F180
G1 X40.866 Y122.052 Z1.423 F180
G1 X40.816 Y122.029 Z1.421 F180
G1 X40.77 Y121.999 Z1.419 F180
G1 X40.729 Y121.963 Z1.417 F180
G1 X40.694 Y121.921 Z1.415 F180
G1 X40.665 Y121.874 Z1.413 F180
G1 X40.644 Y121.824 Z1.411 F180
G1 X40.63 Y121.771 Z1.409 F180
G1 X40.623 Y121.716 Z1.407 F180
G1 X40.625 Y121.661 Z1.405 F180
G1 X40.635 Y121.607 Z1.403 F180
G1 X40.652 Y121.555 Z1.402 F180
G1 X40.677 Y121.506 Z1.4 F180
G1 X40.708 Y121.461 Z1.398 F180
G1 X40.746 Y121.422 Z1.396 F180
G1 X40.789 Y121.388 Z1.394 F180
G1 X40.837 Y121.36 Z1.392 F180
G1 X40.888 Y121.34 Z1.39 F180
G1 X40.941 Y121.328 Z1.388 F180
G1 X40.996 Y121.323 Z1.386 F180
G1 X41.05 Y121.327 Z1.384 F180
G1 X41.104 Y121.338 Z1.382 F180
G1 X41.156 Y121.357 Z1.38 F180
G1 X41.204 Y121.383 Z1.379 F180
G1 X41.248 Y121.416 Z1.377 F180
G1 X41.286 Y121.455 Z1.375 F180
G1 X41.319 Y121.499 Z1.373 F180
G1 X41.345 Y121.547 Z1.371 F180
G1 X41.363 Y121.599 Z1.369 F180
G1 X41.374 Y121.653 Z1.367 F180
G1 X41.377 Y121.708 Z1.365 F180
G1 X41.372 Y121.762 Z1.363 F180
G1 X41.359 Y121.815 Z1.361 F180
G1 X41.338 Y121.866 Z1.359 F180
G1 X41.311 Y121.914 Z1.357 F180
G1 X41.277 Y121.956 Z1.356 F180
G1 X41.236 Y121.994 Z1.354 F180
G1 X41.191 Y122.025 Z1.352 F180
G1 X41.142 Y122.049 Z1.35 F180
G1 X41.09 Y122.066 Z1.348 F180
G1 X41.036 Y122.075 Z1.346 F180
G1 X40.981 Y122.077 Z1.344 F180
G1 X40.927 Y122.07 Z1.342 F180
G1 X40.874 Y122.055 Z1.34 F180
G1 X40.824 Y122.033 Z1.338 F180
G1 X40.777 Y122.004 Z1.336 F180
G1 X40.735 Y121.969 Z1.334 F180
G1 X40.699 Y121.927 Z1.333 F180
G1 X40.669 Y121.881 Z1.331 F180
G1 X40.647 Y121.831 Z1.329 F180
G1 X40.631 Y121.779 Z1.327 F180
G1 X40.624 Y121.724 Z1.325 F180
G1 Y121.67 Z1.323 F180
G1 X40.633 Y121.615 Z1.321 F180
G1 X40.649 Y121.563 Z1.319 F180
G1 X40.672 Y121.514 Z1.317 F180
G1 X40.703 Y121.468 Z1.315 F180
G1 X40.74 Y121.427 Z1.313 F180
G1 X40.782 Y121.392 Z1.311 F180
G1 X40.829 Y121.364 Z1.31 F180
G1 X40.88 Y121.343 Z1.308 F180
G1 X40.933 Y121.329 Z1.306 F180
G1 X40.987 Y121.323 Z1.304 F180
G1 X41.042 Y121.325 Z1.302 F180
G1 X41.096 Y121.336 Z1.3 F180
G1 X41.148 Y121.353 Z1.298 F180
G1 X41.197 Y121.378 Z1.296 F180
G1 X41.241 Y121.41 Z1.294 F180
G1 X41.281 Y121.448 Z1.292 F180
G1 X41.314 Y121.492 Z1.29 F180
G1 X41.341 Y121.54 Z1.288 F180
G1 X41.361 Y121.591 Z1.287 F180
G1 X41.373 Y121.644 Z1.285 F180
G1 X41.377 Y121.699 Z1.283 F180
G1 X41.373 Y121.754 Z1.281 F180
G1 X41.361 Y121.807 Z1.279 F180
G1 X41.342 Y121.859 Z1.277 F180
G1 X41.315 Y121.907 Z1.275 F180
G1 X41.282 Y121.95 Z1.273 F180
G1 X41.243 Y121.988 Z1.271 F180
G1 X41.199 Y122.021 Z1.269 F180
G1 X41.15 Y122.046 Z1.267 F180
G1 X41.098 Y122.064 Z1.265 F180
G1 X41.044 Y122.075 Z1.264 F180
G1 X40.989 Y122.077 Z1.262 F180
G1 X40.935 Y122.072 Z1.26 F180
G1 X40.882 Y122.058 Z1.258 F180
G1 X40.831 Y122.037 Z1.256 F180
G1 X40.784 Y122.009 Z1.254 F180
G1 X40.741 Y121.975 Z1.252 F180
G1 X40.704 Y121.934 Z1.25 F180
G1 X40.674 Y121.889 Z1.248 F180
G1 X40.65 Y121.839 Z1.246 F180
G1 X40.633 Y121.787 Z1.244 F180
G1 X40.624 Y121.733 Z1.242 F180
G1 Y121.678 Z1.241 F180
G1 X40.631 Y121.624 Z1.239 F180
G1 X40.646 Y121.571 Z1.237 F180
G1 X40.668 Y121.521 Z1.235 F180
G1 X40.698 Y121.475 Z1.233 F180
G1 X40.734 Y121.433 Z1.231 F180
G1 X40.775 Y121.397 Z1.229 F180
G1 X40.822 Y121.368 Z1.227 F180
G1 X40.872 Y121.346 Z1.225 F180
G1 X40.924 Y121.331 Z1.223 F180
G1 X40.979 Y121.324 Z1.221 F180
G1 X41.034 Y121.325 Z1.219 F180
G1 X41.088 Y121.333 Z1.218 F180
G1 X41.14 Y121.35 Z1.216 F180
G1 X41.189 Y121.374 Z1.214 F180
G1 X41.235 Y121.405 Z1.212 F180
G1 X41.275 Y121.442 Z1.21 F180
G1 X41.31 Y121.485 Z1.208 F180
G1 X41.337 Y121.532 Z1.206 F180
G1 X41.358 Y121.583 Z1.204 F180
G1 X41.372 Y121.636 Z1.202 F180
G1 X41.377 Y121.691 Z1.2 F180
G1 X41.374 Y121.745 Z1.198 F180
G1 X41.364 Y121.799 Z1.196 F180
G1 X41.346 Y121.851 Z1.195 F180
G1 X41.32 Y121.899 Z1.193 F180
G1 X41.288 Y121.944 Z1.191 F180
G1 X41.249 Y121.983 Z1.189 F180
G1 X41.206 Y122.016 Z1.187 F180
G1 X41.158 Y122.043 Z1.185 F180
G1 X41.106 Y122.062 Z1.183 F180
G1 X41.053 Y122.073 Z1.181 F180
G1 X40.998 Y122.077 Z1.179 F180
G1 X40.943 Y122.073 Z1.177 F180
G1 X40.89 Y122.061 Z1.175 F180
G1 X40.839 Y122.041 Z1.173 F180
G1 X40.791 Y122.014 Z1.172 F180
G1 X40.748 Y121.98 Z1.17 F180
G1 X40.71 Y121.941 Z1.168 F180
G1 X40.678 Y121.896 Z1.166 F180
G1 X40.653 Y121.847 Z1.164 F180
G1 X40.635 Y121.795 Z1.162 F180
G1 X40.625 Y121.741 Z1.16 F180
G1 X40.623 Y121.686 Z1.158 F180
G1 X40.629 Y121.632 Z1.156 F180
G1 X40.643 Y121.579 Z1.154 F180
G1 X40.664 Y121.528 Z1.152 F180
G1 X40.693 Y121.481 Z1.15 F180
G1 X40.728 Y121.439 Z1.149 F180
G1 X40.769 Y121.403 Z1.147 F180
G1 X40.814 Y121.372 Z1.145 F180
G1 X40.864 Y121.349 Z1.143 F180
G1 X40.916 Y121.333 Z1.141 F180
G1 X40.97 Y121.324 Z1.139 F180
G1 X41.025 Z1.137 F180
G1 X41.08 Y121.332 Z1.135 F180
G1 X41.132 Y121.347 Z1.133 F180
G1 X41.182 Y121.37 Z1.131 F180
G1 X41.228 Y121.4 Z1.129 F180
G1 X41.269 Y121.436 Z1.127 F180
G1 X41.305 Y121.478 Z1.126 F180
G1 X41.334 Y121.525 Z1.124 F180
G1 X41.356 Y121.575 Z1.122 F180
G1 X41.37 Y121.628 Z1.12 F180
G1 X41.377 Y121.682 Z1.118 F180
G1 X41.375 Y121.737 Z1.116 F180
G1 X41.366 Y121.791 Z1.114 F180
G1 X41.349 Y121.843 Z1.112 F180
G1 X41.324 Y121.892 Z1.11 F180
G1 X41.293 Y121.937 Z1.108 F180
G1 X41.256 Y121.977 Z1.106 F180
G1 X41.213 Y122.011 Z1.104 F180
G1 X41.165 Y122.039 Z1.103 F180
G1 X41.114 Y122.059 Z1.101 F180
G1 X41.061 Y122.072 Z1.099 F180
G1 X41.006 Y122.077 Z1.097 F180
G1 X40.952 Y122.074 Z1.095 F180
G1 X40.898 Y122.063 Z1.093 F180
G1 X40.846 Y122.044 Z1.091 F180
G1 X40.798 Y122.018 Z1.089 F180
G1 X40.754 Y121.986 Z1.087 F180
G1 X40.715 Y121.947 Z1.085 F180
G1 X40.682 Y121.903 Z1.083 F180
G1 X40.656 Y121.855 Z1.081 F180
G1 X40.637 Y121.803 Z1.08 F180
G1 X40.626 Y121.75 Z1.078 F180
G1 X40.623 Y121.695 Z1.076 F180
G1 X40.628 Y121.64 Z1.074 F180
G1 X40.64 Y121.587 Z1.072 F180
G1 X40.661 Y121.536 Z1.07 F180
G1 X40.688 Y121.488 Z1.068 F180
G1 X40.722 Y121.445 Z1.066 F180
G1 X40.762 Y121.408 Z1.064 F180
G1 X40.807 Y121.376 Z1.062 F180
G1 X40.856 Y121.352 Z1.06 F180
G1 X40.908 Y121.335 Z1.058 F180
G1 X40.962 Y121.325 Z1.057 F180
G1 X41.017 Y121.324 Z1.055 F180
G1 X41.071 Y121.33 Z1.053 F180
G1 X41.124 Y121.344 Z1.051 F180
G1 X41.175 Y121.366 Z1.049 F180
G1 X41.221 Y121.395 Z1.047 F180
G1 X41.263 Y121.43 Z1.045 F180
G1 X41.3 Y121.471 Z1.043 F180
G1 X41.33 Y121.517 Z1.041 F180
G1 X41.353 Y121.567 Z1.039 F180
G1 X41.368 Y121.619 Z1.037 F180
G1 X41.376 Y121.674 Z1.035 F180
G1 Y121.729 Z1.033 F180
G1 X41.368 Y121.783 Z1.032 F180
G1 X41.352 Y121.835 Z1.03 F180
G1 X41.329 Y121.885 Z1.028 F180
G1 X41.298 Y121.931 Z1.026 F180
G1 X41.262 Y121.972 Z1.024 F180
G1 X41.22 Y122.007 Z1.022 F180
G1 X41.173 Y122.035 Z1.02 F180
G1 X41.122 Y122.057 Z1.018 F180
G1 X41.069 Y122.071 Z1.016 F180
G1 X41.015 Y122.077 Z1.014 F180
G1 X40.96 Y122.075 Z1.012 F180
G1 X40.906 Y122.065 Z1.01 F180
G1 X40.854 Y122.048 Z1.009 F180
G1 X40.805 Y122.023 Z1.007 F180
G1 X40.76 Y121.991 Z1.005 F180
G1 X40.721 Y121.953 Z1.003 F180
G1 X40.687 Y121.91 Z1.001 F180
G1 X40.66 Y121.863 Z0.999 F180
G1 X40.64 Y121.811 Z0.997 F180
G1 X40.627 Y121.758 Z0.995 F180
G1 X40.623 Y121.703 Z0.993 F180
G1 X40.627 Y121.649 Z0.991 F180
G1 X40.638 Y121.595 Z0.989 F180
G1 X40.657 Y121.544 Z0.987 F180
G1 X40.683 Y121.495 Z0.986 F180
G1 X40.716 Y121.452 Z0.984 F180
G1 X40.755 Y121.413 Z0.982 F180
G1 X40.8 Y121.381 Z0.98 F180
G1 X40.848 Y121.355 Z0.978 F180
G1 X40.9 Y121.337 Z0.976 F180
G1 X40.954 Y121.326 Z0.974 F180
G1 X41.008 Y121.323 Z0.972 F180
G1 X41.063 Y121.328 Z0.97 F180
G1 X41.116 Y121.342 Z0.968 F180
G1 X41.167 Y121.362 Z0.966 F180
G1 X41.214 Y121.39 Z0.964 F180
G1 X41.257 Y121.424 Z0.963 F180
G1 X41.294 Y121.465 Z0.961 F180
G1 X41.325 Y121.51 Z0.959 F180
G1 X41.35 Y121.559 Z0.957 F180
G1 X41.366 Y121.611 Z0.955 F180
G1 X41.375 Y121.665 Z0.953 F180
G1 X41.376 Y121.72 Z0.951 F180
G1 X41.37 Y121.775 Z0.949 F180
G1 X41.355 Y121.827 Z0.947 F180
G1 X41.333 Y121.878 Z0.945 F180
G1 X41.303 Y121.924 Z0.943 F180
G1 X41.268 Y121.966 Z0.941 F180
G1 X41.226 Y122.002 Z0.94 F180
G1 X41.18 Y122.031 Z0.938 F180
G1 X41.13 Y122.054 Z0.936 F180
G1 X41.078 Y122.069 Z0.934 F180
G1 X41.023 Y122.076 Z0.932 F180
G1 X40.968 Z0.93 F180
G1 X40.914 Y122.067 Z0.928 F180
G1 X40.862 Y122.051 Z0.926 F180
G1 X40.812 Y122.027 Z0.924 F180
G1 X40.767 Y121.997 Z0.922 F180
G1 X40.726 Y121.96 Z0.92 F180
G1 X40.692 Y121.917 Z0.918 F180
G1 X40.663 Y121.87 Z0.917 F180
G1 X40.642 Y121.82 Z0.915 F180
G1 X40.629 Y121.766 Z0.913 F180
G1 X40.623 Y121.712 Z0.911 F180
G1 X40.625 Y121.657 Z0.909 F180
G1 X40.636 Y121.603 Z0.907 F180
G1 X40.654 Y121.551 Z0.905 F180
G1 X40.679 Y121.503 Z0.903 F180
G1 X40.711 Y121.458 Z0.901 F180
G1 X40.749 Y121.419 Z0.899 F180
G1 X40.793 Y121.385 Z0.897 F180
G1 X40.84 Y121.359 Z0.895 F180
G1 X40.892 Y121.339 Z0.894 F180
G1 X40.945 Y121.327 Z0.892 F180
G1 X41 Y121.323 Z0.89 F180
G1 X41.055 Y121.327 Z0.888 F180
G1 X41.108 Y121.339 Z0.886 F180
G1 X41.159 Y121.359 Z0.884 F180
G1 X41.207 Y121.385 Z0.882 F180
G1 X41.251 Y121.419 Z0.88 F180
G1 X41.289 Y121.458 Z0.878 F180
G1 X41.321 Y121.503 Z0.876 F180
G1 X41.346 Y121.551 Z0.874 F180
G1 X41.364 Y121.603 Z0.872 F180
G1 X41.375 Y121.657 Z0.871 F180
G1 X41.377 Y121.712 Z0.869 F180
G1 X41.371 Y121.766 Z0.867 F180
G1 X41.358 Y121.819 Z0.865 F180
G1 X41.337 Y121.87 Z0.863 F180
G1 X41.308 Y121.917 Z0.861 F180
G1 X41.274 Y121.96 Z0.859 F180
G1 X41.233 Y121.997 Z0.857 F180
G1 X41.188 Y122.027 Z0.855 F180
G1 X41.138 Y122.051 Z0.853 F180
G1 X41.086 Y122.067 Z0.851 F180
G1 X41.032 Y122.076 Z0.849 F180
G1 X40.977 Z0.848 F180
G1 X40.922 Y122.069 Z0.846 F180
G1 X40.87 Y122.054 Z0.844 F180
G1 X40.82 Y122.031 Z0.842 F180
G1 X40.774 Y122.002 Z0.84 F180
G1 X40.732 Y121.966 Z0.838 F180
G1 X40.697 Y121.924 Z0.836 F180
G1 X40.667 Y121.878 Z0.834 F180
G1 X40.645 Y121.827 Z0.832 F180
G1 X40.63 Y121.775 Z0.83 F180
G1 X40.624 Y121.72 Z0.828 F180
G1 X40.625 Y121.665 Z0.826 F180
G1 X40.634 Y121.611 Z0.825 F180
G1 X40.65 Y121.559 Z0.823 F180
G1 X40.675 Y121.51 Z0.821 F180
G1 X40.706 Y121.465 Z0.819 F180
G1 X40.743 Y121.424 Z0.817 F180
G1 X40.786 Y121.39 Z0.815 F180
G1 X40.833 Y121.362 Z0.813 F180
G1 X40.884 Y121.342 Z0.811 F180
G1 X40.937 Y121.328 Z0.809 F180
G1 X40.992 Y121.323 Z0.807 F180
G1 X41.046 Y121.326 Z0.805 F180
G1 X41.1 Y121.337 Z0.803 F180
G1 X41.152 Y121.355 Z0.802 F180
G1 X41.2 Y121.381 Z0.8 F180
G1 X41.244 Y121.413 Z0.798 F180
G1 X41.284 Y121.452 Z0.796 F180
G1 X41.317 Y121.495 Z0.794 F180
G1 X41.343 Y121.544 Z0.792 F180
G1 X41.362 Y121.595 Z0.79 F180
G1 X41.373 Y121.649 Z0.788 F180
G1 X41.377 Y121.703 Z0.786 F180
G1 X41.373 Y121.758 Z0.784 F180
G1 X41.36 Y121.811 Z0.782 F180
G1 X41.34 Y121.862 Z0.78 F180
G1 X41.313 Y121.91 Z0.779 F180
G1 X41.279 Y121.953 Z0.777 F180
G1 X41.24 Y121.991 Z0.775 F180
G1 X41.195 Y122.023 Z0.773 F180
G1 X41.146 Y122.048 Z0.771 F180
G1 X41.094 Y122.065 Z0.769 F180
G1 X41.04 Y122.075 Z0.767 F180
G1 X40.985 Y122.077 Z0.765 F180
G1 X40.931 Y122.071 Z0.763 F180
G1 X40.878 Y122.057 Z0.761 F180
G1 X40.827 Y122.035 Z0.759 F180
G1 X40.78 Y122.007 Z0.757 F180
G1 X40.738 Y121.972 Z0.756 F180
G1 X40.702 Y121.931 Z0.754 F180
G1 X40.671 Y121.885 Z0.752 F180
G1 X40.648 Y121.835 Z0.75 F180
G1 X40.632 Y121.783 Z0.748 F180
G1 X40.624 Y121.729 Z0.746 F180
G1 Y121.674 Z0.744 F180
G1 X40.632 Y121.62 Z0.742 F180
G1 X40.647 Y121.567 Z0.74 F180
G1 X40.67 Y121.517 Z0.738 F180
G1 X40.7 Y121.471 Z0.736 F180
G1 X40.737 Y121.43 Z0.734 F180
G1 X40.779 Y121.395 Z0.733 F180
G1 X40.825 Y121.366 Z0.731 F180
G1 X40.876 Y121.344 Z0.729 F180
G1 X40.929 Y121.33 Z0.727 F180
G1 X40.983 Y121.324 Z0.725 F180
G1 X41.038 Y121.325 Z0.723 F180
G1 X41.092 Y121.335 Z0.721 F180
G1 X41.144 Y121.352 Z0.719 F180
G1 X41.193 Y121.376 Z0.717 F180
G1 X41.238 Y121.408 Z0.715 F180
G1 X41.278 Y121.445 Z0.713 F180
G1 X41.312 Y121.488 Z0.711 F180
G1 X41.339 Y121.536 Z0.71 F180
G1 X41.36 Y121.587 Z0.708 F180
G1 X41.372 Y121.64 Z0.706 F180
G1 X41.377 Y121.695 Z0.704 F180
G1 X41.374 Y121.75 Z0.702 F180
G1 X41.363 Y121.803 Z0.7 F180
G1 X41.344 Y121.855 Z0.698 F180
G1 X41.318 Y121.903 Z0.696 F180
G1 X41.285 Y121.947 Z0.694 F180
G1 X41.246 Y121.986 Z0.692 F180
G1 X41.202 Y122.018 Z0.69 F180
G1 X41.154 Y122.044 Z0.688 F180
G1 X41.102 Y122.063 Z0.687 F180
G1 X41.048 Y122.074 Z0.685 F180
G1 X40.994 Y122.077 Z0.683 F180
G1 X40.939 Y122.072 Z0.681 F180
G1 X40.886 Y122.059 Z0.679 F180
G1 X40.835 Y122.039 Z0.677 F180
G1 X40.787 Y122.012 Z0.675 F180
G1 X40.744 Y121.977 Z0.673 F180
G1 X40.707 Y121.937 Z0.671 F180
G1 X40.676 Y121.892 Z0.669 F180
G1 X40.651 Y121.843 Z0.667 F180
G1 X40.634 Y121.791 Z0.665 F180
G1 X40.625 Y121.737 Z0.664 F180
G1 X40.623 Y121.682 Z0.662 F180
G1 X40.63 Y121.628 Z0.66 F180
G1 X40.644 Y121.575 Z0.658 F180
G1 X40.666 Y121.525 Z0.656 F180
G1 X40.695 Y121.478 Z0.654 F180
G1 X40.731 Y121.436 Z0.652 F180
G1 X40.772 Y121.4 Z0.65 F180
G1 X40.818 Y121.37 Z0.648 F180
G1 X40.868 Y121.347 Z0.646 F180
G1 X40.92 Y121.332 Z0.644 F180
G1 X40.975 Y121.324 Z0.642 F180
G1 X41.03 Z0.641 F180
G1 X41.084 Y121.333 Z0.639 F180
G1 X41.136 Y121.349 Z0.637 F180
G1 X41.186 Y121.372 Z0.635 F180
G1 X41.231 Y121.402 Z0.633 F180
G1 X41.272 Y121.439 Z0.631 F180
G1 X41.307 Y121.481 Z0.629 F180
G1 X41.336 Y121.528 Z0.627 F180
G1 X41.357 Y121.579 Z0.625 F180
G1 X41.371 Y121.632 Z0.623 F180
G1 X41.377 Y121.686 Z0.621 F180
G1 X41.375 Y121.741 Z0.619 F180
G1 X41.365 Y121.795 Z0.618 F180
G1 X41.347 Y121.847 Z0.616 F180
G1 X41.322 Y121.896 Z0.614 F180
G1 X41.29 Y121.941 Z0.612 F180
G1 X41.252 Y121.98 Z0.61 F180
G1 X41.209 Y122.014 Z0.608 F180
G1 X41.161 Y122.041 Z0.606 F180
G1 X41.11 Y122.061 Z0.604 F180
G1 X41.057 Y122.073 Z0.602 F180
G1 X41.002 Y122.077 Z0.6 F180
G1 X40.947 Y122.074 Z0.598 F180
G1 X40.894 Y122.062 Z0.596 F180
G1 X40.842 Y122.043 Z0.595 F180
G1 X40.794 Y122.016 Z0.593 F180
G1 X40.751 Y121.983 Z0.591 F180
G1 X40.712 Y121.944 Z0.589 F180
G1 X40.68 Y121.9 Z0.587 F180
G1 X40.654 Y121.851 Z0.585 F180
G1 X40.636 Y121.799 Z0.583 F180
G1 X40.626 Y121.745 Z0.581 F180
G1 X40.623 Y121.691 Z0.579 F180
G1 X40.628 Y121.636 Z0.577 F180
G1 X40.642 Y121.583 Z0.575 F180
G1 X40.662 Y121.532 Z0.573 F180
G1 X40.69 Y121.485 Z0.571 F180
G1 X40.725 Y121.442 Z0.57 F180
G1 X40.765 Y121.405 Z0.568 F180
G1 X40.811 Y121.374 Z0.566 F180
G1 X40.86 Y121.35 Z0.564 F180
G1 X40.912 Y121.334 Z0.562 F180
G1 X40.966 Y121.325 Z0.56 F180
G1 X41.021 Y121.324 Z0.558 F180
G1 X41.075 Y121.331 Z0.556 F180
G1 X41.128 Y121.346 Z0.554 F180
G1 X41.178 Y121.368 Z0.552 F180
G1 X41.225 Y121.397 Z0.55 F180
G1 X41.266 Y121.433 Z0.548 F180
G1 X41.302 Y121.475 Z0.547 F180
G1 X41.332 Y121.521 Z0.545 F180
G1 X41.354 Y121.571 Z0.543 F180
G1 X41.369 Y121.624 Z0.541 F180
G1 X41.376 Y121.678 Z0.539 F180
G1 Y121.733 Z0.537 F180
G1 X41.367 Y121.787 Z0.535 F180
G1 X41.35 Y121.839 Z0.533 F180
G1 X41.327 Y121.889 Z0.531 F180
G1 X41.296 Y121.934 Z0.529 F180
G1 X41.259 Y121.974 Z0.527 F180
G1 X41.216 Y122.009 Z0.525 F180
G1 X41.169 Y122.037 Z0.524 F180
G1 X41.118 Y122.058 Z0.522 F180
G1 X41.065 Y122.072 Z0.52 F180
G1 X41.011 Y122.077 Z0.518 F180
G1 X40.956 Y122.075 Z0.516 F180
G1 X40.902 Y122.064 Z0.514 F180
G1 X40.85 Y122.046 Z0.512 F180
G1 X40.802 Y122.021 Z0.51 F180
G1 X40.757 Y121.989 Z0.508 F180
G1 X40.718 Y121.95 Z0.506 F180
G1 X40.685 Y121.907 Z0.504 F180
G1 X40.658 Y121.859 Z0.502 F180
G1 X40.639 Y121.807 Z0.501 F180
G1 X40.627 Y121.754 Z0.499 F180
G1 X40.623 Y121.699 Z0.497 F180
G1 X40.627 Y121.644 Z0.495 F180
G1 X40.639 Y121.591 Z0.493 F180
G1 X40.659 Y121.54 Z0.491 F180
G1 X40.686 Y121.492 Z0.489 F180
G1 X40.719 Y121.449 Z0.487 F180
G1 X40.759 Y121.41 Z0.485 F180
G1 X40.803 Y121.379 Z0.483 F180
G1 X40.852 Y121.353 Z0.481 F180
G1 X40.904 Y121.336 Z0.479 F180
G1 X40.958 Y121.325 Z0.478 F180
G1 X41.013 Y121.323 Z0.476 F180
G1 X41.067 Y121.329 Z0.474 F180
G1 X41.12 Y121.343 Z0.472 F180
G1 X41.171 Y121.364 Z0.47 F180
G1 X41.218 Y121.392 Z0.468 F180
G1 X41.26 Y121.427 Z0.466 F180
G1 X41.297 Y121.468 Z0.464 F180
G1 X41.328 Y121.513 Z0.462 F180
G1 X41.351 Y121.563 Z0.46 F180
G1 X41.367 Y121.615 Z0.458 F180
G1 X41.376 Y121.67 Z0.456 F180
G1 Y121.724 Z0.455 F180
G1 X41.369 Y121.779 Z0.453 F180
G1 X41.353 Y121.831 Z0.451 F180
G1 X41.331 Y121.881 Z0.449 F180
G1 X41.301 Y121.927 Z0.447 F180
G1 X41.265 Y121.969 Z0.445 F180
G1 X41.223 Y122.004 Z0.443 F180
G1 X41.177 Y122.033 Z0.441 F180
G1 X41.126 Y122.055 Z0.439 F180
G1 X41.073 Y122.07 Z0.437 F180
G1 X41.019 Y122.077 Z0.435 F180
G1 X40.964 Y122.075 Z0.433 F180
G1 X40.91 Y122.066 Z0.432 F180
G1 X40.858 Y122.049 Z0.43 F180
G1 X40.809 Y122.025 Z0.428 F180
G1 X40.764 Y121.994 Z0.426 F180
G1 X40.724 Y121.957 Z0.424 F180
G1 X40.689 Y121.914 Z0.422 F180
G1 X40.662 Y121.866 Z0.42 F180
G1 X40.641 Y121.815 Z0.418 F180
G1 X40.628 Y121.762 Z0.416 F180
G1 X40.623 Y121.708 Z0.414 F180
G1 X40.626 Y121.653 Z0.412 F180
G1 X40.637 Y121.599 Z0.41 F180
G1 X40.655 Y121.547 Z0.409 F180
G1 X40.681 Y121.499 Z0.407 F180
G1 X40.714 Y121.455 Z0.405 F180
G1 X40.752 Y121.416 Z0.403 F180
G1 X40.796 Y121.383 Z0.401 F180
G1 X40.844 Y121.357 Z0.399 F180
G1 X40.896 Y121.338 Z0.397 F180
G1 X40.949 Y121.327 Z0.395 F180
G1 X41.004 Y121.323 Z0.393 F180
G1 X41.059 Y121.328 Z0.391 F180
G1 X41.112 Y121.34 Z0.389 F180
G1 X41.163 Y121.36 Z0.387 F180
G1 X41.211 Y121.388 Z0.386 F180
G1 X41.254 Y121.422 Z0.384 F180
G1 X41.292 Y121.461 Z0.382 F180
G1 X41.323 Y121.506 Z0.38 F180
G1 X41.348 Y121.555 Z0.378 F180
G1 X41.365 Y121.607 Z0.376 F180
G1 X41.375 Y121.661 Z0.374 F180
G1 X41.377 Y121.716 Z0.372 F180
G1 X41.37 Y121.77 Z0.37 F180
G1 X41.356 Y121.823 Z0.368 F180
G1 X41.335 Y121.874 Z0.366 F180
G1 X41.306 Y121.921 Z0.364 F180
G1 X41.271 Y121.963 Z0.363 F180
G1 X41.23 Y121.999 Z0.361 F180
G1 X41.184 Y122.029 Z0.359 F180
G1 X41.134 Y122.052 Z0.357 F180
G1 X41.082 Y122.068 Z0.355 F180
G1 X41.027 Y122.076 Z0.353 F180
G1 X40.973 Z0.351 F180
G1 X40.918 Y122.068 Z0.349 F180
G1 X40.866 Y122.052 Z0.347 F180
G1 X40.816 Y122.029 Z0.345 F180
G1 X40.77 Y121.999 Z0.343 F180
G1 X40.729 Y121.963 Z0.341 F180
G1 X40.694 Y121.921 Z0.34 F180
G1 X40.665 Y121.874 Z0.338 F180
G1 X40.644 Y121.823 Z0.336 F180
G1 X40.63 Y121.77 Z0.334 F180
G1 X40.623 Y121.716 Z0.332 F180
G1 X40.625 Y121.661 Z0.33 F180
G1 X40.635 Y121.607 Z0.328 F180
G1 X40.652 Y121.555 Z0.326 F180
G1 X40.677 Y121.506 Z0.324 F180
G1 X40.708 Y121.461 Z0.322 F180
G1 X40.746 Y121.422 Z0.32 F180
G1 X40.789 Y121.388 Z0.318 F180
G1 X40.837 Y121.36 Z0.317 F180
G1 X40.888 Y121.34 Z0.315 F180
G1 X40.941 Y121.328 Z0.313 F180
G1 X40.996 Y121.323 Z0.311 F180
G1 X41.051 Y121.327 Z0.309 F180
G1 X41.104 Y121.338 Z0.307 F180
G1 X41.156 Y121.357 Z0.305 F180
G1 X41.204 Y121.383 Z0.303 F180
G1 X41.248 Y121.416 Z0.301 F180
G1 X41.286 Y121.455 Z0.299 F180
G1 X41.319 Y121.499 Z0.297 F180
G1 X41.345 Y121.547 Z0.295 F180
G1 X41.363 Y121.599 Z0.294 F180
G1 X41.374 Y121.653 Z0.292 F180
G1 X41.377 Y121.708 Z0.29 F180
G1 X41.372 Y121.762 Z0.288 F180
G1 X41.359 Y121.815 Z0.286 F180
G1 X41.338 Y121.866 Z0.284 F180
G1 X41.311 Y121.914 Z0.282 F180
G1 X41.276 Y121.956 Z0.28 F180
G1 X41.236 Y121.994 Z0.278 F180
G1 X41.191 Y122.025 Z0.276 F180
G1 X41.142 Y122.049 Z0.274 F180
G1 X41.09 Y122.066 Z0.272 F180
G1 X41.036 Y122.075 Z0.271 F180
G1 X40.981 Y122.077 Z0.269 F180
G1 X40.927 Y122.07 Z0.267 F180
G1 X40.874 Y122.055 Z0.265 F180
G1 X40.824 Y122.033 Z0.263 F180
G1 X40.777 Y122.004 Z0.261 F180
G1 X40.735 Y121.969 Z0.259 F180
G1 X40.699 Y121.927 Z0.257 F180
G1 X40.669 Y121.881 Z0.255 F180
G1 X40.647 Y121.831 Z0.253 F180
G1 X40.631 Y121.779 Z0.251 F180
G1 X40.624 Y121.724 Z0.249 F180
G1 Y121.67 Z0.248 F180
G1 X40.633 Y121.615 Z0.246 F180
G1 X40.649 Y121.563 Z0.244 F180
G1 X40.672 Y121.513 Z0.242 F180
G1 X40.703 Y121.468 Z0.24 F180
G1 X40.74 Y121.427 Z0.238 F180
G1 X40.782 Y121.392 Z0.236 F180
G1 X40.829 Y121.364 Z0.234 F180
G1 X40.88 Y121.343 Z0.232 F180
G1 X40.933 Y121.329 Z0.23 F180
G1 X40.987 Y121.323 Z0.228 F180
G1 X41.042 Y121.325 Z0.226 F180
G1 X41.096 Y121.336 Z0.225 F180
G1 X41.148 Y121.353 Z0.223 F180
G1 X41.197 Y121.378 Z0.221 F180
G1 X41.241 Y121.41 Z0.219 F180
G1 X41.281 Y121.448 Z0.217 F180
G1 X41.314 Y121.492 Z0.215 F180
G1 X41.341 Y121.54 Z0.213 F180
G1 X41.361 Y121.591 Z0.211 F180
G1 X41.373 Y121.644 Z0.209 F180
G1 X41.377 Y121.699 Z0.207 F180
G1 X41.373 Y121.754 Z0.205 F180
G1 X41.361 Y121.807 Z0.203 F180
G1 X41.342 Y121.859 Z0.202 F180
G1 X41.315 Y121.907 Z0.2 F180
G1 X41.282 Y121.95 Z0.198 F180
G1 X41.243 Y121.989 Z0.196 F180
G1 X41.198 Y122.021 Z0.194 F180
G1 X41.15 Y122.046 Z0.192 F180
G1 X41.098 Y122.064 Z0.19 F180
G1 X41.044 Y122.075 Z0.188 F180
G1 X40.989 Y122.077 Z0.186 F180
G1 X40.935 Y122.072 Z0.184 F180
G1 X40.882 Y122.058 Z0.182 F180
G1 X40.831 Y122.037 Z0.18 F180
G1 X40.784 Y122.009 Z0.179 F180
G1 X40.741 Y121.974 Z0.177 F180
G1 X40.704 Y121.934 Z0.175 F180
G1 X40.673 Y121.889 Z0.173 F180
G1 X40.65 Y121.839 Z0.171 F180
G1 X40.633 Y121.787 Z0.169 F180
G1 X40.624 Y121.733 Z0.167 F180
G1 Y121.678 Z0.165 F180
G1 X40.631 Y121.624 Z0.163 F180
G1 X40.646 Y121.571 Z0.161 F180
G1 X40.668 Y121.521 Z0.159 F180
G1 X40.698 Y121.475 Z0.157 F180
G1 X40.734 Y121.433 Z0.156 F180
G1 X40.775 Y121.397 Z0.154 F180
G1 X40.822 Y121.368 Z0.152 F180
G1 X40.872 Y121.346 Z0.15 F180
G1 X40.924 Y121.331 Z0.148 F180
G1 X40.979 Y121.324 Z0.146 F180
G1 X41.034 Y121.325 Z0.144 F180
G1 X41.088 Y121.334 Z0.142 F180
G1 X41.14 Y121.35 Z0.14 F180
G1 X41.189 Y121.374 Z0.138 F180
G1 X41.235 Y121.405 Z0.136 F180
G1 X41.275 Y121.442 Z0.134 F180
G1 X41.31 Y121.485 Z0.133 F180
G1 X41.337 Y121.532 Z0.131 F180
G1 X41.358 Y121.583 Z0.129 F180
G1 X41.372 Y121.636 Z0.127 F180
G1 X41.377 Y121.691 Z0.125 F180
G1 X41.374 Y121.745 Z0.123 F180
G1 X41.364 Y121.799 Z0.121 F180
G1 X41.346 Y121.851 Z0.119 F180
G1 X41.32 Y121.9 Z0.117 F180
G1 X41.288 Y121.944 Z0.115 F180
G1 X41.249 Y121.983 Z0.113 F180
G1 X41.206 Y122.016 Z0.111 F180
G1 X41.158 Y122.043 Z0.11 F180
G1 X41.106 Y122.062 Z0.108 F180
G1 X41.053 Y122.073 Z0.106 F180
G1 X40.998 Y122.077 Z0.104 F180
G1 X40.943 Y122.073 Z0.102 F180
G1 X40.89 Y122.061 Z0.1 F180
G1 X40.839 Y122.041 Z0.098 F180
G1 X40.791 Y122.014 Z0.096 F180
G1 X40.748 Y121.98 Z0.094 F180
G1 X40.71 Y121.941 Z0.092 F180
G1 X40.678 Y121.896 Z0.09 F180
G1 X40.653 Y121.847 Z0.088 F180
G1 X40.635 Y121.795 Z0.086 F180
G1 X40.625 Y121.741 Z0.085 F180
G1 X40.623 Y121.686 Z0.083 F180
G1 X40.629 Y121.632 Z0.081 F180
G1 X40.643 Y121.579 Z0.079 F180
G1 X40.664 Y121.528 Z0.077 F180
G1 X40.693 Y121.481 Z0.075 F180
G1 X40.728 Y121.439 Z0.073 F180
G1 X40.769 Y121.402 Z0.071 F180
G1 X40.814 Y121.372 Z0.069 F180
G1 X40.864 Y121.349 Z0.067 F180
G1 X40.916 Y121.333 Z0.065 F180
G1 X40.97 Y121.324 Z0.063 F180
G1 X41.025 Z0.062 F180
G1 X41.08 Y121.332 Z0.06 F180
G1 X41.132 Y121.347 Z0.058 F180
G1 X41.182 Y121.37 Z0.056 F180
G1 X41.228 Y121.4 Z0.054 F180
G1 X41.269 Y121.436 Z0.052 F180
G1 X41.305 Y121.478 Z0.05 F180
G1 X41.334 Y121.525 Z0.048 F180
G1 X41.356 Y121.575 Z0.046 F180
G1 X41.37 Y121.628 Z0.044 F180
G1 X41.377 Y121.682 Z0.042 F180
G1 X41.375 Y121.737 Z0.04 F180
G1 X41.366 Y121.791 Z0.039 F180
G1 X41.349 Y121.843 Z0.037 F180
G1 X41.324 Y121.892 Z0.035 F180
G1 X41.293 Y121.937 Z0.033 F180
G1 X41.256 Y121.977 Z0.031 F180
G1 X41.213 Y122.011 Z0.029 F180
G1 X41.165 Y122.039 Z0.027 F180
G1 X41.114 Y122.059 Z0.025 F180
G1 X41.061 Y122.072 Z0.023 F180
G1 X41.006 Y122.077 Z0.021 F180
G1 X40.952 Y122.074 Z0.019 F180
G1 X40.898 Y122.063 Z0.017 F180
G1 X40.846 Y122.044 Z0.016 F180
G1 X40.798 Y122.018 Z0.014 F180
G1 X40.754 Y121.986 Z0.012 F180
G1 X40.715 Y121.947 Z0.01 F180
G1 X40.682 Y121.903 Z0.008 F180
G1 X40.656 Y121.855 Z0.006 F180
G1 X40.637 Y121.803 Z0.004 F180
G1 X40.626 Y121.75 Z0.002 F180
G1 X40.623 Y121.695 Z0 F180
G1 X40.628 Y121.64 Z-0.002 F180
G1 X40.64 Y121.587 Z-0.004 F180
G1 X40.661 Y121.536 Z-0.006 F180
G1 X40.688 Y121.488 Z-0.007 F180
G1 X40.722 Y121.445 Z-0.009 F180
G1 X40.762 Y121.408 Z-0.011 F180
G1 X40.807 Y121.376 Z-0.013 F180
G1 X40.856 Y121.352 Z-0.015 F180
G1 X40.908 Y121.335 Z-0.017 F180
G1 X40.962 Y121.325 Z-0.019 F180
G1 X41.017 Y121.324 Z-0.021 F180
G1 X41.071 Y121.33 Z-0.023 F180
G1 X41.124 Y121.344 Z-0.025 F180
G1 X41.175 Y121.366 Z-0.027 F180
G1 X41.221 Y121.395 Z-0.029 F180
G1 X41.263 Y121.43 Z-0.03 F180
G1 X41.3 Y121.471 Z-0.032 F180
G1 X41.33 Y121.517 Z-0.034 F180
G1 X41.353 Y121.567 Z-0.036 F180
G1 X41.368 Y121.619 Z-0.038 F180
G1 X41.376 Y121.674 Z-0.04 F180
G1 Y121.729 Z-0.042 F180
G1 X41.368 Y121.783 Z-0.044 F180
G1 X41.352 Y121.835 Z-0.046 F180
G1 X41.329 Y121.885 Z-0.048 F180
G1 X41.298 Y121.931 Z-0.05 F180
G1 X41.262 Y121.972 Z-0.052 F180
G1 X41.22 Y122.007 Z-0.053 F180
G1 X41.173 Y122.035 Z-0.055 F180
G1 X41.122 Y122.057 Z-0.057 F180
G1 X41.069 Y122.071 Z-0.059 F180
G1 X41.015 Y122.077 Z-0.061 F180
G1 X40.96 Y122.075 Z-0.063 F180
G1 X40.906 Y122.065 Z-0.065 F180
G1 X40.854 Y122.048 Z-0.067 F180
G1 X40.805 Y122.023 Z-0.069 F180
G1 X40.76 Y121.991 Z-0.071 F180
G1 X40.721 Y121.953 Z-0.073 F180
G1 X40.687 Y121.91 Z-0.075 F180
G1 X40.66 Y121.863 Z-0.076 F180
G1 X40.64 Y121.811 Z-0.078 F180
G1 X40.627 Y121.758 Z-0.08 F180
G1 X40.623 Y121.703 Z-0.082 F180
G1 X40.627 Y121.649 Z-0.084 F180
G1 X40.638 Y121.595 Z-0.086 F180
G1 X40.657 Y121.544 Z-0.088 F180
G1 X40.683 Y121.495 Z-0.09 F180
G1 X40.716 Y121.452 Z-0.092 F180
G1 X40.755 Y121.413 Z-0.094 F180
G1 X40.8 Y121.381 Z-0.096 F180
G1 X40.848 Y121.355 Z-0.098 F180
G1 X40.9 Y121.337 Z-0.099 F180
G1 X40.954 Y121.326 Z-0.101 F180
G1 X41.008 Y121.323 Z-0.103 F180
G1 X41.063 Y121.328 Z-0.105 F180
G1 X41.116 Y121.342 Z-0.107 F180
G1 X41.167 Y121.362 Z-0.109 F180
G1 X41.214 Y121.39 Z-0.111 F180
G1 X41.257 Y121.424 Z-0.113 F180
G1 X41.294 Y121.465 Z-0.115 F180
G1 X41.325 Y121.51 Z-0.117 F180
G1 X41.35 Y121.559 Z-0.119 F180
G1 X41.366 Y121.611 Z-0.121 F180
G1 X41.375 Y121.665 Z-0.122 F180
G1 X41.376 Y121.72 Z-0.124 F180
G1 X41.37 Y121.775 Z-0.126 F180
G1 X41.355 Y121.827 Z-0.128 F180
G1 X41.333 Y121.878 Z-0.13 F180
G1 X41.303 Y121.924 Z-0.132 F180
G1 X41.268 Y121.966 Z-0.134 F180
G1 X41.226 Y122.002 Z-0.136 F180
G1 X41.18 Y122.031 Z-0.138 F180
G1 X41.13 Y122.054 Z-0.14 F180
G1 X41.078 Y122.069 Z-0.142 F180
G1 X41.023 Y122.076 Z-0.144 F180
G1 X40.968 Z-0.145 F180
G1 X40.914 Y122.067 Z-0.147 F180
G1 X40.862 Y122.051 Z-0.149 F180
G1 X40.812 Y122.027 Z-0.151 F180
G1 X40.767 Y121.997 Z-0.153 F180
G1 X40.726 Y121.96 Z-0.155 F180
G1 X40.692 Y121.917 Z-0.157 F180
G1 X40.663 Y121.87 Z-0.159 F180
G1 X40.642 Y121.819 Z-0.161 F180
G1 X40.629 Y121.766 Z-0.163 F180
G1 X40.623 Y121.712 Z-0.165 F180
G1 X40.625 Y121.657 Z-0.167 F180
G1 X40.636 Y121.603 Z-0.168 F180
G1 X40.654 Y121.551 Z-0.17 F180
G1 X40.679 Y121.503 Z-0.172 F180
G1 X40.711 Y121.458 Z-0.174 F180
G1 X40.749 Y121.419 Z-0.176 F180
G1 X40.793 Y121.385 Z-0.178 F180
G1 X40.841 Y121.359 Z-0.18 F180
G1 X40.892 Y121.339 Z-0.182 F180
G1 X40.945 Y121.327 Z-0.184 F180
G1 X41 Y121.323 Z-0.186 F180
; MOVEMENT_CUTTING
G1 X108.5 F600
G2 X121.323 Y108.5 J-12.823 F600
G1 Y41 F600
G2 X108.5 Y28.177 I-12.823 F600
G1 X41 F600
G2 X28.177 Y41 J12.823 F600
G1 Y108.5 F600
G2 X41 Y121.323 I12.823 F600
; MOVEMENT_LINK_TRANSITION
G2 X41.32 Y121.11 J-0.346 F600
G3 X41.639 Y120.897 I0.32 J0.133 F600
; MOVEMENT_CUTTING
G1 X108.5 F600
G2 X120.897 Y108.5 J-12.397 F600
G1 Y41 F600
G2 X108.5 Y28.603 I-12.397 F600
G1 X41 F600
G2 X28.603 Y41 J12.397 F600
G1 Y108.5 F600
G2 X41 Y120.897 I12.397 F600
G1 X41.639 F600
; MOVEMENT_LEAD_OUT
G1 X41.664 Z-0.182 F600
G1 X41.686 Z-0.171 F600
G1 X41.704 Z-0.153 F600
G1 X41.715 Z-0.131 F600
G1 X41.719 Z-0.106 F600
; MOVEMENT_CUTTING
G1 Z5 F600
G1 X28.377 Y108.506 F600
; MOVEMENT_PLUNGE
G1 Z2.579 F333
; MOVEMENT_RAMP_HELIX
G1 X28.376 Y108.528 Z2.524 F180
G1 X28.368 Y108.582 Z2.5 F180
G1 X28.353 Y108.634 Z2.498 F180
G1 X28.329 Y108.684 Z2.496 F180
G1 X28.299 Y108.73 Z2.494 F180
G1 X28.263 Y108.771 Z2.492 F180
G1 X28.221 Y108.806 Z2.49 F180
G1 X28.174 Y108.835 Z2.488 F180
G1 X28.124 Y108.856 Z2.487 F180
G1 X28.071 Y108.87 Z2.485 F180
G1 X28.016 Y108.877 Z2.483 F180
G1 X27.961 Y108.875 Z2.481 F180
G1 X27.907 Y108.865 Z2.479 F180
G1 X27.855 Y108.848 Z2.477 F180
G1 X27.806 Y108.823 Z2.475 F180
G1 X27.761 Y108.792 Z2.473 F180
G1 X27.722 Y108.754 Z2.471 F180
G1 X27.688 Y108.711 Z2.469 F180
G1 X27.66 Y108.663 Z2.467 F180
G1 X27.64 Y108.612 Z2.465 F180
G1 X27.628 Y108.559 Z2.464 F180
G1 X27.623 Y108.504 Z2.462 F180
G1 X27.627 Y108.45 Z2.46 F180
G1 X27.638 Y108.396 Z2.458 F180
G1 X27.657 Y108.344 Z2.456 F180
G1 X27.683 Y108.296 Z2.454 F180
G1 X27.716 Y108.252 Z2.452 F180
G1 X27.755 Y108.214 Z2.45 F180
G1 X27.799 Y108.181 Z2.448 F180
G1 X27.847 Y108.155 Z2.446 F180
G1 X27.899 Y108.137 Z2.444 F180
G1 X27.953 Y108.126 Z2.442 F180
G1 X28.007 Y108.123 Z2.441 F180
G1 X28.062 Y108.128 Z2.439 F180
G1 X28.115 Y108.141 Z2.437 F180
G1 X28.166 Y108.162 Z2.435 F180
G1 X28.214 Y108.189 Z2.433 F180
G1 X28.256 Y108.223 Z2.431 F180
G1 X28.294 Y108.264 Z2.429 F180
G1 X28.325 Y108.309 Z2.427 F180
G1 X28.349 Y108.358 Z2.425 F180
G1 X28.366 Y108.41 Z2.423 F180
G1 X28.375 Y108.464 Z2.421 F180
G1 X28.377 Y108.519 Z2.419 F180
G1 X28.37 Y108.573 Z2.418 F180
G1 X28.355 Y108.626 Z2.416 F180
G1 X28.333 Y108.676 Z2.414 F180
G1 X28.304 Y108.723 Z2.412 F180
G1 X28.269 Y108.765 Z2.41 F180
G1 X28.227 Y108.801 Z2.408 F180
G1 X28.181 Y108.831 Z2.406 F180
G1 X28.131 Y108.853 Z2.404 F180
G1 X28.079 Y108.869 Z2.402 F180
G1 X28.024 Y108.876 Z2.4 F180
G1 X27.97 Z2.398 F180
G1 X27.915 Y108.867 Z2.396 F180
G1 X27.863 Y108.851 Z2.395 F180
G1 X27.814 Y108.828 Z2.393 F180
G1 X27.768 Y108.797 Z2.391 F180
G1 X27.727 Y108.76 Z2.389 F180
G1 X27.692 Y108.718 Z2.387 F180
G1 X27.664 Y108.671 Z2.385 F180
G1 X27.643 Y108.62 Z2.383 F180
G1 X27.629 Y108.567 Z2.381 F180
G1 X27.623 Y108.513 Z2.379 F180
G1 X27.625 Y108.458 Z2.377 F180
G1 X27.636 Y108.404 Z2.375 F180
G1 X27.653 Y108.352 Z2.373 F180
G1 X27.678 Y108.303 Z2.372 F180
G1 X27.71 Y108.259 Z2.37 F180
G1 X27.748 Y108.219 Z2.368 F180
G1 X27.792 Y108.186 Z2.366 F180
G1 X27.84 Y108.159 Z2.364 F180
G1 X27.891 Y108.139 Z2.362 F180
G1 X27.944 Y108.127 Z2.36 F180
G1 X27.999 Y108.123 Z2.358 F180
G1 X28.054 Y108.127 Z2.356 F180
G1 X28.107 Y108.139 Z2.354 F180
G1 X28.159 Y108.158 Z2.352 F180
G1 X28.207 Y108.185 Z2.35 F180
G1 X28.25 Y108.218 Z2.349 F180
G1 X28.288 Y108.257 Z2.347 F180
G1 X28.321 Y108.301 Z2.345 F180
G1 X28.346 Y108.35 Z2.343 F180
G1 X28.364 Y108.402 Z2.341 F180
G1 X28.375 Y108.456 Z2.339 F180
G1 X28.377 Y108.51 Z2.337 F180
G1 X28.372 Y108.565 Z2.335 F180
G1 X28.358 Y108.618 Z2.333 F180
G1 X28.337 Y108.669 Z2.331 F180
G1 X28.309 Y108.716 Z2.329 F180
G1 X28.275 Y108.759 Z2.327 F180
G1 X28.234 Y108.796 Z2.326 F180
G1 X28.189 Y108.826 Z2.324 F180
G1 X28.139 Y108.85 Z2.322 F180
G1 X28.087 Y108.867 Z2.32 F180
G1 X28.033 Y108.876 Z2.318 F180
G1 X27.978 Z2.316 F180
G1 X27.924 Y108.869 Z2.314 F180
G1 X27.871 Y108.854 Z2.312 F180
G1 X27.821 Y108.832 Z2.31 F180
G1 X27.775 Y108.802 Z2.308 F180
G1 X27.733 Y108.766 Z2.306 F180
G1 X27.697 Y108.725 Z2.304 F180
G1 X27.668 Y108.678 Z2.303 F180
G1 X27.646 Y108.628 Z2.301 F180
G1 X27.631 Y108.576 Z2.299 F180
G1 X27.624 Y108.521 Z2.297 F180
G1 X27.625 Y108.466 Z2.295 F180
G1 X27.633 Y108.412 Z2.293 F180
G1 X27.65 Y108.36 Z2.291 F180
G1 X27.674 Y108.311 Z2.289 F180
G1 X27.705 Y108.265 Z2.287 F180
G1 X27.742 Y108.225 Z2.285 F180
G1 X27.785 Y108.19 Z2.283 F180
G1 X27.832 Y108.163 Z2.281 F180
G1 X27.883 Y108.142 Z2.28 F180
G1 X27.936 Y108.128 Z2.278 F180
G1 X27.991 Y108.123 Z2.276 F180
G1 X28.045 Y108.126 Z2.274 F180
G1 X28.099 Y108.136 Z2.272 F180
G1 X28.151 Y108.154 Z2.27 F180
G1 X28.199 Y108.18 Z2.268 F180
G1 X28.244 Y108.212 Z2.266 F180
G1 X28.283 Y108.251 Z2.264 F180
G1 X28.316 Y108.294 Z2.262 F180
G1 X28.343 Y108.342 Z2.26 F180
G1 X28.362 Y108.394 Z2.258 F180
G1 X28.373 Y108.447 Z2.257 F180
G1 X28.377 Y108.502 Z2.255 F180
G1 X28.373 Y108.557 Z2.253 F180
G1 X28.361 Y108.61 Z2.251 F180
G1 X28.341 Y108.661 Z2.249 F180
G1 X28.314 Y108.709 Z2.247 F180
G1 X28.28 Y108.752 Z2.245 F180
G1 X28.241 Y108.79 Z2.243 F180
G1 X28.196 Y108.822 Z2.241 F180
G1 X28.147 Y108.847 Z2.239 F180
G1 X28.095 Y108.865 Z2.237 F180
G1 X28.041 Y108.875 Z2.235 F180
G1 X27.987 Y108.877 Z2.234 F180
G1 X27.932 Y108.871 Z2.232 F180
G1 X27.879 Y108.857 Z2.23 F180
G1 X27.828 Y108.836 Z2.228 F180
G1 X27.782 Y108.807 Z2.226 F180
G1 X27.739 Y108.772 Z2.224 F180
G1 X27.703 Y108.731 Z2.222 F180
G1 X27.672 Y108.686 Z2.22 F180
G1 X27.649 Y108.636 Z2.218 F180
G1 X27.633 Y108.584 Z2.216 F180
G1 X27.624 Y108.53 Z2.214 F180
G1 Y108.475 Z2.212 F180
G1 X27.632 Y108.42 Z2.211 F180
G1 X27.647 Y108.368 Z2.209 F180
G1 X27.67 Y108.318 Z2.207 F180
G1 X27.7 Y108.272 Z2.205 F180
G1 X27.736 Y108.231 Z2.203 F180
G1 X27.778 Y108.195 Z2.201 F180
G1 X27.825 Y108.166 Z2.199 F180
G1 X27.875 Y108.144 Z2.197 F180
G1 X27.928 Y108.13 Z2.195 F180
G1 X27.982 Y108.123 Z2.193 F180
G1 X28.037 Y108.125 Z2.191 F180
G1 X28.091 Y108.134 Z2.189 F180
G1 X28.143 Y108.151 Z2.188 F180
G1 X28.192 Y108.176 Z2.186 F180
G1 X28.237 Y108.207 Z2.184 F180
G1 X28.277 Y108.244 Z2.182 F180
G1 X28.311 Y108.287 Z2.18 F180
G1 X28.339 Y108.335 Z2.178 F180
G1 X28.359 Y108.386 Z2.176 F180
G1 X28.372 Y108.439 Z2.174 F180
G1 X28.377 Y108.494 Z2.172 F180
G1 X28.374 Y108.548 Z2.17 F180
G1 X28.363 Y108.602 Z2.168 F180
G1 X28.344 Y108.654 Z2.166 F180
G1 X28.319 Y108.702 Z2.165 F180
G1 X28.286 Y108.746 Z2.163 F180
G1 X28.247 Y108.785 Z2.161 F180
G1 X28.203 Y108.818 Z2.159 F180
G1 X28.155 Y108.844 Z2.157 F180
G1 X28.103 Y108.863 Z2.155 F180
G1 X28.05 Y108.874 Z2.153 F180
G1 X27.995 Y108.877 Z2.151 F180
G1 X27.94 Y108.872 Z2.149 F180
G1 X27.887 Y108.86 Z2.147 F180
G1 X27.836 Y108.839 Z2.145 F180
G1 X27.788 Y108.812 Z2.143 F180
G1 X27.745 Y108.778 Z2.142 F180
G1 X27.708 Y108.738 Z2.14 F180
G1 X27.676 Y108.693 Z2.138 F180
G1 X27.652 Y108.644 Z2.136 F180
G1 X27.635 Y108.592 Z2.134 F180
G1 X27.625 Y108.538 Z2.132 F180
G1 X27.624 Y108.483 Z2.13 F180
G1 X27.63 Y108.429 Z2.128 F180
G1 X27.644 Y108.376 Z2.126 F180
G1 X27.666 Y108.325 Z2.124 F180
G1 X27.695 Y108.279 Z2.122 F180
G1 X27.73 Y108.237 Z2.12 F180
G1 X27.771 Y108.2 Z2.119 F180
G1 X27.817 Y108.17 Z2.117 F180
G1 X27.867 Y108.147 Z2.115 F180
G1 X27.919 Y108.132 Z2.113 F180
G1 X27.974 Y108.124 Z2.111 F180
G1 X28.029 Z2.109 F180
G1 X28.083 Y108.132 Z2.107 F180
G1 X28.135 Y108.148 Z2.105 F180
G1 X28.185 Y108.171 Z2.103 F180
G1 X28.231 Y108.202 Z2.101 F180
G1 X28.272 Y108.238 Z2.099 F180
G1 X28.307 Y108.28 Z2.097 F180
G1 X28.335 Y108.327 Z2.096 F180
G1 X28.357 Y108.378 Z2.094 F180
G1 X28.371 Y108.431 Z2.092 F180
G1 X28.377 Y108.485 Z2.09 F180
G1 X28.375 Y108.54 Z2.088 F180
G1 X28.365 Y108.594 Z2.086 F180
G1 X28.348 Y108.646 Z2.084 F180
G1 X28.323 Y108.695 Z2.082 F180
G1 X28.291 Y108.74 Z2.08 F180
G1 X28.253 Y108.779 Z2.078 F180
G1 X28.21 Y108.813 Z2.076 F180
G1 X28.163 Y108.84 Z2.074 F180
G1 X28.111 Y108.86 Z2.073 F180
G1 X28.058 Y108.873 Z2.071 F180
G1 X28.003 Y108.877 Z2.069 F180
G1 X27.949 Y108.873 Z2.067 F180
G1 X27.895 Y108.862 Z2.065 F180
G1 X27.844 Y108.843 Z2.063 F180
G1 X27.795 Y108.817 Z2.061 F180
G1 X27.752 Y108.784 Z2.059 F180
G1 X27.713 Y108.745 Z2.057 F180
G1 X27.681 Y108.7 Z2.055 F180
G1 X27.655 Y108.652 Z2.053 F180
G1 X27.637 Y108.6 Z2.051 F180
G1 X27.626 Y108.546 Z2.05 F180
G1 X27.623 Y108.492 Z2.048 F180
G1 X27.628 Y108.437 Z2.046 F180
G1 X27.641 Y108.384 Z2.044 F180
G1 X27.662 Y108.333 Z2.042 F180
G1 X27.69 Y108.286 Z2.04 F180
G1 X27.724 Y108.243 Z2.038 F180
G1 X27.765 Y108.206 Z2.036 F180
G1 X27.81 Y108.175 Z2.034 F180
G1 X27.859 Y108.15 Z2.032 F180
G1 X27.911 Y108.134 Z2.03 F180
G1 X27.965 Y108.125 Z2.028 F180
G1 X28.02 Y108.123 Z2.027 F180
G1 X28.075 Y108.13 Z2.025 F180
G1 X28.127 Y108.145 Z2.023 F180
G1 X28.178 Y108.167 Z2.021 F180
G1 X28.224 Y108.197 Z2.019 F180
G1 X28.266 Y108.232 Z2.017 F180
G1 X28.302 Y108.274 Z2.015 F180
G1 X28.331 Y108.32 Z2.013 F180
G1 X28.354 Y108.37 Z2.011 F180
G1 X28.369 Y108.422 Z2.009 F180
G1 X28.376 Y108.477 Z2.007 F180
G1 Y108.532 Z2.005 F180
G1 X28.367 Y108.586 Z2.003 F180
G1 X28.351 Y108.638 Z2.002 F180
G1 X28.327 Y108.688 Z2 F180
G1 X28.297 Y108.733 Z1.998 F180
G1 X28.26 Y108.774 Z1.996 F180
G1 X28.217 Y108.808 Z1.994 F180
G1 X28.17 Y108.837 Z1.992 F180
G1 X28.12 Y108.858 Z1.99 F180
G1 X28.066 Y108.871 Z1.988 F180
G1 X28.012 Y108.877 Z1.986 F180
G1 X27.957 Y108.875 Z1.984 F180
G1 X27.903 Y108.864 Z1.982 F180
G1 X27.851 Y108.846 Z1.98 F180
G1 X27.803 Y108.821 Z1.979 F180
G1 X27.758 Y108.789 Z1.977 F180
G1 X27.719 Y108.751 Z1.975 F180
G1 X27.685 Y108.707 Z1.973 F180
G1 X27.659 Y108.66 Z1.971 F180
G1 X27.639 Y108.608 Z1.969 F180
G1 X27.627 Y108.555 Z1.967 F180
G1 X27.623 Y108.5 Z1.965 F180
G1 X27.627 Y108.445 Z1.963 F180
G1 X27.639 Y108.392 Z1.961 F180
G1 X27.658 Y108.341 Z1.959 F180
G1 X27.685 Y108.293 Z1.957 F180
G1 X27.719 Y108.249 Z1.956 F180
G1 X27.758 Y108.211 Z1.954 F180
G1 X27.803 Y108.179 Z1.952 F180
G1 X27.851 Y108.154 Z1.95 F180
G1 X27.903 Y108.136 Z1.948 F180
G1 X27.957 Y108.125 Z1.946 F180
G1 X28.012 Y108.123 Z1.944 F180
G1 X28.066 Y108.129 Z1.942 F180
G1 X28.119 Y108.142 Z1.94 F180
G1 X28.17 Y108.163 Z1.938 F180
G1 X28.217 Y108.192 Z1.936 F180
G1 X28.26 Y108.226 Z1.934 F180
G1 X28.296 Y108.267 Z1.933 F180
G1 X28.327 Y108.312 Z1.931 F180
G1 X28.351 Y108.362 Z1.929 F180
G1 X28.367 Y108.414 Z1.927 F180
G1 X28.376 Y108.468 Z1.925 F180
G1 Y108.523 Z1.923 F180
G1 X28.369 Y108.578 Z1.921 F180
G1 X28.354 Y108.63 Z1.919 F180
G1 X28.331 Y108.68 Z1.917 F180
G1 X28.302 Y108.726 Z1.915 F180
G1 X28.266 Y108.768 Z1.913 F180
G1 X28.224 Y108.803 Z1.911 F180
G1 X28.178 Y108.833 Z1.91 F180
G1 X28.128 Y108.855 Z1.908 F180
G1 X28.075 Y108.87 Z1.906 F180
G1 X28.02 Y108.876 Z1.904 F180
G1 X27.965 Y108.875 Z1.902 F180
G1 X27.911 Y108.866 Z1.9 F180
G1 X27.859 Y108.85 Z1.898 F180
G1 X27.81 Y108.825 Z1.896 F180
G1 X27.765 Y108.794 Z1.894 F180
G1 X27.724 Y108.757 Z1.892 F180
G1 X27.69 Y108.714 Z1.89 F180
G1 X27.662 Y108.667 Z1.888 F180
G1 X27.642 Y108.616 Z1.887 F180
G1 X27.628 Y108.563 Z1.885 F180
G1 X27.623 Y108.509 Z1.883 F180
G1 X27.626 Y108.454 Z1.881 F180
G1 X27.637 Y108.4 Z1.879 F180
G1 X27.655 Y108.348 Z1.877 F180
G1 X27.681 Y108.3 Z1.875 F180
G1 X27.713 Y108.256 Z1.873 F180
G1 X27.752 Y108.216 Z1.871 F180
G1 X27.795 Y108.183 Z1.869 F180
G1 X27.843 Y108.157 Z1.867 F180
G1 X27.895 Y108.138 Z1.865 F180
G1 X27.949 Y108.127 Z1.864 F180
G1 X28.003 Y108.123 Z1.862 F180
G1 X28.058 Y108.127 Z1.86 F180
G1 X28.111 Y108.14 Z1.858 F180
G1 X28.162 Y108.16 Z1.856 F180
G1 X28.21 Y108.187 Z1.854 F180
G1 X28.253 Y108.221 Z1.852 F180
G1 X28.291 Y108.26 Z1.85 F180
G1 X28.323 Y108.305 Z1.848 F180
G1 X28.348 Y108.354 Z1.846 F180
G1 X28.365 Y108.406 Z1.844 F180
G1 X28.375 Y108.46 Z1.842 F180
G1 X28.377 Y108.515 Z1.841 F180
G1 X28.371 Y108.569 Z1.839 F180
G1 X28.357 Y108.622 Z1.837 F180
G1 X28.335 Y108.673 Z1.835 F180
G1 X28.307 Y108.72 Z1.833 F180
G1 X28.272 Y108.762 Z1.831 F180
G1 X28.231 Y108.798 Z1.829 F180
G1 X28.185 Y108.829 Z1.827 F180
G1 X28.135 Y108.852 Z1.825 F180
G1 X28.083 Y108.868 Z1.823 F180
G1 X28.029 Y108.876 Z1.821 F180
G1 X27.974 Z1.819 F180
G1 X27.92 Y108.868 Z1.818 F180
G1 X27.867 Y108.853 Z1.816 F180
G1 X27.817 Y108.83 Z1.814 F180
G1 X27.771 Y108.8 Z1.812 F180
G1 X27.73 Y108.763 Z1.81 F180
G1 X27.695 Y108.721 Z1.808 F180
G1 X27.666 Y108.675 Z1.806 F180
G1 X27.644 Y108.624 Z1.804 F180
G1 X27.63 Y108.571 Z1.802 F180
G1 X27.624 Y108.517 Z1.8 F180
G1 X27.625 Y108.462 Z1.798 F180
G1 X27.634 Y108.408 Z1.796 F180
G1 X27.652 Y108.356 Z1.795 F180
G1 X27.676 Y108.307 Z1.793 F180
G1 X27.708 Y108.262 Z1.791 F180
G1 X27.745 Y108.222 Z1.789 F180
G1 X27.788 Y108.188 Z1.787 F180
G1 X27.836 Y108.161 Z1.785 F180
G1 X27.887 Y108.14 Z1.783 F180
G1 X27.94 Y108.128 Z1.781 F180
G1 X27.995 Y108.123 Z1.779 F180
G1 X28.05 Y108.126 Z1.777 F180
G1 X28.103 Y108.137 Z1.775 F180
G1 X28.155 Y108.156 Z1.773 F180
G1 X28.203 Y108.182 Z1.772 F180
G1 X28.247 Y108.215 Z1.77 F180
G1 X28.286 Y108.254 Z1.768 F180
G1 X28.318 Y108.298 Z1.766 F180
G1 X28.344 Y108.346 Z1.764 F180
G1 X28.363 Y108.398 Z1.762 F180
G1 X28.374 Y108.452 Z1.76 F180
G1 X28.377 Y108.506 Z1.758 F180
G1 X28.372 Y108.561 Z1.756 F180
G1 X28.359 Y108.614 Z1.754 F180
G1 X28.339 Y108.665 Z1.752 F180
G1 X28.312 Y108.713 Z1.75 F180
G1 X28.277 Y108.756 Z1.749 F180
G1 X28.237 Y108.793 Z1.747 F180
G1 X28.192 Y108.824 Z1.745 F180
G1 X28.143 Y108.849 Z1.743 F180
G1 X28.091 Y108.866 Z1.741 F180
G1 X28.037 Y108.875 Z1.739 F180
G1 X27.982 Y108.877 Z1.737 F180
G1 X27.928 Y108.87 Z1.735 F180
G1 X27.875 Y108.856 Z1.733 F180
G1 X27.825 Y108.834 Z1.731 F180
G1 X27.778 Y108.805 Z1.729 F180
G1 X27.736 Y108.769 Z1.727 F180
G1 X27.7 Y108.728 Z1.726 F180
G1 X27.67 Y108.682 Z1.724 F180
G1 X27.647 Y108.632 Z1.722 F180
G1 X27.632 Y108.58 Z1.72 F180
G1 X27.624 Y108.525 Z1.718 F180
G1 Y108.471 Z1.716 F180
G1 X27.633 Y108.416 Z1.714 F180
G1 X27.649 Y108.364 Z1.712 F180
G1 X27.672 Y108.314 Z1.71 F180
G1 X27.702 Y108.269 Z1.708 F180
G1 X27.739 Y108.228 Z1.706 F180
G1 X27.781 Y108.193 Z1.704 F180
G1 X27.828 Y108.164 Z1.703 F180
G1 X27.879 Y108.143 Z1.701 F180
G1 X27.932 Y108.129 Z1.699 F180
G1 X27.986 Y108.123 Z1.697 F180
G1 X28.041 Y108.125 Z1.695 F180
G1 X28.095 Y108.135 Z1.693 F180
G1 X28.147 Y108.153 Z1.691 F180
G1 X28.196 Y108.178 Z1.689 F180
G1 X28.241 Y108.21 Z1.687 F180
G1 X28.28 Y108.248 Z1.685 F180
G1 X28.314 Y108.291 Z1.683 F180
G1 X28.341 Y108.339 Z1.681 F180
G1 X28.361 Y108.39 Z1.68 F180
G1 X28.373 Y108.443 Z1.678 F180
G1 X28.377 Y108.498 Z1.676 F180
G1 X28.374 Y108.553 Z1.674 F180
G1 X28.362 Y108.606 Z1.672 F180
G1 X28.343 Y108.658 Z1.67 F180
G1 X28.316 Y108.706 Z1.668 F180
G1 X28.283 Y108.749 Z1.666 F180
G1 X28.244 Y108.788 Z1.664 F180
G1 X28.2 Y108.82 Z1.662 F180
G1 X28.151 Y108.846 Z1.66 F180
G1 X28.099 Y108.864 Z1.658 F180
G1 X28.045 Y108.874 Z1.657 F180
G1 X27.991 Y108.877 Z1.655 F180
G1 X27.936 Y108.872 Z1.653 F180
G1 X27.883 Y108.858 Z1.651 F180
G1 X27.832 Y108.838 Z1.649 F180
G1 X27.785 Y108.81 Z1.647 F180
G1 X27.742 Y108.775 Z1.645 F180
G1 X27.705 Y108.735 Z1.643 F180
G1 X27.674 Y108.689 Z1.641 F180
G1 X27.65 Y108.64 Z1.639 F180
G1 X27.634 Y108.588 Z1.637 F180
G1 X27.625 Y108.534 Z1.635 F180
G1 X27.624 Y108.479 Z1.634 F180
G1 X27.631 Y108.425 Z1.632 F180
G1 X27.646 Y108.372 Z1.63 F180
G1 X27.668 Y108.322 Z1.628 F180
G1 X27.697 Y108.275 Z1.626 F180
G1 X27.733 Y108.234 Z1.624 F180
G1 X27.775 Y108.198 Z1.622 F180
G1 X27.821 Y108.168 Z1.62 F180
G1 X27.871 Y108.146 Z1.618 F180
G1 X27.924 Y108.131 Z1.616 F180
G1 X27.978 Y108.124 Z1.614 F180
G1 X28.033 Z1.612 F180
G1 X28.087 Y108.133 Z1.611 F180
G1 X28.139 Y108.15 Z1.609 F180
G1 X28.189 Y108.173 Z1.607 F180
G1 X28.234 Y108.204 Z1.605 F180
G1 X28.274 Y108.241 Z1.603 F180
G1 X28.309 Y108.284 Z1.601 F180
G1 X28.337 Y108.331 Z1.599 F180
G1 X28.358 Y108.382 Z1.597 F180
G1 X28.372 Y108.435 Z1.595 F180
G1 X28.377 Y108.489 Z1.593 F180
G1 X28.375 Y108.544 Z1.591 F180
G1 X28.364 Y108.598 Z1.589 F180
G1 X28.346 Y108.65 Z1.588 F180
G1 X28.321 Y108.698 Z1.586 F180
G1 X28.289 Y108.743 Z1.584 F180
G1 X28.25 Y108.782 Z1.582 F180
G1 X28.207 Y108.815 Z1.58 F180
G1 X28.159 Y108.842 Z1.578 F180
G1 X28.107 Y108.861 Z1.576 F180
G1 X28.054 Y108.873 Z1.574 F180
G1 X27.999 Y108.877 Z1.572 F180
G1 X27.944 Y108.873 Z1.57 F180
G1 X27.891 Y108.861 Z1.568 F180
G1 X27.84 Y108.841 Z1.566 F180
G1 X27.792 Y108.814 Z1.565 F180
G1 X27.749 Y108.781 Z1.563 F180
G1 X27.71 Y108.741 Z1.561 F180
G1 X27.679 Y108.697 Z1.559 F180
G1 X27.653 Y108.648 Z1.557 F180
G1 X27.636 Y108.596 Z1.555 F180
G1 X27.625 Y108.542 Z1.553 F180
G1 X27.623 Y108.487 Z1.551 F180
G1 X27.629 Y108.433 Z1.549 F180
G1 X27.643 Y108.38 Z1.547 F180
G1 X27.664 Y108.329 Z1.545 F180
G1 X27.692 Y108.282 Z1.543 F180
G1 X27.727 Y108.24 Z1.542 F180
G1 X27.768 Y108.203 Z1.54 F180
G1 X27.813 Y108.172 Z1.538 F180
G1 X27.863 Y108.149 Z1.536 F180
G1 X27.915 Y108.133 Z1.534 F180
G1 X27.97 Y108.124 Z1.532 F180
G1 X28.024 Z1.53 F180
G1 X28.079 Y108.131 Z1.528 F180
G1 X28.131 Y108.147 Z1.526 F180
G1 X28.181 Y108.169 Z1.524 F180
G1 X28.227 Y108.199 Z1.522 F180
G1 X28.269 Y108.235 Z1.52 F180
G1 X28.304 Y108.277 Z1.518 F180
G1 X28.333 Y108.323 Z1.517 F180
G1 X28.355 Y108.374 Z1.515 F180
G1 X28.37 Y108.427 Z1.513 F180
G1 X28.377 Y108.481 Z1.511 F180
G1 X28.375 Y108.536 Z1.509 F180
G1 X28.366 Y108.59 Z1.507 F180
G1 X28.349 Y108.642 Z1.505 F180
G1 X28.325 Y108.691 Z1.503 F180
G1 X28.294 Y108.736 Z1.501 F180
G1 X28.257 Y108.776 Z1.499 F180
G1 X28.214 Y108.811 Z1.497 F180
G1 X28.166 Y108.838 Z1.495 F180
G1 X28.116 Y108.859 Z1.494 F180
G1 X28.062 Y108.872 Z1.492 F180
G1 X28.008 Y108.877 Z1.49 F180
G1 X27.953 Y108.874 Z1.488 F180
G1 X27.899 Y108.863 Z1.486 F180
G1 X27.847 Y108.845 Z1.484 F180
G1 X27.799 Y108.819 Z1.482 F180
G1 X27.755 Y108.786 Z1.48 F180
G1 X27.716 Y108.748 Z1.478 F180
G1 X27.683 Y108.704 Z1.476 F180
G1 X27.657 Y108.656 Z1.474 F180
G1 X27.638 Y108.604 Z1.472 F180
G1 X27.627 Y108.551 Z1.471 F180
G1 X27.623 Y108.496 Z1.469 F180
G1 X27.628 Y108.441 Z1.467 F180
G1 X27.64 Y108.388 Z1.465 F180
G1 X27.66 Y108.337 Z1.463 F180
G1 X27.688 Y108.289 Z1.461 F180
G1 X27.721 Y108.246 Z1.459 F180
G1 X27.761 Y108.208 Z1.457 F180
G1 X27.806 Y108.177 Z1.455 F180
G1 X27.855 Y108.152 Z1.453 F180
G1 X27.907 Y108.135 Z1.451 F180
G1 X27.961 Y108.125 Z1.449 F180
G1 X28.016 Y108.123 Z1.448 F180
G1 X28.07 Y108.13 Z1.446 F180
G1 X28.123 Y108.144 Z1.444 F180
G1 X28.174 Y108.165 Z1.442 F180
G1 X28.221 Y108.194 Z1.44 F180
G1 X28.263 Y108.229 Z1.438 F180
G1 X28.299 Y108.27 Z1.436 F180
G1 X28.329 Y108.316 Z1.434 F180
G1 X28.352 Y108.366 Z1.432 F180
G1 X28.368 Y108.418 Z1.43 F180
G1 X28.376 Y108.473 Z1.428 F180
G1 Y108.527 Z1.426 F180
G1 X28.368 Y108.582 Z1.425 F180
G1 X28.353 Y108.634 Z1.423 F180
G1 X28.329 Y108.684 Z1.421 F180
G1 X28.299 Y108.73 Z1.419 F180
G1 X28.263 Y108.771 Z1.417 F180
G1 X28.221 Y108.806 Z1.415 F180
G1 X28.174 Y108.835 Z1.413 F180
G1 X28.124 Y108.856 Z1.411 F180
G1 X28.071 Y108.87 Z1.409 F180
G1 X28.016 Y108.877 Z1.407 F180
G1 X27.961 Y108.875 Z1.405 F180
G1 X27.907 Y108.865 Z1.403 F180
G1 X27.855 Y108.848 Z1.402 F180
G1 X27.806 Y108.823 Z1.4 F180
G1 X27.761 Y108.792 Z1.398 F180
G1 X27.722 Y108.754 Z1.396 F180
G1 X27.688 Y108.711 Z1.394 F180
G1 X27.66 Y108.663 Z1.392 F180
G1 X27.64 Y108.612 Z1.39 F180
G1 X27.628 Y108.559 Z1.388 F180
G1 X27.623 Y108.504 Z1.386 F180
G1 X27.627 Y108.45 Z1.384 F180
G1 X27.638 Y108.396 Z1.382 F180
G1 X27.657 Y108.344 Z1.38 F180
G1 X27.683 Y108.296 Z1.379 F180
G1 X27.716 Y108.252 Z1.377 F180
G1 X27.755 Y108.214 Z1.375 F180
G1 X27.799 Y108.181 Z1.373 F180
G1 X27.847 Y108.155 Z1.371 F180
G1 X27.899 Y108.137 Z1.369 F180
G1 X27.953 Y108.126 Z1.367 F180
G1 X28.007 Y108.123 Z1.365 F180
G1 X28.062 Y108.128 Z1.363 F180
G1 X28.115 Y108.141 Z1.361 F180
G1 X28.166 Y108.162 Z1.359 F180
G1 X28.214 Y108.189 Z1.357 F180
G1 X28.256 Y108.223 Z1.356 F180
G1 X28.294 Y108.264 Z1.354 F180
G1 X28.325 Y108.309 Z1.352 F180
G1 X28.349 Y108.358 Z1.35 F180
G1 X28.366 Y108.41 Z1.348 F180
G1 X28.375 Y108.464 Z1.346 F180
G1 X28.377 Y108.519 Z1.344 F180
G1 X28.37 Y108.573 Z1.342 F180
G1 X28.355 Y108.626 Z1.34 F180
G1 X28.333 Y108.676 Z1.338 F180
G1 X28.304 Y108.723 Z1.336 F180
G1 X28.269 Y108.765 Z1.334 F180
G1 X28.227 Y108.801 Z1.333 F180
G1 X28.181 Y108.831 Z1.331 F180
G1 X28.131 Y108.853 Z1.329 F180
G1 X28.079 Y108.869 Z1.327 F180
G1 X28.024 Y108.876 Z1.325 F180
G1 X27.97 Z1.323 F180
G1 X27.915 Y108.867 Z1.321 F180
G1 X27.863 Y108.851 Z1.319 F180
G1 X27.814 Y108.828 Z1.317 F180
G1 X27.768 Y108.797 Z1.315 F180
G1 X27.727 Y108.76 Z1.313 F180
G1 X27.692 Y108.718 Z1.311 F180
G1 X27.664 Y108.671 Z1.31 F180
G1 X27.643 Y108.62 Z1.308 F180
G1 X27.629 Y108.567 Z1.306 F180
G1 X27.623 Y108.513 Z1.304 F180
G1 X27.625 Y108.458 Z1.302 F180
G1 X27.636 Y108.404 Z1.3 F180
G1 X27.653 Y108.352 Z1.298 F180
G1 X27.678 Y108.303 Z1.296 F180
G1 X27.71 Y108.259 Z1.294 F180
G1 X27.748 Y108.219 Z1.292 F180
G1 X27.792 Y108.186 Z1.29 F180
G1 X27.84 Y108.159 Z1.288 F180
G1 X27.891 Y108.139 Z1.287 F180
G1 X27.944 Y108.127 Z1.285 F180
G1 X27.999 Y108.123 Z1.283 F180
G1 X28.054 Y108.127 Z1.281 F180
G1 X28.107 Y108.139 Z1.279 F180
G1 X28.159 Y108.158 Z1.277 F180
G1 X28.207 Y108.185 Z1.275 F180
G1 X28.25 Y108.218 Z1.273 F180
G1 X28.288 Y108.257 Z1.271 F180
G1 X28.321 Y108.301 Z1.269 F180
G1 X28.346 Y108.35 Z1.267 F180
G1 X28.364 Y108.402 Z1.265 F180
G1 X28.375 Y108.456 Z1.264 F180
G1 X28.377 Y108.511 Z1.262 F180
G1 X28.372 Y108.565 Z1.26 F180
G1 X28.358 Y108.618 Z1.258 F180
G1 X28.337 Y108.669 Z1.256 F180
G1 X28.309 Y108.716 Z1.254 F180
G1 X28.275 Y108.759 Z1.252 F180
G1 X28.234 Y108.796 Z1.25 F180
G1 X28.189 Y108.826 Z1.248 F180
G1 X28.139 Y108.85 Z1.246 F180
G1 X28.087 Y108.867 Z1.244 F180
G1 X28.033 Y108.876 Z1.242 F180
G1 X27.978 Z1.241 F180
G1 X27.924 Y108.869 Z1.239 F180
G1 X27.871 Y108.854 Z1.237 F180
G1 X27.821 Y108.832 Z1.235 F180
G1 X27.775 Y108.802 Z1.233 F180
G1 X27.733 Y108.766 Z1.231 F180
G1 X27.697 Y108.725 Z1.229 F180
G1 X27.668 Y108.678 Z1.227 F180
G1 X27.646 Y108.628 Z1.225 F180
G1 X27.631 Y108.576 Z1.223 F180
G1 X27.624 Y108.521 Z1.221 F180
G1 X27.625 Y108.466 Z1.219 F180
G1 X27.633 Y108.412 Z1.218 F180
G1 X27.65 Y108.36 Z1.216 F180
G1 X27.674 Y108.311 Z1.214 F180
G1 X27.705 Y108.265 Z1.212 F180
G1 X27.742 Y108.225 Z1.21 F180
G1 X27.785 Y108.19 Z1.208 F180
G1 X27.832 Y108.163 Z1.206 F180
G1 X27.883 Y108.142 Z1.204 F180
G1 X27.936 Y108.128 Z1.202 F180
G1 X27.991 Y108.123 Z1.2 F180
G1 X28.045 Y108.126 Z1.198 F180
G1 X28.099 Y108.136 Z1.196 F180
G1 X28.151 Y108.154 Z1.195 F180
G1 X28.199 Y108.18 Z1.193 F180
G1 X28.244 Y108.212 Z1.191 F180
G1 X28.283 Y108.251 Z1.189 F180
G1 X28.316 Y108.294 Z1.187 F180
G1 X28.343 Y108.342 Z1.185 F180
G1 X28.362 Y108.394 Z1.183 F180
G1 X28.373 Y108.447 Z1.181 F180
G1 X28.377 Y108.502 Z1.179 F180
G1 X28.373 Y108.557 Z1.177 F180
G1 X28.361 Y108.61 Z1.175 F180
G1 X28.341 Y108.661 Z1.173 F180
G1 X28.314 Y108.709 Z1.172 F180
G1 X28.28 Y108.752 Z1.17 F180
G1 X28.241 Y108.79 Z1.168 F180
G1 X28.196 Y108.822 Z1.166 F180
G1 X28.147 Y108.847 Z1.164 F180
G1 X28.095 Y108.865 Z1.162 F180
G1 X28.041 Y108.875 Z1.16 F180
G1 X27.986 Y108.877 Z1.158 F180
G1 X27.932 Y108.871 Z1.156 F180
G1 X27.879 Y108.857 Z1.154 F180
G1 X27.828 Y108.836 Z1.152 F180
G1 X27.781 Y108.807 Z1.15 F180
G1 X27.739 Y108.772 Z1.149 F180
G1 X27.703 Y108.731 Z1.147 F180
G1 X27.672 Y108.686 Z1.145 F180
G1 X27.649 Y108.636 Z1.143 F180
G1 X27.633 Y108.584 Z1.141 F180
G1 X27.624 Y108.53 Z1.139 F180
G1 Y108.475 Z1.137 F180
G1 X27.632 Y108.42 Z1.135 F180
G1 X27.647 Y108.368 Z1.133 F180
G1 X27.67 Y108.318 Z1.131 F180
G1 X27.7 Y108.272 Z1.129 F180
G1 X27.736 Y108.231 Z1.127 F180
G1 X27.778 Y108.195 Z1.126 F180
G1 X27.825 Y108.166 Z1.124 F180
G1 X27.875 Y108.144 Z1.122 F180
G1 X27.928 Y108.13 Z1.12 F180
G1 X27.982 Y108.123 Z1.118 F180
G1 X28.037 Y108.125 Z1.116 F180
G1 X28.091 Y108.134 Z1.114 F180
G1 X28.143 Y108.151 Z1.112 F180
G1 X28.192 Y108.176 Z1.11 F180
G1 X28.237 Y108.207 Z1.108 F180
G1 X28.277 Y108.244 Z1.106 F180
G1 X28.311 Y108.287 Z1.104 F180
G1 X28.339 Y108.335 Z1.103 F180
G1 X28.359 Y108.386 Z1.101 F180
G1 X28.372 Y108.439 Z1.099 F180
G1 X28.377 Y108.494 Z1.097 F180
G1 X28.374 Y108.548 Z1.095 F180
G1 X28.363 Y108.602 Z1.093 F180
G1 X28.344 Y108.654 Z1.091 F180
G1 X28.318 Y108.702 Z1.089 F180
G1 X28.286 Y108.746 Z1.087 F180
G1 X28.247 Y108.785 Z1.085 F180
G1 X28.203 Y108.818 Z1.083 F180
G1 X28.155 Y108.844 Z1.081 F180
G1 X28.103 Y108.863 Z1.08 F180
G1 X28.05 Y108.874 Z1.078 F180
G1 X27.995 Y108.877 Z1.076 F180
G1 X27.94 Y108.872 Z1.074 F180
G1 X27.887 Y108.86 Z1.072 F180
G1 X27.836 Y108.839 Z1.07 F180
G1 X27.788 Y108.812 Z1.068 F180
G1 X27.745 Y108.778 Z1.066 F180
G1 X27.708 Y108.738 Z1.064 F180
G1 X27.676 Y108.693 Z1.062 F180
G1 X27.652 Y108.644 Z1.06 F180
G1 X27.635 Y108.592 Z1.058 F180
G1 X27.625 Y108.538 Z1.057 F180
G1 X27.624 Y108.483 Z1.055 F180
G1 X27.63 Y108.429 Z1.053 F180
G1 X27.644 Y108.376 Z1.051 F180
G1 X27.666 Y108.325 Z1.049 F180
G1 X27.695 Y108.279 Z1.047 F180
G1 X27.73 Y108.237 Z1.045 F180
G1 X27.771 Y108.2 Z1.043 F180
G1 X27.817 Y108.17 Z1.041 F180
G1 X27.867 Y108.147 Z1.039 F180
G1 X27.919 Y108.132 Z1.037 F180
G1 X27.974 Y108.124 Z1.035 F180
G1 X28.029 Z1.033 F180
G1 X28.083 Y108.132 Z1.032 F180
G1 X28.135 Y108.148 Z1.03 F180
G1 X28.185 Y108.171 Z1.028 F180
G1 X28.231 Y108.202 Z1.026 F180
G1 X28.272 Y108.238 Z1.024 F180
G1 X28.307 Y108.28 Z1.022 F180
G1 X28.335 Y108.327 Z1.02 F180
G1 X28.357 Y108.378 Z1.018 F180
G1 X28.371 Y108.431 Z1.016 F180
G1 X28.377 Y108.485 Z1.014 F180
G1 X28.375 Y108.54 Z1.012 F180
G1 X28.365 Y108.594 Z1.01 F180
G1 X28.348 Y108.646 Z1.009 F180
G1 X28.323 Y108.695 Z1.007 F180
G1 X28.291 Y108.74 Z1.005 F180
G1 X28.253 Y108.779 Z1.003 F180
G1 X28.21 Y108.813 Z1.001 F180
G1 X28.163 Y108.84 Z0.999 F180
G1 X28.111 Y108.86 Z0.997 F180
G1 X28.058 Y108.873 Z0.995 F180
G1 X28.003 Y108.877 Z0.993 F180
G1 X27.949 Y108.873 Z0.991 F180
G1 X27.895 Y108.862 Z0.989 F180
G1 X27.844 Y108.843 Z0.987 F180
G1 X27.795 Y108.817 Z0.986 F180
G1 X27.752 Y108.784 Z0.984 F180
G1 X27.713 Y108.745 Z0.982 F180
G1 X27.681 Y108.7 Z0.98 F180
G1 X27.655 Y108.652 Z0.978 F180
G1 X27.637 Y108.6 Z0.976 F180
G1 X27.626 Y108.546 Z0.974 F180
G1 X27.623 Y108.492 Z0.972 F180
G1 X27.628 Y108.437 Z0.97 F180
G1 X27.642 Y108.384 Z0.968 F180
G1 X27.662 Y108.333 Z0.966 F180
G1 X27.69 Y108.286 Z0.964 F180
G1 X27.724 Y108.243 Z0.963 F180
G1 X27.765 Y108.206 Z0.961 F180
G1 X27.81 Y108.175 Z0.959 F180
G1 X27.859 Y108.15 Z0.957 F180
G1 X27.911 Y108.134 Z0.955 F180
G1 X27.965 Y108.125 Z0.953 F180
G1 X28.02 Y108.124 Z0.951 F180
G1 X28.075 Y108.13 Z0.949 F180
G1 X28.127 Y108.145 Z0.947 F180
G1 X28.178 Y108.167 Z0.945 F180
G1 X28.224 Y108.197 Z0.943 F180
G1 X28.266 Y108.232 Z0.941 F180
G1 X28.302 Y108.274 Z0.94 F180
G1 X28.331 Y108.32 Z0.938 F180
G1 X28.354 Y108.37 Z0.936 F180
G1 X28.369 Y108.422 Z0.934 F180
G1 X28.376 Y108.477 Z0.932 F180
G1 Y108.532 Z0.93 F180
G1 X28.367 Y108.586 Z0.928 F180
G1 X28.351 Y108.638 Z0.926 F180
G1 X28.327 Y108.688 Z0.924 F180
G1 X28.297 Y108.733 Z0.922 F180
G1 X28.26 Y108.774 Z0.92 F180
G1 X28.217 Y108.808 Z0.918 F180
G1 X28.17 Y108.837 Z0.917 F180
G1 X28.12 Y108.858 Z0.915 F180
G1 X28.066 Y108.871 Z0.913 F180
G1 X28.012 Y108.877 Z0.911 F180
G1 X27.957 Y108.875 Z0.909 F180
G1 X27.903 Y108.864 Z0.907 F180
G1 X27.851 Y108.846 Z0.905 F180
G1 X27.803 Y108.821 Z0.903 F180
G1 X27.758 Y108.789 Z0.901 F180
G1 X27.719 Y108.751 Z0.899 F180
G1 X27.685 Y108.707 Z0.897 F180
G1 X27.659 Y108.66 Z0.895 F180
G1 X27.639 Y108.608 Z0.894 F180
G1 X27.627 Y108.555 Z0.892 F180
G1 X27.623 Y108.5 Z0.89 F180
G1 X27.627 Y108.445 Z0.888 F180
G1 X27.639 Y108.392 Z0.886 F180
G1 X27.659 Y108.341 Z0.884 F180
G1 X27.685 Y108.293 Z0.882 F180
G1 X27.719 Y108.249 Z0.88 F180
G1 X27.758 Y108.211 Z0.878 F180
G1 X27.803 Y108.179 Z0.876 F180
G1 X27.851 Y108.154 Z0.874 F180
G1 X27.903 Y108.136 Z0.872 F180
G1 X27.957 Y108.125 Z0.871 F180
G1 X28.012 Y108.123 Z0.869 F180
G1 X28.066 Y108.129 Z0.867 F180
G1 X28.119 Y108.142 Z0.865 F180
G1 X28.17 Y108.163 Z0.863 F180
G1 X28.217 Y108.192 Z0.861 F180
G1 X28.26 Y108.226 Z0.859 F180
G1 X28.297 Y108.267 Z0.857 F180
G1 X28.327 Y108.312 Z0.855 F180
G1 X28.351 Y108.362 Z0.853 F180
G1 X28.367 Y108.414 Z0.851 F180
G1 X28.376 Y108.468 Z0.849 F180
G1 Y108.523 Z0.848 F180
G1 X28.369 Y108.578 Z0.846 F180
G1 X28.354 Y108.63 Z0.844 F180
G1 X28.331 Y108.68 Z0.842 F180
G1 X28.302 Y108.726 Z0.84 F180
G1 X28.266 Y108.768 Z0.838 F180
G1 X28.224 Y108.803 Z0.836 F180
G1 X28.178 Y108.833 Z0.834 F180
G1 X28.127 Y108.855 Z0.832 F180
G1 X28.075 Y108.87 Z0.83 F180
G1 X28.02 Y108.876 Z0.828 F180
G1 X27.965 Y108.875 Z0.826 F180
G1 X27.911 Y108.866 Z0.825 F180
G1 X27.859 Y108.85 Z0.823 F180
G1 X27.81 Y108.825 Z0.821 F180
G1 X27.765 Y108.794 Z0.819 F180
G1 X27.724 Y108.757 Z0.817 F180
G1 X27.69 Y108.714 Z0.815 F180
G1 X27.662 Y108.667 Z0.813 F180
G1 X27.642 Y108.616 Z0.811 F180
G1 X27.628 Y108.563 Z0.809 F180
G1 X27.623 Y108.508 Z0.807 F180
G1 X27.626 Y108.454 Z0.805 F180
G1 X27.637 Y108.4 Z0.803 F180
G1 X27.655 Y108.348 Z0.802 F180
G1 X27.681 Y108.3 Z0.8 F180
G1 X27.713 Y108.256 Z0.798 F180
G1 X27.752 Y108.216 Z0.796 F180
G1 X27.795 Y108.183 Z0.794 F180
G1 X27.844 Y108.157 Z0.792 F180
G1 X27.895 Y108.138 Z0.79 F180
G1 X27.949 Y108.127 Z0.788 F180
G1 X28.003 Y108.123 Z0.786 F180
G1 X28.058 Y108.127 Z0.784 F180
G1 X28.111 Y108.14 Z0.782 F180
G1 X28.162 Y108.16 Z0.78 F180
G1 X28.21 Y108.187 Z0.779 F180
G1 X28.253 Y108.221 Z0.777 F180
G1 X28.291 Y108.26 Z0.775 F180
G1 X28.323 Y108.305 Z0.773 F180
G1 X28.348 Y108.354 Z0.771 F180
G1 X28.365 Y108.406 Z0.769 F180
G1 X28.375 Y108.46 Z0.767 F180
G1 X28.377 Y108.515 Z0.765 F180
G1 X28.371 Y108.569 Z0.763 F180
G1 X28.357 Y108.622 Z0.761 F180
G1 X28.335 Y108.673 Z0.759 F180
G1 X28.307 Y108.72 Z0.757 F180
G1 X28.272 Y108.762 Z0.756 F180
G1 X28.231 Y108.798 Z0.754 F180
G1 X28.185 Y108.829 Z0.752 F180
G1 X28.135 Y108.852 Z0.75 F180
G1 X28.083 Y108.868 Z0.748 F180
G1 X28.029 Y108.876 Z0.746 F180
G1 X27.974 Z0.744 F180
G1 X27.92 Y108.868 Z0.742 F180
G1 X27.867 Y108.853 Z0.74 F180
G1 X27.817 Y108.83 Z0.738 F180
G1 X27.771 Y108.8 Z0.736 F180
G1 X27.73 Y108.763 Z0.734 F180
G1 X27.695 Y108.721 Z0.733 F180
G1 X27.666 Y108.675 Z0.731 F180
G1 X27.644 Y108.624 Z0.729 F180
G1 X27.63 Y108.571 Z0.727 F180
G1 X27.624 Y108.517 Z0.725 F180
G1 X27.625 Y108.462 Z0.723 F180
G1 X27.635 Y108.408 Z0.721 F180
G1 X27.652 Y108.356 Z0.719 F180
G1 X27.676 Y108.307 Z0.717 F180
G1 X27.708 Y108.262 Z0.715 F180
G1 X27.745 Y108.222 Z0.713 F180
G1 X27.788 Y108.188 Z0.711 F180
G1 X27.836 Y108.161 Z0.71 F180
G1 X27.887 Y108.14 Z0.708 F180
G1 X27.94 Y108.128 Z0.706 F180
G1 X27.995 Y108.123 Z0.704 F180
G1 X28.05 Y108.126 Z0.702 F180
G1 X28.103 Y108.137 Z0.7 F180
G1 X28.155 Y108.156 Z0.698 F180
G1 X28.203 Y108.182 Z0.696 F180
G1 X28.247 Y108.215 Z0.694 F180
G1 X28.286 Y108.254 Z0.692 F180
G1 X28.318 Y108.298 Z0.69 F180
G1 X28.344 Y108.346 Z0.688 F180
G1 X28.363 Y108.398 Z0.687 F180
G1 X28.374 Y108.452 Z0.685 F180
G1 X28.377 Y108.506 Z0.683 F180
G1 X28.372 Y108.561 Z0.681 F180
G1 X28.359 Y108.614 Z0.679 F180
G1 X28.339 Y108.665 Z0.677 F180
G1 X28.312 Y108.713 Z0.675 F180
G1 X28.277 Y108.756 Z0.673 F180
G1 X28.237 Y108.793 Z0.671 F180
G1 X28.192 Y108.824 Z0.669 F180
G1 X28.143 Y108.849 Z0.667 F180
G1 X28.091 Y108.866 Z0.665 F180
G1 X28.037 Y108.875 Z0.664 F180
G1 X27.982 Y108.877 Z0.662 F180
G1 X27.928 Y108.87 Z0.66 F180
G1 X27.875 Y108.856 Z0.658 F180
G1 X27.825 Y108.834 Z0.656 F180
G1 X27.778 Y108.805 Z0.654 F180
G1 X27.736 Y108.769 Z0.652 F180
G1 X27.7 Y108.728 Z0.65 F180
G1 X27.67 Y108.682 Z0.648 F180
G1 X27.647 Y108.632 Z0.646 F180
G1 X27.632 Y108.58 Z0.644 F180
G1 X27.624 Y108.525 Z0.642 F180
G1 Y108.47 Z0.641 F180
G1 X27.633 Y108.416 Z0.639 F180
G1 X27.649 Y108.364 Z0.637 F180
G1 X27.672 Y108.314 Z0.635 F180
G1 X27.702 Y108.269 Z0.633 F180
G1 X27.739 Y108.228 Z0.631 F180
G1 X27.781 Y108.193 Z0.629 F180
G1 X27.828 Y108.164 Z0.627 F180
G1 X27.879 Y108.143 Z0.625 F180
G1 X27.932 Y108.129 Z0.623 F180
G1 X27.986 Y108.123 Z0.621 F180
G1 X28.041 Y108.125 Z0.619 F180
G1 X28.095 Y108.135 Z0.618 F180
G1 X28.147 Y108.153 Z0.616 F180
G1 X28.196 Y108.178 Z0.614 F180
G1 X28.241 Y108.21 Z0.612 F180
G1 X28.28 Y108.248 Z0.61 F180
G1 X28.314 Y108.291 Z0.608 F180
G1 X28.341 Y108.339 Z0.606 F180
G1 X28.361 Y108.39 Z0.604 F180
G1 X28.373 Y108.443 Z0.602 F180
G1 X28.377 Y108.498 Z0.6 F180
G1 X28.374 Y108.553 Z0.598 F180
G1 X28.362 Y108.606 Z0.596 F180
G1 X28.343 Y108.658 Z0.595 F180
G1 X28.316 Y108.706 Z0.593 F180
G1 X28.283 Y108.749 Z0.591 F180
G1 X28.244 Y108.788 Z0.589 F180
G1 X28.2 Y108.82 Z0.587 F180
G1 X28.151 Y108.846 Z0.585 F180
G1 X28.099 Y108.864 Z0.583 F180
G1 X28.045 Y108.874 Z0.581 F180
G1 X27.991 Y108.877 Z0.579 F180
G1 X27.936 Y108.872 Z0.577 F180
G1 X27.883 Y108.858 Z0.575 F180
G1 X27.832 Y108.838 Z0.573 F180
G1 X27.785 Y108.81 Z0.571 F180
G1 X27.742 Y108.775 Z0.57 F180
G1 X27.705 Y108.735 Z0.568 F180
G1 X27.674 Y108.689 Z0.566 F180
G1 X27.65 Y108.64 Z0.564 F180
G1 X27.634 Y108.588 Z0.562 F180
G1 X27.625 Y108.534 Z0.56 F180
G1 X27.624 Y108.479 Z0.558 F180
G1 X27.631 Y108.425 Z0.556 F180
G1 X27.646 Y108.372 Z0.554 F180
G1 X27.668 Y108.322 Z0.552 F180
G1 X27.697 Y108.275 Z0.55 F180
G1 X27.733 Y108.234 Z0.548 F180
G1 X27.775 Y108.198 Z0.547 F180
G1 X27.821 Y108.168 Z0.545 F180
G1 X27.871 Y108.146 Z0.543 F180
G1 X27.924 Y108.131 Z0.541 F180
G1 X27.978 Y108.124 Z0.539 F180
G1 X28.033 Z0.537 F180
G1 X28.087 Y108.133 Z0.535 F180
G1 X28.139 Y108.15 Z0.533 F180
G1 X28.189 Y108.173 Z0.531 F180
G1 X28.234 Y108.204 Z0.529 F180
G1 X28.274 Y108.241 Z0.527 F180
G1 X28.309 Y108.284 Z0.525 F180
G1 X28.337 Y108.331 Z0.524 F180
G1 X28.358 Y108.382 Z0.522 F180
G1 X28.372 Y108.435 Z0.52 F180
G1 X28.377 Y108.489 Z0.518 F180
G1 X28.375 Y108.544 Z0.516 F180
G1 X28.364 Y108.598 Z0.514 F180
G1 X28.346 Y108.65 Z0.512 F180
G1 X28.321 Y108.698 Z0.51 F180
G1 X28.289 Y108.743 Z0.508 F180
G1 X28.25 Y108.782 Z0.506 F180
G1 X28.207 Y108.815 Z0.504 F180
G1 X28.159 Y108.842 Z0.502 F180
G1 X28.107 Y108.861 Z0.501 F180
G1 X28.054 Y108.873 Z0.499 F180
G1 X27.999 Y108.877 Z0.497 F180
G1 X27.944 Y108.873 Z0.495 F180
G1 X27.891 Y108.861 Z0.493 F180
G1 X27.84 Y108.841 Z0.491 F180
G1 X27.792 Y108.814 Z0.489 F180
G1 X27.749 Y108.781 Z0.487 F180
G1 X27.71 Y108.741 Z0.485 F180
G1 X27.679 Y108.697 Z0.483 F180
G1 X27.653 Y108.648 Z0.481 F180
G1 X27.636 Y108.596 Z0.479 F180
G1 X27.625 Y108.542 Z0.478 F180
G1 X27.623 Y108.487 Z0.476 F180
G1 X27.629 Y108.433 Z0.474 F180
G1 X27.643 Y108.38 Z0.472 F180
G1 X27.664 Y108.329 Z0.47 F180
G1 X27.692 Y108.282 Z0.468 F180
G1 X27.727 Y108.24 Z0.466 F180
G1 X27.768 Y108.203 Z0.464 F180
G1 X27.813 Y108.172 Z0.462 F180
G1 X27.863 Y108.149 Z0.46 F180
G1 X27.915 Y108.133 Z0.458 F180
G1 X27.97 Y108.124 Z0.456 F180
G1 X28.024 Z0.455 F180
G1 X28.079 Y108.131 Z0.453 F180
G1 X28.131 Y108.147 Z0.451 F180
G1 X28.181 Y108.169 Z0.449 F180
G1 X28.227 Y108.199 Z0.447 F180
G1 X28.269 Y108.235 Z0.445 F180
G1 X28.304 Y108.277 Z0.443 F180
G1 X28.333 Y108.323 Z0.441 F180
G1 X28.355 Y108.374 Z0.439 F180
G1 X28.37 Y108.427 Z0.437 F180
G1 X28.377 Y108.481 Z0.435 F180
G1 X28.375 Y108.536 Z0.433 F180
G1 X28.366 Y108.59 Z0.432 F180
G1 X28.349 Y108.642 Z0.43 F180
G1 X28.325 Y108.691 Z0.428 F180
G1 X28.294 Y108.736 Z0.426 F180
G1 X28.257 Y108.776 Z0.424 F180
G1 X28.214 Y108.811 Z0.422 F180
G1 X28.166 Y108.838 Z0.42 F180
G1 X28.115 Y108.859 Z0.418 F180
G1 X28.062 Y108.872 Z0.416 F180
G1 X28.008 Y108.877 Z0.414 F180
G1 X27.953 Y108.874 Z0.412 F180
G1 X27.899 Y108.863 Z0.41 F180
G1 X27.847 Y108.845 Z0.409 F180
G1 X27.799 Y108.819 Z0.407 F180
G1 X27.755 Y108.786 Z0.405 F180
G1 X27.716 Y108.748 Z0.403 F180
G1 X27.683 Y108.704 Z0.401 F180
G1 X27.657 Y108.656 Z0.399 F180
G1 X27.638 Y108.604 Z0.397 F180
G1 X27.627 Y108.551 Z0.395 F180
G1 X27.623 Y108.496 Z0.393 F180
G1 X27.628 Y108.441 Z0.391 F180
G1 X27.64 Y108.388 Z0.389 F180
G1 X27.66 Y108.337 Z0.387 F180
G1 X27.688 Y108.289 Z0.386 F180
G1 X27.722 Y108.246 Z0.384 F180
G1 X27.761 Y108.208 Z0.382 F180
G1 X27.806 Y108.177 Z0.38 F180
G1 X27.855 Y108.152 Z0.378 F180
G1 X27.907 Y108.135 Z0.376 F180
G1 X27.961 Y108.125 Z0.374 F180
G1 X28.016 Y108.123 Z0.372 F180
G1 X28.07 Y108.13 Z0.37 F180
G1 X28.123 Y108.144 Z0.368 F180
G1 X28.174 Y108.165 Z0.366 F180
G1 X28.221 Y108.194 Z0.364 F180
G1 X28.263 Y108.229 Z0.363 F180
G1 X28.299 Y108.27 Z0.361 F180
G1 X28.329 Y108.316 Z0.359 F180
G1 X28.352 Y108.366 Z0.357 F180
G1 X28.368 Y108.418 Z0.355 F180
G1 X28.376 Y108.473 Z0.353 F180
G1 Y108.527 Z0.351 F180
G1 X28.368 Y108.582 Z0.349 F180
G1 X28.352 Y108.634 Z0.347 F180
G1 X28.329 Y108.684 Z0.345 F180
G1 X28.299 Y108.73 Z0.343 F180
G1 X28.263 Y108.771 Z0.341 F180
G1 X28.221 Y108.806 Z0.34 F180
G1 X28.174 Y108.835 Z0.338 F180
G1 X28.123 Y108.856 Z0.336 F180
G1 X28.07 Y108.87 Z0.334 F180
G1 X28.016 Y108.877 Z0.332 F180
G1 X27.961 Y108.875 Z0.33 F180
G1 X27.907 Y108.865 Z0.328 F180
G1 X27.855 Y108.848 Z0.326 F180
G1 X27.806 Y108.823 Z0.324 F180
G1 X27.761 Y108.792 Z0.322 F180
G1 X27.722 Y108.754 Z0.32 F180
G1 X27.688 Y108.711 Z0.318 F180
G1 X27.66 Y108.663 Z0.317 F180
G1 X27.64 Y108.612 Z0.315 F180
G1 X27.628 Y108.559 Z0.313 F180
G1 X27.623 Y108.504 Z0.311 F180
G1 X27.627 Y108.449 Z0.309 F180
G1 X27.638 Y108.396 Z0.307 F180
G1 X27.657 Y108.344 Z0.305 F180
G1 X27.683 Y108.296 Z0.303 F180
G1 X27.716 Y108.252 Z0.301 F180
G1 X27.755 Y108.214 Z0.299 F180
G1 X27.799 Y108.181 Z0.297 F180
G1 X27.847 Y108.155 Z0.295 F180
G1 X27.899 Y108.137 Z0.294 F180
G1 X27.953 Y108.126 Z0.292 F180
G1 X28.008 Y108.123 Z0.29 F180
G1 X28.062 Y108.128 Z0.288 F180
G1 X28.115 Y108.141 Z0.286 F180
G1 X28.166 Y108.162 Z0.284 F180
G1 X28.214 Y108.189 Z0.282 F180
G1 X28.256 Y108.224 Z0.28 F180
G1 X28.294 Y108.264 Z0.278 F180
G1 X28.325 Y108.309 Z0.276 F180
G1 X28.349 Y108.358 Z0.274 F180
G1 X28.366 Y108.41 Z0.272 F180
G1 X28.375 Y108.464 Z0.271 F180
G1 X28.377 Y108.519 Z0.269 F180
G1 X28.37 Y108.573 Z0.267 F180
G1 X28.355 Y108.626 Z0.265 F180
G1 X28.333 Y108.676 Z0.263 F180
G1 X28.304 Y108.723 Z0.261 F180
G1 X28.269 Y108.765 Z0.259 F180
G1 X28.227 Y108.801 Z0.257 F180
G1 X28.181 Y108.831 Z0.255 F180
G1 X28.131 Y108.853 Z0.253 F180
G1 X28.079 Y108.869 Z0.251 F180
G1 X28.024 Y108.876 Z0.249 F180
G1 X27.97 Z0.248 F180
G1 X27.915 Y108.867 Z0.246 F180
G1 X27.863 Y108.851 Z0.244 F180
G1 X27.813 Y108.828 Z0.242 F180
G1 X27.768 Y108.797 Z0.24 F180
G1 X27.727 Y108.76 Z0.238 F180
G1 X27.692 Y108.718 Z0.236 F180
G1 X27.664 Y108.671 Z0.234 F180
G1 X27.643 Y108.62 Z0.232 F180
G1 X27.629 Y108.567 Z0.23 F180
G1 X27.623 Y108.513 Z0.228 F180
G1 X27.625 Y108.458 Z0.226 F180
G1 X27.636 Y108.404 Z0.225 F180
G1 X27.653 Y108.352 Z0.223 F180
G1 X27.678 Y108.303 Z0.221 F180
G1 X27.71 Y108.259 Z0.219 F180
G1 X27.748 Y108.219 Z0.217 F180
G1 X27.792 Y108.186 Z0.215 F180
G1 X27.84 Y108.159 Z0.213 F180
G1 X27.891 Y108.139 Z0.211 F180
G1 X27.944 Y108.127 Z0.209 F180
G1 X27.999 Y108.123 Z0.207 F180
G1 X28.054 Y108.127 Z0.205 F180
G1 X28.107 Y108.139 Z0.203 F180
G1 X28.159 Y108.158 Z0.202 F180
G1 X28.207 Y108.185 Z0.2 F180
G1 X28.25 Y108.218 Z0.198 F180
G1 X28.289 Y108.257 Z0.196 F180
G1 X28.321 Y108.302 Z0.194 F180
G1 X28.346 Y108.35 Z0.192 F180
G1 X28.364 Y108.402 Z0.19 F180
G1 X28.375 Y108.456 Z0.188 F180
G1 X28.377 Y108.511 Z0.186 F180
G1 X28.372 Y108.565 Z0.184 F180
G1 X28.358 Y108.618 Z0.182 F180
G1 X28.337 Y108.669 Z0.18 F180
G1 X28.309 Y108.716 Z0.179 F180
G1 X28.274 Y108.759 Z0.177 F180
G1 X28.234 Y108.796 Z0.175 F180
G1 X28.189 Y108.827 Z0.173 F180
G1 X28.139 Y108.85 Z0.171 F180
G1 X28.087 Y108.867 Z0.169 F180
G1 X28.033 Y108.876 Z0.167 F180
G1 X27.978 Z0.165 F180
G1 X27.924 Y108.869 Z0.163 F180
G1 X27.871 Y108.854 Z0.161 F180
G1 X27.821 Y108.832 Z0.159 F180
G1 X27.775 Y108.802 Z0.157 F180
G1 X27.733 Y108.766 Z0.156 F180
G1 X27.697 Y108.725 Z0.154 F180
G1 X27.668 Y108.678 Z0.152 F180
G1 X27.646 Y108.628 Z0.15 F180
G1 X27.631 Y108.576 Z0.148 F180
G1 X27.624 Y108.521 Z0.146 F180
G1 X27.625 Y108.466 Z0.144 F180
G1 X27.634 Y108.412 Z0.142 F180
G1 X27.65 Y108.36 Z0.14 F180
G1 X27.674 Y108.311 Z0.138 F180
G1 X27.705 Y108.265 Z0.136 F180
G1 X27.742 Y108.225 Z0.134 F180
G1 X27.785 Y108.19 Z0.133 F180
G1 X27.832 Y108.162 Z0.131 F180
G1 X27.883 Y108.142 Z0.129 F180
G1 X27.936 Y108.128 Z0.127 F180
G1 X27.991 Y108.123 Z0.125 F180
G1 X28.045 Y108.126 Z0.123 F180
G1 X28.099 Y108.136 Z0.121 F180
G1 X28.151 Y108.154 Z0.119 F180
G1 X28.2 Y108.18 Z0.117 F180
G1 X28.244 Y108.212 Z0.115 F180
G1 X28.283 Y108.251 Z0.113 F180
G1 X28.316 Y108.294 Z0.111 F180
G1 X28.343 Y108.342 Z0.11 F180
G1 X28.362 Y108.394 Z0.108 F180
G1 X28.373 Y108.447 Z0.106 F180
G1 X28.377 Y108.502 Z0.104 F180
G1 X28.373 Y108.557 Z0.102 F180
G1 X28.361 Y108.61 Z0.1 F180
G1 X28.341 Y108.661 Z0.098 F180
G1 X28.314 Y108.709 Z0.096 F180
G1 X28.28 Y108.752 Z0.094 F180
G1 X28.241 Y108.79 Z0.092 F180
G1 X28.196 Y108.822 Z0.09 F180
G1 X28.147 Y108.847 Z0.088 F180
G1 X28.095 Y108.865 Z0.086 F180
G1 X28.041 Y108.875 Z0.085 F180
G1 X27.986 Y108.877 Z0.083 F180
G1 X27.932 Y108.871 Z0.081 F180
G1 X27.879 Y108.857 Z0.079 F180
G1 X27.828 Y108.836 Z0.077 F180
G1 X27.781 Y108.807 Z0.075 F180
G1 X27.739 Y108.772 Z0.073 F180
G1 X27.702 Y108.731 Z0.071 F180
G1 X27.672 Y108.686 Z0.069 F180
G1 X27.649 Y108.636 Z0.067 F180
G1 X27.633 Y108.584 Z0.065 F180
G1 X27.624 Y108.53 Z0.063 F180
G1 Y108.475 Z0.062 F180
G1 X27.632 Y108.42 Z0.06 F180
G1 X27.647 Y108.368 Z0.058 F180
G1 X27.67 Y108.318 Z0.056 F180
G1 X27.7 Y108.272 Z0.054 F180
G1 X27.736 Y108.231 Z0.052 F180
G1 X27.778 Y108.195 Z0.05 F180
G1 X27.825 Y108.166 Z0.048 F180
G1 X27.875 Y108.144 Z0.046 F180
G1 X27.928 Y108.13 Z0.044 F180
G1 X27.982 Y108.123 Z0.042 F180
G1 X28.037 Y108.125 Z0.04 F180
G1 X28.091 Y108.134 Z0.039 F180
G1 X28.143 Y108.151 Z0.037 F180
G1 X28.192 Y108.176 Z0.035 F180
G1 X28.237 Y108.207 Z0.033 F180
G1 X28.277 Y108.244 Z0.031 F180
G1 X28.312 Y108.287 Z0.029 F180
G1 X28.339 Y108.335 Z0.027 F180
G1 X28.359 Y108.386 Z0.025 F180
G1 X28.372 Y108.439 Z0.023 F180
G1 X28.377 Y108.494 Z0.021 F180
G1 X28.374 Y108.548 Z0.019 F180
G1 X28.363 Y108.602 Z0.017 F180
G1 X28.344 Y108.654 Z0.016 F180
G1 X28.318 Y108.702 Z0.014 F180
G1 X28.286 Y108.746 Z0.012 F180
G1 X28.247 Y108.785 Z0.01 F180
G1 X28.203 Y108.818 Z0.008 F180
G1 X28.155 Y108.844 Z0.006 F180
G1 X28.103 Y108.863 Z0.004 F180
G1 X28.05 Y108.874 Z0.002 F180
G1 X27.995 Y108.877 Z0 F180
G1 X27.94 Y108.872 Z-0.002 F180
G1 X27.887 Y108.86 Z-0.004 F180
G1 X27.836 Y108.839 Z-0.006 F180
G1 X27.788 Y108.812 Z-0.007 F180
G1 X27.745 Y108.778 Z-0.009 F180
G1 X27.708 Y108.738 Z-0.011 F180
G1 X27.676 Y108.693 Z-0.013 F180
G1 X27.652 Y108.644 Z-0.015 F180
G1 X27.635 Y108.592 Z-0.017 F180
G1 X27.625 Y108.538 Z-0.019 F180
G1 X27.624 Y108.483 Z-0.021 F180
G1 X27.63 Y108.429 Z-0.023 F180
G1 X27.644 Y108.376 Z-0.025 F180
G1 X27.666 Y108.325 Z-0.027 F180
G1 X27.695 Y108.279 Z-0.029 F180
G1 X27.73 Y108.237 Z-0.03 F180
G1 X27.771 Y108.2 Z-0.032 F180
G1 X27.817 Y108.17 Z-0.034 F180
G1 X27.867 Y108.147 Z-0.036 F180
G1 X27.919 Y108.132 Z-0.038 F180
G1 X27.974 Y108.124 Z-0.04 F180
G1 X28.029 Z-0.042 F180
G1 X28.083 Y108.132 Z-0.044 F180
G1 X28.135 Y108.148 Z-0.046 F180
G1 X28.185 Y108.171 Z-0.048 F180
G1 X28.231 Y108.202 Z-0.05 F180
G1 X28.272 Y108.238 Z-0.052 F180
G1 X28.307 Y108.28 Z-0.053 F180
G1 X28.335 Y108.327 Z-0.055 F180
G1 X28.357 Y108.378 Z-0.057 F180
G1 X28.371 Y108.431 Z-0.059 F180
G1 X28.377 Y108.485 Z-0.061 F180
G1 X28.375 Y108.54 Z-0.063 F180
G1 X28.365 Y108.594 Z-0.065 F180
G1 X28.348 Y108.646 Z-0.067 F180
G1 X28.323 Y108.695 Z-0.069 F180
G1 X28.291 Y108.74 Z-0.071 F180
G1 X28.253 Y108.779 Z-0.073 F180
G1 X28.21 Y108.813 Z-0.075 F180
G1 X28.163 Y108.84 Z-0.076 F180
G1 X28.111 Y108.86 Z-0.078 F180
G1 X28.058 Y108.873 Z-0.08 F180
G1 X28.003 Y108.877 Z-0.082 F180
G1 X27.949 Y108.873 Z-0.084 F180
G1 X27.895 Y108.862 Z-0.086 F180
G1 X27.844 Y108.843 Z-0.088 F180
G1 X27.795 Y108.817 Z-0.09 F180
G1 X27.752 Y108.784 Z-0.092 F180
G1 X27.713 Y108.745 Z-0.094 F180
G1 X27.681 Y108.7 Z-0.096 F180
G1 X27.655 Y108.652 Z-0.098 F180
G1 X27.637 Y108.6 Z-0.099 F180
G1 X27.626 Y108.546 Z-0.101 F180
G1 X27.623 Y108.492 Z-0.103 F180
G1 X27.628 Y108.437 Z-0.105 F180
G1 X27.642 Y108.384 Z-0.107 F180
G1 X27.662 Y108.333 Z-0.109 F180
G1 X27.69 Y108.286 Z-0.111 F180
G1 X27.724 Y108.243 Z-0.113 F180
G1 X27.765 Y108.206 Z-0.115 F180
G1 X27.81 Y108.175 Z-0.117 F180
G1 X27.859 Y108.15 Z-0.119 F180
G1 X27.911 Y108.134 Z-0.121 F180
G1 X27.965 Y108.125 Z-0.122 F180
G1 X28.02 Y108.124 Z-0.124 F180
G1 X28.075 Y108.13 Z-0.126 F180
G1 X28.127 Y108.145 Z-0.128 F180
G1 X28.178 Y108.167 Z-0.13 F180
G1 X28.224 Y108.197 Z-0.132 F180
G1 X28.266 Y108.232 Z-0.134 F180
G1 X28.302 Y108.274 Z-0.136 F180
G1 X28.331 Y108.32 Z-0.138 F180
G1 X28.354 Y108.37 Z-0.14 F180
G1 X28.369 Y108.422 Z-0.142 F180
G1 X28.376 Y108.477 Z-0.144 F180
G1 Y108.532 Z-0.145 F180
G1 X28.367 Y108.586 Z-0.147 F180
G1 X28.351 Y108.638 Z-0.149 F180
G1 X28.327 Y108.688 Z-0.151 F180
G1 X28.297 Y108.733 Z-0.153 F180
G1 X28.26 Y108.774 Z-0.155 F180
G1 X28.217 Y108.808 Z-0.157 F180
G1 X28.17 Y108.837 Z-0.159 F180
G1 X28.119 Y108.858 Z-0.161 F180
G1 X28.066 Y108.871 Z-0.163 F180
G1 X28.012 Y108.877 Z-0.165 F180
G1 X27.957 Y108.875 Z-0.167 F180
G1 X27.903 Y108.864 Z-0.168 F180
G1 X27.851 Y108.846 Z-0.17 F180
G1 X27.803 Y108.821 Z-0.172 F180
G1 X27.758 Y108.789 Z-0.174 F180
G1 X27.719 Y108.751 Z-0.176 F180
G1 X27.685 Y108.707 Z-0.178 F180
G1 X27.659 Y108.659 Z-0.18 F180
G1 X27.639 Y108.608 Z-0.182 F180
G1 X27.627 Y108.555 Z-0.184 F180
G1 X27.623 Y108.5 Z-0.186 F180
; MOVEMENT_CUTTING
G1 Y41 F600
G3 X41 Y27.623 I13.377 F600
G1 X108.5 F600
G3 X121.877 Y41 J13.377 F600
G1 Y108.5 F600
G3 X108.5 Y121.877 I-13.377 F600
G1 X41 F600
G3 X27.623 Y108.5 J-13.377 F600
; MOVEMENT_LINK_TRANSITION
G2 X27.41 Y108.18 I-0.346 F600
G3 X27.197 Y107.861 I0.133 J-0.32 F600
; MOVEMENT_CUTTING
G1 Y41 F600
G3 X41 Y27.197 I13.803 F600
G1 X108.5 F600
G3 X122.303 Y41 J13.803 F600
G1 Y108.5 F600
G3 X108.5 Y122.303 I-13.803 F600
G1 X41 F600
G3 X27.197 Y108.5 J-13.803 F600
G1 Y107.861 F600
; MOVEMENT_LINK_TRANSITION
G3 X27.26 Y107.829 I0.04 F600
G1 X27.769 Y108.214 F600
G1 X27.9 Y108.475 F600
G1 X28.027 Y108.824 F600
G3 X27.988 Y108.877 I-0.037 J0.014 F600
; MOVEMENT_RAMP_HELIX
G1 X27.934 Y108.871 Z-0.188 F180
G1 X27.881 Y108.858 Z-0.19 F180
G1 X27.83 Y108.836 Z-0.191 F180
G1 X27.783 Y108.808 Z-0.193 F180
G1 X27.741 Y108.774 Z-0.195 F180
G1 X27.704 Y108.733 Z-0.197 F180
G1 X27.673 Y108.688 Z-0.199 F180
G1 X27.649 Y108.638 Z-0.201 F180
G1 X27.633 Y108.586 Z-0.203 F180
G1 X27.624 Y108.532 Z-0.205 F180
G1 Y108.477 Z-0.207 F180
G1 X27.631 Y108.423 Z-0.209 F180
G1 X27.646 Y108.37 Z-0.211 F180
G1 X27.669 Y108.32 Z-0.213 F180
G1 X27.698 Y108.274 Z-0.214 F180
G1 X27.734 Y108.233 Z-0.216 F180
G1 X27.776 Y108.197 Z-0.218 F180
G1 X27.822 Y108.168 Z-0.22 F180
G1 X27.872 Y108.145 Z-0.222 F180
G1 X27.925 Y108.131 Z-0.224 F180
G1 X27.979 Y108.124 Z-0.226 F180
G1 X28.034 Z-0.228 F180
G1 X28.088 Y108.133 Z-0.23 F180
G1 X28.14 Y108.15 Z-0.232 F180
G1 X28.189 Y108.174 Z-0.234 F180
G1 X28.235 Y108.205 Z-0.235 F180
G1 X28.275 Y108.242 Z-0.237 F180
G1 X28.309 Y108.284 Z-0.239 F180
G1 X28.337 Y108.331 Z-0.241 F180
G1 X28.358 Y108.382 Z-0.243 F180
G1 X28.372 Y108.435 Z-0.245 F180
G1 X28.377 Y108.49 Z-0.247 F180
G1 X28.375 Y108.544 Z-0.249 F180
G1 X28.364 Y108.598 Z-0.251 F180
G1 X28.346 Y108.65 Z-0.253 F180
G1 X28.321 Y108.698 Z-0.255 F180
G1 X28.289 Y108.743 Z-0.257 F180
G1 X28.25 Y108.782 Z-0.258 F180
G1 X28.207 Y108.815 Z-0.26 F180
G1 X28.159 Y108.842 Z-0.262 F180
G1 X28.108 Y108.861 Z-0.264 F180
G1 X28.054 Y108.873 Z-0.266 F180
G1 X28 Y108.877 Z-0.268 F180
G1 X27.945 Y108.873 Z-0.27 F180
G1 X27.891 Y108.861 Z-0.272 F180
G1 X27.84 Y108.841 Z-0.274 F180
G1 X27.793 Y108.815 Z-0.276 F180
G1 X27.749 Y108.781 Z-0.278 F180
G1 X27.711 Y108.742 Z-0.28 F180
G1 X27.679 Y108.698 Z-0.281 F180
G1 X27.654 Y108.649 Z-0.283 F180
G1 X27.636 Y108.597 Z-0.285 F180
G1 X27.626 Y108.543 Z-0.287 F180
G1 X27.623 Y108.489 Z-0.289 F180
G1 X27.629 Y108.434 Z-0.291 F180
G1 X27.642 Y108.381 Z-0.293 F180
G1 X27.663 Y108.33 Z-0.295 F180
G1 X27.692 Y108.283 Z-0.297 F180
G1 X27.726 Y108.241 Z-0.299 F180
G1 X27.767 Y108.204 Z-0.301 F180
G1 X27.812 Y108.173 Z-0.303 F180
G1 X27.861 Y108.149 Z-0.304 F180
G1 X27.914 Y108.133 Z-0.306 F180
G1 X27.968 Y108.124 Z-0.308 F180
G1 X28.022 Z-0.31 F180
G1 X28.077 Y108.131 Z-0.312 F180
G1 X28.129 Y108.146 Z-0.314 F180
G1 X28.179 Y108.168 Z-0.316 F180
G1 X28.226 Y108.198 Z-0.318 F180
G1 X28.267 Y108.234 Z-0.32 F180
G1 X28.303 Y108.275 Z-0.322 F180
G1 X28.332 Y108.321 Z-0.324 F180
G1 X28.355 Y108.371 Z-0.325 F180
G1 X28.369 Y108.424 Z-0.327 F180
G1 X28.377 Y108.478 Z-0.329 F180
G1 X28.376 Y108.533 Z-0.331 F180
G1 X28.367 Y108.587 Z-0.333 F180
G1 X28.35 Y108.639 Z-0.335 F180
G1 X28.327 Y108.689 Z-0.337 F180
G1 X28.296 Y108.734 Z-0.339 F180
G1 X28.259 Y108.774 Z-0.341 F180
G1 X28.216 Y108.809 Z-0.343 F180
G1 X28.169 Y108.837 Z-0.345 F180
G1 X28.119 Y108.858 Z-0.347 F180
G1 X28.066 Y108.871 Z-0.348 F180
G1 X28.011 Y108.877 Z-0.35 F180
G1 X27.956 Y108.874 Z-0.352 F180
G1 X27.902 Y108.864 Z-0.354 F180
G1 X27.851 Y108.846 Z-0.356 F180
G1 X27.802 Y108.821 Z-0.358 F180
G1 X27.758 Y108.789 Z-0.36 F180
G1 X27.718 Y108.751 Z-0.362 F180
G1 X27.685 Y108.707 Z-0.364 F180
G1 X27.658 Y108.659 Z-0.366 F180
G1 X27.639 Y108.608 Z-0.368 F180
G1 X27.627 Y108.555 Z-0.37 F180
G1 X27.623 Y108.5 Z-0.371 F180
; MOVEMENT_CUTTING
G1 Y41 F600
G3 X41 Y27.623 I13.377 F600
G1 X108.5 F600
G3 X121.877 Y41 J13.377 F600
G1 Y108.5 F600
G3 X108.5 Y121.877 I-13.377 F600
G1 X41 F600
G3 X27.623 Y108.5 J-13.377 F600
; MOVEMENT_LINK_TRANSITION
G2 X27.41 Y108.18 I-0.346 F600
G3 X27.197 Y107.861 I0.133 J-0.32 F600
; MOVEMENT_CUTTING
G1 Y41 F600
G3 X41 Y27.197 I13.803 F600
G1 X108.5 F600
G3 X122.303 Y41 J13.803 F600
G1 Y108.5 F600
G3 X108.5 Y122.303 I-13.803 F600
G1 X41 F600
G3 X27.197 Y108.5 J-13.803 F600
G1 Y107.861 F600
; MOVEMENT_LEAD_OUT
G1 Y107.836 Z-0.368 F600
G1 Y107.814 Z-0.356 F600
G1 Y107.796 Z-0.339 F600
G1 Y107.785 Z-0.317 F600
G1 Y107.781 Z-0.292 F600
; MOVEMENT_CUTTING
G1 Z5 F600
G1 X108.526 Y121.534 F600
; MOVEMENT_PLUNGE
G1 Z0.02 F333
; MOVEMENT_LEAD_IN
G1 Z-0.027 F600
G1 Z-0.292 F600
G1 X108.525 Y121.531 Z-0.317 F600
G1 X108.521 Y121.52 Z-0.339 F600
G1 X108.516 Y121.503 Z-0.356 F600
G1 X108.508 Y121.482 Z-0.368 F600
G1 X108.5 Y121.459 Z-0.371 F600
; MOVEMENT_LINK_TRANSITION
G1 X108.468 Y121.369 F600
G3 X108.5 Y121.323 I0.032 J-0.012 F600
; MOVEMENT_CUTTING
G2 X121.323 Y108.5 J-12.823 F600
G1 Y41 F600
G2 X108.5 Y28.177 I-12.823 F600
G1 X41 F600
G2 X28.177 Y41 J12.823 F600
G1 Y108.5 F600
G2 X41 Y121.323 I12.823 F600
G1 X108.5 F600
; MOVEMENT_LINK_TRANSITION
G2 X108.822 Y121.106 J-0.348 F600
G3 X109.139 Y120.88 I0.335 J0.136 F600
; MOVEMENT_CUTTING
G2 X120.897 Y108.5 I-0.639 J-12.38 F600
G1 Y41 F600
G2 X108.5 Y28.603 I-12.397 F600
G1 X41 F600
G2 X28.603 Y41 J12.397 F600
G1 Y108.5 F600
G2 X41 Y120.897 I12.397 F600
G1 X108.5 F600
G2 X109.139 Y120.88 J-12.397 F600
; MOVEMENT_LINK_TRANSITION
G3 X109.206 Y121.272 I0.01 J0.2 F600
G1 X109.021 Y121.326 F600
G2 X108.877 Y121.512 I0.056 J0.192 F600
; MOVEMENT_RAMP_HELIX
G1 X108.871 Y121.566 Z-0.373 F180
G1 X108.858 Y121.619 Z-0.375 F180
G1 X108.836 Y121.67 Z-0.377 F180
G1 X108.808 Y121.717 Z-0.379 F180
G1 X108.774 Y121.759 Z-0.381 F180
G1 X108.733 Y121.796 Z-0.383 F180
G1 X108.688 Y121.827 Z-0.385 F180
G1 X108.638 Y121.851 Z-0.387 F180
G1 X108.586 Y121.867 Z-0.389 F180
G1 X108.532 Y121.876 Z-0.391 F180
G1 X108.477 Z-0.392 F180
G1 X108.423 Y121.869 Z-0.394 F180
G1 X108.37 Y121.854 Z-0.396 F180
G1 X108.32 Y121.831 Z-0.398 F180
G1 X108.274 Y121.802 Z-0.4 F180
G1 X108.233 Y121.766 Z-0.402 F180
G1 X108.197 Y121.724 Z-0.404 F180
G1 X108.168 Y121.678 Z-0.406 F180
G1 X108.145 Y121.628 Z-0.408 F180
G1 X108.131 Y121.575 Z-0.41 F180
G1 X108.124 Y121.521 Z-0.412 F180
G1 Y121.466 Z-0.414 F180
G1 X108.133 Y121.412 Z-0.415 F180
G1 X108.15 Y121.36 Z-0.417 F180
G1 X108.174 Y121.311 Z-0.419 F180
G1 X108.205 Y121.265 Z-0.421 F180
G1 X108.242 Y121.225 Z-0.423 F180
G1 X108.284 Y121.191 Z-0.425 F180
G1 X108.331 Y121.163 Z-0.427 F180
G1 X108.382 Y121.142 Z-0.429 F180
G1 X108.435 Y121.128 Z-0.431 F180
G1 X108.49 Y121.123 Z-0.433 F180
G1 X108.544 Y121.125 Z-0.435 F180
G1 X108.598 Y121.136 Z-0.437 F180
G1 X108.65 Y121.154 Z-0.438 F180
G1 X108.698 Y121.179 Z-0.44 F180
G1 X108.743 Y121.211 Z-0.442 F180
G1 X108.782 Y121.25 Z-0.444 F180
G1 X108.815 Y121.293 Z-0.446 F180
G1 X108.842 Y121.341 Z-0.448 F180
G1 X108.861 Y121.392 Z-0.45 F180
G1 X108.873 Y121.446 Z-0.452 F180
G1 X108.877 Y121.5 Z-0.454 F180
G1 X108.873 Y121.555 Z-0.456 F180
G1 X108.861 Y121.609 Z-0.458 F180
G1 X108.841 Y121.66 Z-0.459 F180
G1 X108.815 Y121.707 Z-0.461 F180
G1 X108.781 Y121.751 Z-0.463 F180
G1 X108.742 Y121.789 Z-0.465 F180
G1 X108.698 Y121.821 Z-0.467 F180
G1 X108.649 Y121.846 Z-0.469 F180
G1 X108.597 Y121.864 Z-0.471 F180
G1 X108.543 Y121.874 Z-0.473 F180
G1 X108.489 Y121.877 Z-0.475 F180
G1 X108.434 Y121.871 Z-0.477 F180
G1 X108.381 Y121.858 Z-0.479 F180
G1 X108.33 Y121.837 Z-0.481 F180
G1 X108.283 Y121.808 Z-0.482 F180
G1 X108.241 Y121.774 Z-0.484 F180
G1 X108.204 Y121.733 Z-0.486 F180
G1 X108.173 Y121.688 Z-0.488 F180
G1 X108.149 Y121.639 Z-0.49 F180
G1 X108.133 Y121.586 Z-0.492 F180
G1 X108.124 Y121.532 Z-0.494 F180
G1 Y121.478 Z-0.496 F180
G1 X108.131 Y121.423 Z-0.498 F180
G1 X108.146 Y121.371 Z-0.5 F180
G1 X108.168 Y121.321 Z-0.502 F180
G1 X108.198 Y121.274 Z-0.504 F180
G1 X108.234 Y121.233 Z-0.505 F180
G1 X108.275 Y121.197 Z-0.507 F180
G1 X108.321 Y121.168 Z-0.509 F180
G1 X108.371 Y121.145 Z-0.511 F180
G1 X108.424 Y121.131 Z-0.513 F180
G1 X108.478 Y121.123 Z-0.515 F180
G1 X108.533 Y121.124 Z-0.517 F180
G1 X108.587 Y121.133 Z-0.519 F180
G1 X108.639 Y121.15 Z-0.521 F180
G1 X108.689 Y121.173 Z-0.523 F180
G1 X108.734 Y121.204 Z-0.525 F180
G1 X108.774 Y121.241 Z-0.527 F180
G1 X108.809 Y121.284 Z-0.528 F180
G1 X108.837 Y121.331 Z-0.53 F180
G1 X108.858 Y121.381 Z-0.532 F180
G1 X108.871 Y121.435 Z-0.534 F180
G1 X108.877 Y121.489 Z-0.536 F180
G1 X108.874 Y121.544 Z-0.538 F180
G1 X108.864 Y121.598 Z-0.54 F180
G1 X108.846 Y121.649 Z-0.542 F180
G1 X108.821 Y121.698 Z-0.544 F180
G1 X108.789 Y121.742 Z-0.546 F180
G1 X108.751 Y121.782 Z-0.548 F180
G1 X108.707 Y121.815 Z-0.549 F180
G1 X108.659 Y121.842 Z-0.551 F180
G1 X108.608 Y121.861 Z-0.553 F180
G1 X108.555 Y121.873 Z-0.555 F180
