;Fusion CAM 2.0.20494
; Posts processor: MPCNC.cps
; Gcode generated: Monday, October 28, 2024 11:38:35 PM GMT
; Document: test v22
; Setup: Rear Bore
;When using Fusion for Personal Use, the feedrate of rapid
;moves is reduced to match the feedrate of cutting moves,
;which can increase machining time. Unrestricted rapid moves
;are available with a Fusion Subscription.
; 
; Ranges Table:
;   X: Min=21.721 Max=127.779 Size=106.057
;   Y: Min=21.721 Max=127.778 Size=106.057
;   Z: Min=-12 Max=10 Size=22
; 
; Tools Table:
;  T2 D=3.175 CR=0 - ZMIN=-12 - flat end mill 
; 
; Feedrate and Scaling Properties:
;   Feed: Travel speed X/Y = 2500
;   Feed: Travel Speed Z = 300
;   Feed: Enforce Feedrate = true
;   Feed: Scale Feedrate = false
;   Feed: Max XY Cut Speed = 1080
;   Feed: Max Z Cut Speed = 330
;   Feed: Max Toolpath Speed = 1000
; 
; G1->G0 Mapping Properties:
;   Map: First G1 -> G0 Rapid = false
;   Map: G1s -> G0 Rapids = false
;   Map: SafeZ Mode = Retract : default = 15
;   Map: Allow Rapid Z = false
; 
; *** START begin ***
;   Set Absolute Positioning
;   Units = mm
;   Disable stepper timeout
G90
G21
M84 S0
; COMMAND_TOOL_MEASURE
; Probe to Zero Z
;   Ask User to Attach the Z Probe
;   Do Probing
;   Set Z to probe thickness: Z14
;   Retract the tool to 20
;   Ask User to Remove the Z Probe
M0 Attach ZProbe
G28 Z
G92 Z14
G0 Z20 F300
M400
M0 Detach ZProbe
; *** START end ***
; 
; *** SECTION begin ***
;   X Min: 21.721 - X Max: 127.779
;   Y Min: 21.721 - Y Max: 127.778
;   Z Min: -12 - Z Max: 10
; Bore1 - Milling - Tool: 2 -  flat end mill
; COMMAND_START_SPINDLE
; COMMAND_SPINDLE_CLOCKWISE
; >>> Spindle Speed: Manual
M0 Turn ON 18000RPM
; COMMAND_COOLANT_ON
M117  Bore1
; MOVEMENT_CUTTING
G1 X127.7 Y66.841 Z10 F1080
G1 Z1.683 F1080
; MOVEMENT_LEAD_IN
G1 Z0 F1080
G1 X127.739 Y66.801 F1080
G3 X127.779 Y66.841 J0.039 F1080
; MOVEMENT_CUTTING
G1 X127.775 Y66.865 Z-0.006 F1080
G1 X127.763 Y66.888 Z-0.012 F1080
G1 X127.745 Y66.905 Z-0.018 F1080
G1 X127.723 Y66.916 Z-0.024 F1080
G1 X127.698 Y66.919 Z-0.03 F1080
G1 X127.673 Y66.915 Z-0.036 F1080
G1 X127.651 Y66.902 Z-0.041 F1080
G1 X127.635 Y66.884 Z-0.047 F1080
G1 X127.624 Y66.861 Z-0.053 F1080
G1 X127.622 Y66.837 Z-0.059 F1080
G1 X127.627 Y66.812 Z-0.065 F1080
G1 X127.64 Y66.791 Z-0.071 F1080
G1 X127.658 Y66.774 Z-0.077 F1080
G1 X127.681 Y66.764 Z-0.083 F1080
G1 X127.706 Y66.762 Z-0.089 F1080
G1 X127.731 Y66.768 Z-0.095 F1080
G1 X127.752 Y66.782 Z-0.101 F1080
G1 X127.768 Y66.801 Z-0.107 F1080
G1 X127.777 Y66.824 Z-0.112 F1080
G1 X127.778 Y66.849 Z-0.118 F1080
G1 X127.771 Y66.873 Z-0.124 F1080
G1 X127.758 Y66.894 Z-0.13 F1080
G1 X127.738 Y66.909 Z-0.136 F1080
G1 X127.714 Y66.918 Z-0.142 F1080
G1 X127.689 Y66.919 Z-0.148 F1080
G1 X127.666 Y66.911 Z-0.154 F1080
G1 X127.645 Y66.897 Z-0.16 F1080
G1 X127.63 Y66.877 Z-0.166 F1080
G1 X127.622 Y66.853 Z-0.172 F1080
G1 X127.623 Y66.828 Z-0.178 F1080
G1 X127.63 Y66.804 Z-0.183 F1080
G1 X127.645 Y66.784 Z-0.189 F1080
G1 X127.666 Y66.77 Z-0.195 F1080
G1 X127.69 Y66.763 Z-0.201 F1080
G1 X127.715 Y66.764 Z-0.207 F1080
G1 X127.738 Y66.772 Z-0.213 F1080
G1 X127.758 Y66.788 Z-0.219 F1080
G1 X127.772 Y66.808 Z-0.225 F1080
G1 X127.778 Y66.832 Z-0.231 F1080
G1 X127.777 Y66.857 Z-0.237 F1080
G1 X127.768 Y66.881 Z-0.243 F1080
G1 X127.752 Y66.9 Z-0.249 F1080
G1 X127.73 Y66.913 Z-0.254 F1080
G1 X127.706 Y66.919 Z-0.26 F1080
G1 X127.681 Y66.917 Z-0.266 F1080
G1 X127.658 Y66.907 Z-0.272 F1080
G1 X127.639 Y66.891 Z-0.278 F1080
G1 X127.627 Y66.869 Z-0.284 F1080
G1 X127.622 Y66.845 Z-0.29 F1080
G1 X127.624 Y66.82 Z-0.296 F1080
G1 X127.635 Y66.797 Z-0.302 F1080
G1 X127.652 Y66.779 Z-0.308 F1080
G1 X127.674 Y66.767 Z-0.314 F1080
G1 X127.698 Y66.762 Z-0.32 F1080
G1 X127.723 Y66.766 Z-0.325 F1080
G1 X127.745 Y66.777 Z-0.331 F1080
G1 X127.763 Y66.794 Z-0.337 F1080
G1 X127.775 Y66.816 Z-0.343 F1080
G1 X127.779 Y66.841 Z-0.349 F1080
G1 X127.774 Y66.866 Z-0.355 F1080
G1 X127.763 Y66.888 Z-0.361 F1080
G1 X127.745 Y66.905 Z-0.367 F1080
G1 X127.722 Y66.916 Z-0.373 F1080
G1 X127.698 Y66.919 Z-0.379 F1080
G1 X127.673 Y66.914 Z-0.385 F1080
G1 X127.651 Y66.902 Z-0.391 F1080
G1 X127.634 Y66.884 Z-0.396 F1080
G1 X127.624 Y66.861 Z-0.402 F1080
G1 X127.622 Y66.836 Z-0.408 F1080
G1 X127.627 Y66.812 Z-0.414 F1080
G1 X127.64 Y66.79 Z-0.42 F1080
G1 X127.659 Y66.774 Z-0.426 F1080
G1 X127.682 Y66.764 Z-0.432 F1080
G1 X127.706 Y66.762 Z-0.438 F1080
G1 X127.731 Y66.768 Z-0.444 F1080
G1 X127.752 Y66.782 Z-0.45 F1080
G1 X127.768 Y66.801 Z-0.456 F1080
G1 X127.777 Y66.824 Z-0.462 F1080
G1 X127.778 Y66.849 Z-0.467 F1080
G1 X127.771 Y66.873 Z-0.473 F1080
G1 X127.758 Y66.894 Z-0.479 F1080
G1 X127.738 Y66.91 Z-0.485 F1080
G1 X127.714 Y66.918 Z-0.491 F1080
G1 X127.689 Z-0.497 F1080
G1 X127.665 Y66.911 Z-0.503 F1080
G1 X127.645 Y66.897 Z-0.509 F1080
G1 X127.63 Y66.877 Z-0.515 F1080
G1 X127.622 Y66.853 Z-0.521 F1080
G1 X127.623 Y66.828 Z-0.527 F1080
G1 X127.63 Y66.804 Z-0.533 F1080
G1 X127.645 Y66.784 Z-0.538 F1080
G1 X127.666 Y66.77 Z-0.544 F1080
G1 X127.69 Y66.763 Z-0.55 F1080
G1 X127.715 Y66.764 Z-0.556 F1080
G1 X127.738 Y66.772 Z-0.562 F1080
G1 X127.758 Y66.788 Z-0.568 F1080
G1 X127.772 Y66.809 Z-0.574 F1080
G1 X127.778 Y66.833 Z-0.58 F1080
G1 X127.777 Y66.858 Z-0.586 F1080
G1 X127.767 Y66.881 Z-0.592 F1080
G1 X127.751 Y66.9 Z-0.598 F1080
G1 X127.73 Y66.913 Z-0.604 F1080
G1 X127.706 Y66.919 Z-0.609 F1080
G1 X127.681 Y66.917 Z-0.615 F1080
G1 X127.658 Y66.907 Z-0.621 F1080
G1 X127.639 Y66.891 Z-0.627 F1080
G1 X127.627 Y66.869 Z-0.633 F1080
G1 X127.622 Y66.845 Z-0.639 F1080
G1 X127.624 Y66.82 Z-0.645 F1080
G1 X127.635 Y66.797 Z-0.651 F1080
G1 X127.652 Y66.779 Z-0.657 F1080
G1 X127.674 Y66.767 Z-0.663 F1080
G1 X127.698 Y66.762 Z-0.669 F1080
G1 X127.723 Y66.766 Z-0.675 F1080
G1 X127.745 Y66.777 Z-0.68 F1080
G1 X127.763 Y66.794 Z-0.686 F1080
G1 X127.775 Y66.816 Z-0.692 F1080
G1 X127.779 Y66.841 Z-0.698 F1080
G1 X127.774 Y66.866 Z-0.704 F1080
G1 X127.763 Y66.888 Z-0.71 F1080
G1 X127.745 Y66.905 Z-0.716 F1080
G1 X127.722 Y66.916 Z-0.722 F1080
G1 X127.698 Y66.919 Z-0.728 F1080
G1 X127.673 Y66.914 Z-0.734 F1080
G1 X127.651 Y66.902 Z-0.74 F1080
G1 X127.634 Y66.884 Z-0.746 F1080
G1 X127.624 Y66.861 Z-0.751 F1080
G1 X127.622 Y66.836 Z-0.757 F1080
G1 X127.627 Y66.812 Z-0.763 F1080
G1 X127.64 Y66.79 Z-0.769 F1080
G1 X127.659 Y66.774 Z-0.775 F1080
G1 X127.682 Y66.764 Z-0.781 F1080
G1 X127.707 Y66.762 Z-0.787 F1080
G1 X127.731 Y66.769 Z-0.793 F1080
G1 X127.752 Y66.782 Z-0.799 F1080
G1 X127.768 Y66.801 Z-0.805 F1080
G1 X127.777 Y66.825 Z-0.811 F1080
G1 X127.778 Y66.849 Z-0.817 F1080
G1 X127.771 Y66.874 Z-0.822 F1080
G1 X127.757 Y66.894 Z-0.828 F1080
G1 X127.738 Y66.91 Z-0.834 F1080
G1 X127.714 Y66.918 Z-0.84 F1080
G1 X127.689 Z-0.846 F1080
G1 X127.665 Y66.911 Z-0.852 F1080
G1 X127.645 Y66.897 Z-0.858 F1080
G1 X127.63 Y66.876 Z-0.864 F1080
G1 X127.622 Y66.853 Z-0.87 F1080
G1 X127.623 Y66.828 Z-0.876 F1080
G1 X127.631 Y66.804 Z-0.882 F1080
G1 X127.646 Y66.784 Z-0.888 F1080
G1 X127.666 Y66.77 Z-0.893 F1080
G1 X127.69 Y66.763 Z-0.899 F1080
G1 X127.715 Y66.764 Z-0.905 F1080
G1 X127.738 Y66.772 Z-0.911 F1080
G1 X127.758 Y66.788 Z-0.917 F1080
G1 X127.772 Y66.809 Z-0.923 F1080
G1 X127.778 Y66.833 Z-0.929 F1080
G1 X127.777 Y66.858 Z-0.935 F1080
G1 X127.767 Y66.881 Z-0.941 F1080
G1 X127.751 Y66.9 Z-0.947 F1080
G1 X127.73 Y66.913 Z-0.953 F1080
G1 X127.706 Y66.919 Z-0.959 F1080
G1 X127.681 Y66.917 Z-0.964 F1080
G1 X127.658 Y66.907 Z-0.97 F1080
G1 X127.639 Y66.89 Z-0.976 F1080
G1 X127.627 Y66.869 Z-0.982 F1080
G1 X127.622 Y66.844 Z-0.988 F1080
G1 X127.624 Y66.82 Z-0.994 F1080
G1 X127.635 Y66.797 Z-1 F1080
G1 X127.652 Y66.779 Z-1.006 F1080
G1 X127.674 Y66.767 Z-1.012 F1080
G1 X127.698 Y66.762 Z-1.018 F1080
G1 X127.723 Y66.766 Z-1.024 F1080
G1 X127.746 Y66.777 Z-1.03 F1080
G1 X127.763 Y66.794 Z-1.036 F1080
G1 X127.775 Y66.817 Z-1.041 F1080
G1 X127.779 Y66.841 Z-1.047 F1080
G1 X127.774 Y66.866 Z-1.053 F1080
G1 X127.763 Y66.888 Z-1.059 F1080
G1 X127.745 Y66.905 Z-1.065 F1080
G1 X127.722 Y66.916 Z-1.071 F1080
G1 X127.697 Y66.919 Z-1.077 F1080
G1 X127.673 Y66.914 Z-1.083 F1080
G1 X127.651 Y66.902 Z-1.089 F1080
G1 X127.634 Y66.884 Z-1.095 F1080
G1 X127.624 Y66.861 Z-1.101 F1080
G1 X127.622 Y66.836 Z-1.107 F1080
G1 X127.627 Y66.812 Z-1.112 F1080
G1 X127.64 Y66.79 Z-1.118 F1080
G1 X127.659 Y66.774 Z-1.124 F1080
G1 X127.682 Y66.764 Z-1.13 F1080
G1 X127.707 Y66.763 Z-1.136 F1080
G1 X127.731 Y66.769 Z-1.142 F1080
G1 X127.752 Y66.782 Z-1.148 F1080
G1 X127.768 Y66.801 Z-1.154 F1080
G1 X127.777 Y66.825 Z-1.16 F1080
G1 X127.778 Y66.85 Z-1.166 F1080
G1 X127.771 Y66.874 Z-1.172 F1080
G1 X127.757 Y66.894 Z-1.178 F1080
G1 X127.737 Y66.91 Z-1.183 F1080
G1 X127.714 Y66.918 Z-1.189 F1080
G1 X127.689 Z-1.195 F1080
G1 X127.665 Y66.911 Z-1.201 F1080
G1 X127.645 Y66.897 Z-1.207 F1080
G1 X127.63 Y66.876 Z-1.213 F1080
G1 X127.622 Y66.853 Z-1.219 F1080
G1 X127.623 Y66.828 Z-1.225 F1080
G1 X127.631 Y66.804 Z-1.231 F1080
G1 X127.646 Y66.784 Z-1.237 F1080
G1 X127.666 Y66.77 Z-1.243 F1080
G1 X127.69 Y66.763 Z-1.249 F1080
G1 X127.715 Y66.764 Z-1.254 F1080
G1 X127.739 Y66.772 Z-1.26 F1080
G1 X127.758 Y66.788 Z-1.266 F1080
G1 X127.772 Y66.809 Z-1.272 F1080
G1 X127.778 Y66.833 Z-1.278 F1080
G1 X127.777 Y66.858 Z-1.284 F1080
G1 X127.767 Y66.881 Z-1.29 F1080
G1 X127.751 Y66.9 Z-1.296 F1080
G1 X127.73 Y66.913 Z-1.302 F1080
G1 X127.706 Y66.919 Z-1.308 F1080
G1 X127.681 Y66.917 Z-1.314 F1080
G1 X127.658 Y66.907 Z-1.32 F1080
G1 X127.639 Y66.89 Z-1.325 F1080
G1 X127.627 Y66.869 Z-1.331 F1080
G1 X127.622 Y66.844 Z-1.337 F1080
G1 X127.624 Y66.819 Z-1.343 F1080
G1 X127.635 Y66.797 Z-1.349 F1080
G1 X127.652 Y66.779 Z-1.355 F1080
G1 X127.674 Y66.767 Z-1.361 F1080
G1 X127.699 Y66.762 Z-1.367 F1080
G1 X127.723 Y66.766 Z-1.373 F1080
G1 X127.746 Y66.777 Z-1.379 F1080
G1 X127.763 Y66.794 Z-1.385 F1080
G1 X127.775 Y66.817 Z-1.391 F1080
G1 X127.778 Y66.841 Z-1.396 F1080
G1 X127.774 Y66.866 Z-1.402 F1080
G1 X127.763 Y66.888 Z-1.408 F1080
G1 X127.744 Y66.905 Z-1.414 F1080
G1 X127.722 Y66.916 Z-1.42 F1080
G1 X127.697 Y66.919 Z-1.426 F1080
G1 X127.673 Y66.914 Z-1.432 F1080
G1 X127.651 Y66.902 Z-1.438 F1080
G1 X127.634 Y66.883 Z-1.444 F1080
G1 X127.624 Y66.861 Z-1.45 F1080
G1 X127.622 Y66.836 Z-1.456 F1080
G1 X127.627 Y66.811 Z-1.462 F1080
G1 X127.64 Y66.79 Z-1.467 F1080
G1 X127.659 Y66.774 Z-1.473 F1080
G1 X127.682 Y66.764 Z-1.479 F1080
G1 X127.707 Y66.763 Z-1.485 F1080
G1 X127.731 Y66.769 Z-1.491 F1080
G1 X127.752 Y66.782 Z-1.497 F1080
G1 X127.768 Y66.802 Z-1.503 F1080
G1 X127.777 Y66.825 Z-1.509 F1080
G1 X127.778 Y66.85 Z-1.515 F1080
G1 X127.771 Y66.874 Z-1.521 F1080
G1 X127.757 Y66.895 Z-1.527 F1080
G1 X127.737 Y66.91 Z-1.533 F1080
G1 X127.714 Y66.918 Z-1.538 F1080
G1 X127.689 Z-1.544 F1080
G1 X127.665 Y66.911 Z-1.55 F1080
G1 X127.645 Y66.896 Z-1.556 F1080
G1 X127.63 Y66.876 Z-1.562 F1080
G1 X127.622 Y66.852 Z-1.568 F1080
G1 X127.623 Y66.827 Z-1.574 F1080
G1 X127.631 Y66.804 Z-1.58 F1080
G1 X127.646 Y66.784 Z-1.586 F1080
G1 X127.666 Y66.77 Z-1.592 F1080
G1 X127.69 Y66.763 Z-1.598 F1080
G1 X127.715 Y66.764 Z-1.604 F1080
G1 X127.739 Y66.772 Z-1.609 F1080
G1 X127.758 Y66.788 Z-1.615 F1080
G1 X127.772 Y66.809 Z-1.621 F1080
G1 X127.778 Y66.833 Z-1.627 F1080
G1 X127.777 Y66.858 Z-1.633 F1080
G1 X127.767 Y66.881 Z-1.639 F1080
G1 X127.751 Y66.9 Z-1.645 F1080
G1 X127.73 Y66.913 Z-1.651 F1080
G1 X127.705 Y66.919 Z-1.657 F1080
G1 X127.68 Y66.917 Z-1.663 F1080
G1 X127.658 Y66.907 Z-1.669 F1080
G1 X127.639 Y66.89 Z-1.675 F1080
G1 X127.627 Y66.868 Z-1.68 F1080
G1 X127.622 Y66.844 Z-1.686 F1080
G1 X127.625 Y66.819 Z-1.692 F1080
G1 X127.635 Y66.797 Z-1.698 F1080
G1 X127.652 Y66.778 Z-1.704 F1080
G1 X127.674 Y66.767 Z-1.71 F1080
G1 X127.699 Y66.762 Z-1.716 F1080
G1 X127.724 Y66.766 Z-1.722 F1080
G1 X127.746 Y66.777 Z-1.728 F1080
G1 X127.764 Y66.795 Z-1.734 F1080
G1 X127.775 Y66.817 Z-1.74 F1080
G1 X127.778 Y66.842 Z-1.746 F1080
G1 X127.774 Y66.866 Z-1.751 F1080
G1 X127.762 Y66.888 Z-1.757 F1080
G1 X127.744 Y66.905 Z-1.763 F1080
G1 X127.722 Y66.916 Z-1.769 F1080
G1 X127.697 Y66.919 Z-1.775 F1080
G1 X127.672 Y66.914 Z-1.781 F1080
G1 X127.651 Y66.902 Z-1.787 F1080
G1 X127.634 Y66.883 Z-1.793 F1080
G1 X127.624 Y66.86 Z-1.799 F1080
G1 X127.622 Y66.836 Z-1.805 F1080
G1 X127.627 Y66.811 Z-1.811 F1080
G1 X127.64 Y66.79 Z-1.817 F1080
G1 X127.659 Y66.774 Z-1.822 F1080
G1 X127.682 Y66.764 Z-1.828 F1080
G1 X127.707 Y66.763 Z-1.834 F1080
G1 X127.731 Y66.769 Z-1.84 F1080
G1 X127.752 Y66.782 Z-1.846 F1080
G1 X127.768 Y66.802 Z-1.852 F1080
G1 X127.777 Y66.825 Z-1.858 F1080
G1 X127.778 Y66.85 Z-1.864 F1080
G1 X127.771 Y66.874 Z-1.87 F1080
G1 X127.757 Y66.895 Z-1.876 F1080
G1 X127.737 Y66.91 Z-1.882 F1080
G1 X127.714 Y66.918 Z-1.888 F1080
G1 X127.689 Z-1.893 F1080
G1 X127.665 Y66.911 Z-1.899 F1080
G1 X127.644 Y66.896 Z-1.905 F1080
G1 X127.63 Y66.876 Z-1.911 F1080
G1 X127.622 Y66.852 Z-1.917 F1080
G1 X127.623 Y66.827 Z-1.923 F1080
G1 X127.631 Y66.804 Z-1.929 F1080
G1 X127.646 Y66.784 Z-1.935 F1080
G1 X127.667 Y66.77 Z-1.941 F1080
G1 X127.691 Y66.763 Z-1.947 F1080
G1 X127.716 Y66.764 Z-1.953 F1080
G1 X127.739 Y66.773 Z-1.959 F1080
G1 X127.758 Y66.788 Z-1.964 F1080
G1 X127.772 Y66.809 Z-1.97 F1080
G1 X127.778 Y66.833 Z-1.976 F1080
G1 X127.776 Y66.858 Z-1.982 F1080
G1 X127.767 Y66.881 Z-1.988 F1080
G1 X127.751 Y66.9 Z-1.994 F1080
G1 X127.73 Y66.913 Z-2 F1080
G1 X127.705 Y66.919 Z-2.006 F1080
G1 X127.68 Y66.917 Z-2.012 F1080
G1 X127.657 Y66.907 Z-2.018 F1080
G1 X127.639 Y66.89 Z-2.024 F1080
G1 X127.626 Y66.868 Z-2.03 F1080
G1 X127.622 Y66.844 Z-2.036 F1080
G1 X127.625 Y66.819 Z-2.041 F1080
G1 X127.635 Y66.796 Z-2.047 F1080
G1 X127.652 Y66.778 Z-2.053 F1080
G1 X127.674 Y66.766 Z-2.059 F1080
G1 X127.699 Y66.762 Z-2.065 F1080
G1 X127.724 Y66.766 Z-2.071 F1080
G1 X127.746 Y66.777 Z-2.077 F1080
G1 X127.764 Y66.795 Z-2.083 F1080
G1 X127.775 Y66.817 Z-2.089 F1080
G1 X127.778 Y66.842 Z-2.095 F1080
G1 X127.774 Y66.866 Z-2.101 F1080
G1 X127.762 Y66.888 Z-2.107 F1080
G1 X127.744 Y66.906 Z-2.112 F1080
G1 X127.722 Y66.916 Z-2.118 F1080
G1 X127.697 Y66.919 Z-2.124 F1080
G1 X127.672 Y66.914 Z-2.13 F1080
G1 X127.651 Y66.902 Z-2.136 F1080
G1 X127.634 Y66.883 Z-2.142 F1080
G1 X127.624 Y66.86 Z-2.148 F1080
G1 X127.622 Y66.835 Z-2.154 F1080
G1 X127.627 Y66.811 Z-2.16 F1080
G1 X127.64 Y66.79 Z-2.166 F1080
G1 X127.659 Y66.774 Z-2.172 F1080
G1 X127.683 Y66.764 Z-2.178 F1080
G1 X127.707 Y66.763 Z-2.183 F1080
G1 X127.732 Y66.769 Z-2.189 F1080
G1 X127.753 Y66.782 Z-2.195 F1080
G1 X127.768 Y66.802 Z-2.201 F1080
G1 X127.777 Y66.825 Z-2.207 F1080
G1 X127.778 Y66.85 Z-2.213 F1080
G1 X127.771 Y66.874 Z-2.219 F1080
G1 X127.757 Y66.895 Z-2.225 F1080
G1 X127.737 Y66.91 Z-2.231 F1080
G1 X127.713 Y66.918 Z-2.237 F1080
G1 X127.688 Z-2.243 F1080
G1 X127.665 Y66.911 Z-2.249 F1080
G1 X127.644 Y66.896 Z-2.254 F1080
G1 X127.63 Y66.876 Z-2.26 F1080
G1 X127.622 Y66.852 Z-2.266 F1080
G1 X127.623 Y66.827 Z-2.272 F1080
G1 X127.631 Y66.803 Z-2.278 F1080
G1 X127.646 Y66.784 Z-2.284 F1080
G1 X127.667 Y66.77 Z-2.29 F1080
G1 X127.691 Y66.763 Z-2.296 F1080
G1 X127.716 Y66.764 Z-2.302 F1080
G1 X127.739 Y66.773 Z-2.308 F1080
G1 X127.759 Y66.788 Z-2.314 F1080
G1 X127.772 Y66.809 Z-2.32 F1080
G1 X127.778 Y66.834 Z-2.325 F1080
G1 X127.776 Y66.859 Z-2.331 F1080
G1 X127.767 Y66.882 Z-2.337 F1080
G1 X127.751 Y66.901 Z-2.343 F1080
G1 X127.729 Y66.914 Z-2.349 F1080
G1 X127.705 Y66.919 Z-2.355 F1080
G1 X127.68 Y66.917 Z-2.361 F1080
G1 X127.657 Y66.907 Z-2.367 F1080
G1 X127.639 Y66.89 Z-2.373 F1080
G1 X127.626 Y66.868 Z-2.379 F1080
G1 X127.622 Y66.844 Z-2.385 F1080
G1 X127.625 Y66.819 Z-2.391 F1080
G1 X127.635 Y66.796 Z-2.396 F1080
G1 X127.653 Y66.778 Z-2.402 F1080
G1 X127.675 Y66.766 Z-2.408 F1080
G1 X127.699 Y66.762 Z-2.414 F1080
G1 X127.724 Y66.766 Z-2.42 F1080
G1 X127.746 Y66.777 Z-2.426 F1080
G1 X127.764 Y66.795 Z-2.432 F1080
G1 X127.775 Y66.817 Z-2.438 F1080
G1 X127.778 Y66.842 Z-2.444 F1080
G1 X127.774 Y66.867 Z-2.45 F1080
G1 X127.762 Y66.889 Z-2.456 F1080
G1 X127.744 Y66.906 Z-2.462 F1080
G1 X127.721 Y66.916 Z-2.467 F1080
G1 X127.697 Y66.919 Z-2.473 F1080
G1 X127.672 Y66.914 Z-2.479 F1080
G1 X127.65 Y66.902 Z-2.485 F1080
G1 X127.634 Y66.883 Z-2.491 F1080
G1 X127.624 Y66.86 Z-2.497 F1080
G1 X127.622 Y66.835 Z-2.503 F1080
G1 X127.627 Y66.811 Z-2.509 F1080
G1 X127.64 Y66.79 Z-2.515 F1080
G1 X127.66 Y66.773 Z-2.521 F1080
G1 X127.683 Y66.764 Z-2.527 F1080
G1 X127.708 Y66.763 Z-2.533 F1080
G1 X127.732 Y66.769 Z-2.538 F1080
G1 X127.753 Y66.783 Z-2.544 F1080
G1 X127.768 Y66.802 Z-2.55 F1080
G1 X127.777 Y66.825 Z-2.556 F1080
G1 X127.778 Y66.85 Z-2.562 F1080
G1 X127.771 Y66.874 Z-2.568 F1080
G1 X127.757 Y66.895 Z-2.574 F1080
G1 X127.737 Y66.91 Z-2.58 F1080
G1 X127.713 Y66.918 Z-2.586 F1080
G1 X127.688 Z-2.592 F1080
G1 X127.664 Y66.911 Z-2.598 F1080
G1 X127.644 Y66.896 Z-2.604 F1080
G1 X127.63 Y66.876 Z-2.609 F1080
G1 X127.622 Y66.852 Z-2.615 F1080
G1 X127.623 Y66.827 Z-2.621 F1080
G1 X127.631 Y66.803 Z-2.627 F1080
G1 X127.646 Y66.783 Z-2.633 F1080
G1 X127.667 Y66.77 Z-2.639 F1080
G1 X127.691 Y66.763 Z-2.645 F1080
G1 X127.716 Y66.764 Z-2.651 F1080
G1 X127.739 Y66.773 Z-2.657 F1080
G1 X127.759 Y66.789 Z-2.663 F1080
G1 X127.772 Y66.81 Z-2.669 F1080
G1 X127.778 Y66.834 Z-2.675 F1080
G1 X127.776 Y66.859 Z-2.68 F1080
G1 X127.767 Y66.882 Z-2.686 F1080
G1 X127.751 Y66.901 Z-2.692 F1080
G1 X127.729 Y66.914 Z-2.698 F1080
G1 X127.705 Y66.919 Z-2.704 F1080
G1 X127.68 Y66.917 Z-2.71 F1080
G1 X127.657 Y66.906 Z-2.716 F1080
G1 X127.639 Y66.89 Z-2.722 F1080
G1 X127.626 Y66.868 Z-2.728 F1080
G1 X127.622 Y66.843 Z-2.734 F1080
G1 X127.625 Y66.819 Z-2.74 F1080
G1 X127.635 Y66.796 Z-2.746 F1080
G1 X127.653 Y66.778 Z-2.751 F1080
G1 X127.675 Y66.766 Z-2.757 F1080
G1 X127.699 Y66.762 Z-2.763 F1080
G1 X127.724 Y66.766 Z-2.769 F1080
G1 X127.746 Y66.777 Z-2.775 F1080
G1 X127.764 Y66.795 Z-2.781 F1080
G1 X127.775 Y66.817 Z-2.787 F1080
G1 X127.778 Y66.842 Z-2.793 F1080
G1 X127.774 Y66.867 Z-2.799 F1080
G1 X127.762 Y66.889 Z-2.805 F1080
G1 X127.744 Y66.906 Z-2.811 F1080
G1 X127.721 Y66.916 Z-2.817 F1080
G1 X127.696 Y66.919 Z-2.822 F1080
G1 X127.672 Y66.914 Z-2.828 F1080
G1 X127.65 Y66.902 Z-2.834 F1080
G1 X127.634 Y66.883 Z-2.84 F1080
G1 X127.624 Y66.86 Z-2.846 F1080
G1 X127.622 Y66.835 Z-2.852 F1080
G1 X127.627 Y66.811 Z-2.858 F1080
G1 X127.641 Y66.789 Z-2.864 F1080
G1 X127.66 Y66.773 Z-2.87 F1080
G1 X127.683 Y66.764 Z-2.876 F1080
G1 X127.708 Y66.763 Z-2.882 F1080
G1 X127.732 Y66.769 Z-2.888 F1080
G1 X127.753 Y66.783 Z-2.893 F1080
G1 X127.768 Y66.802 Z-2.899 F1080
G1 X127.777 Y66.826 Z-2.905 F1080
G1 X127.778 Y66.851 Z-2.911 F1080
G1 X127.771 Y66.875 Z-2.917 F1080
G1 X127.757 Y66.895 Z-2.923 F1080
G1 X127.737 Y66.91 Z-2.929 F1080
G1 X127.713 Y66.918 Z-2.935 F1080
G1 X127.688 Z-2.941 F1080
G1 X127.664 Y66.911 Z-2.947 F1080
G1 X127.644 Y66.896 Z-2.953 F1080
G1 X127.63 Y66.875 Z-2.959 F1080
G1 X127.622 Y66.852 Z-2.964 F1080
G1 X127.623 Y66.827 Z-2.97 F1080
G1 X127.631 Y66.803 Z-2.976 F1080
G1 X127.646 Y66.783 Z-2.982 F1080
G1 X127.667 Y66.769 Z-2.988 F1080
G1 X127.691 Y66.763 Z-2.994 F1080
G1 X127.716 Y66.764 Z-3 F1080
G1 X127.739 Y66.773 Z-3.006 F1080
G1 X127.759 Y66.789 Z-3.012 F1080
G1 X127.772 Y66.81 Z-3.018 F1080
G1 X127.778 Y66.834 Z-3.024 F1080
G1 X127.776 Y66.859 Z-3.03 F1080
G1 X127.767 Y66.882 Z-3.036 F1080
G1 X127.75 Y66.901 Z-3.041 F1080
G1 X127.729 Y66.914 Z-3.047 F1080
G1 X127.705 Y66.919 Z-3.053 F1080
G1 X127.68 Y66.917 Z-3.059 F1080
G1 X127.657 Y66.906 Z-3.065 F1080
G1 X127.639 Y66.89 Z-3.071 F1080
G1 X127.626 Y66.868 Z-3.077 F1080
G1 X127.622 Y66.843 Z-3.083 F1080
G1 X127.625 Y66.818 Z-3.089 F1080
G1 X127.636 Y66.796 Z-3.095 F1080
G1 X127.653 Y66.778 Z-3.101 F1080
G1 X127.675 Y66.766 Z-3.107 F1080
G1 X127.7 Y66.762 Z-3.112 F1080
G1 X127.724 Y66.766 Z-3.118 F1080
G1 X127.746 Y66.777 Z-3.124 F1080
G1 X127.764 Y66.795 Z-3.13 F1080
G1 X127.775 Y66.818 Z-3.136 F1080
G1 X127.778 Y66.842 Z-3.142 F1080
G1 X127.774 Y66.867 Z-3.148 F1080
G1 X127.762 Y66.889 Z-3.154 F1080
G1 X127.744 Y66.906 Z-3.16 F1080
G1 X127.721 Y66.916 Z-3.166 F1080
G1 X127.696 Y66.919 Z-3.172 F1080
G1 X127.672 Y66.914 Z-3.178 F1080
G1 X127.65 Y66.901 Z-3.183 F1080
G1 X127.634 Y66.883 Z-3.189 F1080
G1 X127.624 Y66.86 Z-3.195 F1080
G1 X127.622 Y66.835 Z-3.201 F1080
G1 X127.628 Y66.811 Z-3.207 F1080
G1 X127.641 Y66.789 Z-3.213 F1080
G1 X127.66 Y66.773 Z-3.219 F1080
G1 X127.683 Y66.764 Z-3.225 F1080
G1 X127.708 Y66.763 Z-3.231 F1080
G1 X127.732 Y66.769 Z-3.237 F1080
G1 X127.753 Y66.783 Z-3.243 F1080
G1 X127.769 Y66.802 Z-3.249 F1080
G1 X127.777 Y66.826 Z-3.254 F1080
G1 X127.778 Y66.851 Z-3.26 F1080
G1 X127.771 Y66.875 Z-3.266 F1080
G1 X127.756 Y66.895 Z-3.272 F1080
G1 X127.736 Y66.91 Z-3.278 F1080
G1 X127.713 Y66.918 Z-3.284 F1080
G1 X127.688 Z-3.29 F1080
G1 X127.664 Y66.911 Z-3.296 F1080
G1 X127.644 Y66.896 Z-3.302 F1080
G1 X127.63 Y66.875 Z-3.308 F1080
G1 X127.622 Y66.851 Z-3.314 F1080
G1 X127.623 Y66.826 Z-3.32 F1080
G1 X127.631 Y66.803 Z-3.325 F1080
G1 X127.647 Y66.783 Z-3.331 F1080
G1 X127.667 Y66.769 Z-3.337 F1080
G1 X127.691 Y66.763 Z-3.343 F1080
G1 X127.716 Y66.764 Z-3.349 F1080
G1 X127.74 Y66.773 Z-3.355 F1080
G1 X127.759 Y66.789 Z-3.361 F1080
G1 X127.772 Y66.81 Z-3.367 F1080
G1 X127.778 Y66.834 Z-3.373 F1080
G1 X127.776 Y66.859 Z-3.379 F1080
G1 X127.767 Y66.882 Z-3.385 F1080
G1 X127.75 Y66.901 Z-3.391 F1080
G1 X127.729 Y66.914 Z-3.396 F1080
G1 X127.704 Y66.919 Z-3.402 F1080
G1 X127.68 Y66.917 Z-3.408 F1080
G1 X127.657 Y66.906 Z-3.414 F1080
G1 X127.638 Y66.889 Z-3.42 F1080
G1 X127.626 Y66.868 Z-3.426 F1080
G1 X127.622 Y66.843 Z-3.432 F1080
G1 X127.625 Y66.818 Z-3.438 F1080
G1 X127.636 Y66.796 Z-3.444 F1080
G1 X127.653 Y66.778 Z-3.45 F1080
G1 X127.675 Y66.766 Z-3.456 F1080
G1 X127.7 Y66.762 Z-3.462 F1080
G1 X127.724 Y66.766 Z-3.467 F1080
G1 X127.747 Y66.778 Z-3.473 F1080
G1 X127.764 Y66.795 Z-3.479 F1080
G1 X127.775 Y66.818 Z-3.485 F1080
G1 X127.778 Y66.843 Z-3.491 F1080
G1 X127.774 Y66.867 Z-3.497 F1080
G1 X127.762 Y66.889 Z-3.503 F1080
G1 X127.744 Y66.906 Z-3.509 F1080
G1 X127.721 Y66.916 Z-3.515 F1080
G1 X127.696 Y66.919 Z-3.521 F1080
G1 X127.672 Y66.914 Z-3.527 F1080
G1 X127.65 Y66.901 Z-3.533 F1080
G1 X127.634 Y66.883 Z-3.538 F1080
G1 X127.624 Y66.86 Z-3.544 F1080
G1 X127.622 Y66.835 Z-3.55 F1080
G1 X127.628 Y66.81 Z-3.556 F1080
G1 X127.641 Y66.789 Z-3.562 F1080
G1 X127.66 Y66.773 Z-3.568 F1080
G1 X127.683 Y66.764 Z-3.574 F1080
G1 X127.708 Y66.763 Z-3.58 F1080
G1 X127.732 Y66.769 Z-3.586 F1080
G1 X127.753 Y66.783 Z-3.592 F1080
G1 X127.769 Y66.803 Z-3.598 F1080
G1 X127.777 Y66.826 Z-3.604 F1080
G1 X127.778 Y66.851 Z-3.609 F1080
G1 X127.771 Y66.875 Z-3.615 F1080
G1 X127.756 Y66.895 Z-3.621 F1080
G1 X127.736 Y66.91 Z-3.627 F1080
G1 X127.713 Y66.918 Z-3.633 F1080
G1 X127.688 Z-3.639 F1080
G1 X127.664 Y66.91 Z-3.645 F1080
G1 X127.644 Y66.896 Z-3.651 F1080
G1 X127.629 Y66.875 Z-3.657 F1080
G1 X127.622 Y66.851 Z-3.663 F1080
G1 X127.623 Y66.826 Z-3.669 F1080
G1 X127.631 Y66.803 Z-3.675 F1080
G1 X127.647 Y66.783 Z-3.68 F1080
G1 X127.667 Y66.769 Z-3.686 F1080
G1 X127.692 Y66.763 Z-3.692 F1080
G1 X127.716 Y66.764 Z-3.698 F1080
G1 X127.74 Y66.773 Z-3.704 F1080
G1 X127.759 Y66.789 Z-3.71 F1080
G1 X127.772 Y66.81 Z-3.716 F1080
G1 X127.778 Y66.834 Z-3.722 F1080
G1 X127.776 Y66.859 Z-3.728 F1080
G1 X127.767 Y66.882 Z-3.734 F1080
G1 X127.75 Y66.901 Z-3.74 F1080
G1 X127.729 Y66.914 Z-3.746 F1080
G1 X127.704 Y66.919 Z-3.751 F1080
G1 X127.679 Y66.916 Z-3.757 F1080
G1 X127.657 Y66.906 Z-3.763 F1080
G1 X127.638 Y66.889 Z-3.769 F1080
G1 X127.626 Y66.867 Z-3.775 F1080
G1 X127.622 Y66.843 Z-3.781 F1080
G1 X127.625 Y66.818 Z-3.787 F1080
G1 X127.636 Y66.796 Z-3.793 F1080
G1 X127.653 Y66.778 Z-3.799 F1080
G1 X127.675 Y66.766 Z-3.805 F1080
G1 X127.7 Y66.762 Z-3.811 F1080
G1 X127.725 Y66.766 Z-3.817 F1080
G1 X127.747 Y66.778 Z-3.822 F1080
G1 X127.764 Y66.796 Z-3.828 F1080
G1 X127.775 Y66.818 Z-3.834 F1080
G1 X127.778 Y66.843 Z-3.84 F1080
G1 X127.774 Y66.867 Z-3.846 F1080
G1 X127.762 Y66.889 Z-3.852 F1080
G1 X127.743 Y66.906 Z-3.858 F1080
G1 X127.721 Y66.916 Z-3.864 F1080
G1 X127.696 Y66.919 Z-3.87 F1080
G1 X127.671 Y66.914 Z-3.876 F1080
G1 X127.65 Y66.901 Z-3.882 F1080
G1 X127.633 Y66.882 Z-3.888 F1080
G1 X127.624 Y66.859 Z-3.893 F1080
G1 X127.622 Y66.834 Z-3.899 F1080
G1 X127.628 Y66.81 Z-3.905 F1080
G1 X127.641 Y66.789 Z-3.911 F1080
G1 X127.66 Y66.773 Z-3.917 F1080
G1 X127.683 Y66.764 Z-3.923 F1080
G1 X127.708 Y66.763 Z-3.929 F1080
G1 X127.732 Y66.769 Z-3.935 F1080
G1 X127.753 Y66.783 Z-3.941 F1080
G1 X127.769 Y66.803 Z-3.947 F1080
G1 X127.777 Y66.826 Z-3.953 F1080
G1 X127.778 Y66.851 Z-3.959 F1080
G1 X127.771 Y66.875 Z-3.964 F1080
G1 X127.756 Y66.896 Z-3.97 F1080
G1 X127.736 Y66.91 Z-3.976 F1080
G1 X127.712 Y66.918 Z-3.982 F1080
G1 X127.687 Z-3.988 F1080
G1 X127.664 Y66.91 Z-3.994 F1080
G1 X127.644 Y66.895 Z-4 F1080
G1 X127.629 Y66.875 Z-4.006 F1080
G1 X127.622 Y66.851 Z-4.012 F1080
G1 X127.623 Y66.826 Z-4.018 F1080
G1 X127.631 Y66.803 Z-4.024 F1080
G1 X127.647 Y66.783 Z-4.03 F1080
G1 X127.668 Y66.769 Z-4.036 F1080
G1 X127.692 Y66.763 Z-4.041 F1080
G1 X127.717 Y66.764 Z-4.047 F1080
G1 X127.74 Y66.773 Z-4.053 F1080
G1 X127.759 Y66.789 Z-4.059 F1080
G1 X127.772 Y66.81 Z-4.065 F1080
G1 X127.778 Y66.835 Z-4.071 F1080
G1 X127.776 Y66.859 Z-4.077 F1080
G1 X127.766 Y66.882 Z-4.083 F1080
G1 X127.75 Y66.901 Z-4.089 F1080
G1 X127.728 Y66.914 Z-4.095 F1080
G1 X127.704 Y66.919 Z-4.101 F1080
G1 X127.679 Y66.916 Z-4.107 F1080
G1 X127.656 Y66.906 Z-4.112 F1080
G1 X127.638 Y66.889 Z-4.118 F1080
G1 X127.626 Y66.867 Z-4.124 F1080
G1 X127.622 Y66.843 Z-4.13 F1080
G1 X127.625 Y66.818 Z-4.136 F1080
G1 X127.636 Y66.795 Z-4.142 F1080
G1 X127.653 Y66.778 Z-4.148 F1080
G1 X127.675 Y66.766 Z-4.154 F1080
G1 X127.7 Y66.762 Z-4.16 F1080
G1 X127.725 Y66.766 Z-4.166 F1080
G1 X127.747 Y66.778 Z-4.172 F1080
G1 X127.764 Y66.796 Z-4.178 F1080
G1 X127.775 Y66.818 Z-4.183 F1080
G1 X127.778 Y66.843 Z-4.189 F1080
G1 X127.774 Y66.868 Z-4.195 F1080
G1 X127.762 Y66.889 Z-4.201 F1080
G1 X127.743 Y66.906 Z-4.207 F1080
G1 X127.72 Y66.916 Z-4.213 F1080
G1 X127.696 Y66.919 Z-4.219 F1080
G1 X127.671 Y66.914 Z-4.225 F1080
G1 X127.65 Y66.901 Z-4.231 F1080
G1 X127.633 Y66.882 Z-4.237 F1080
G1 X127.624 Y66.859 Z-4.243 F1080
G1 X127.622 Y66.834 Z-4.249 F1080
G1 X127.628 Y66.81 Z-4.254 F1080
G1 X127.641 Y66.789 Z-4.26 F1080
G1 X127.66 Y66.773 Z-4.266 F1080
G1 X127.684 Y66.764 Z-4.272 F1080
G1 X127.709 Y66.763 Z-4.278 F1080
G1 X127.733 Y66.769 Z-4.284 F1080
G1 X127.753 Y66.783 Z-4.29 F1080
G1 X127.769 Y66.803 Z-4.296 F1080
G1 X127.777 Y66.826 Z-4.302 F1080
G1 X127.778 Y66.851 Z-4.308 F1080
G1 X127.77 Y66.875 Z-4.314 F1080
G1 X127.756 Y66.896 Z-4.32 F1080
G1 X127.736 Y66.91 Z-4.325 F1080
G1 X127.712 Y66.918 Z-4.331 F1080
G1 X127.687 Z-4.337 F1080
G1 X127.664 Y66.91 Z-4.343 F1080
G1 X127.644 Y66.895 Z-4.349 F1080
G1 X127.629 Y66.875 Z-4.355 F1080
G1 X127.622 Y66.851 Z-4.361 F1080
G1 X127.623 Y66.826 Z-4.367 F1080
G1 X127.631 Y66.802 Z-4.373 F1080
G1 X127.647 Y66.783 Z-4.379 F1080
G1 X127.668 Y66.769 Z-4.385 F1080
G1 X127.692 Y66.763 Z-4.391 F1080
G1 X127.717 Y66.764 Z-4.396 F1080
G1 X127.74 Y66.773 Z-4.402 F1080
G1 X127.759 Y66.789 Z-4.408 F1080
G1 X127.772 Y66.81 Z-4.414 F1080
G1 X127.778 Y66.835 Z-4.42 F1080
G1 X127.776 Y66.86 Z-4.426 F1080
G1 X127.766 Y66.883 Z-4.432 F1080
G1 X127.75 Y66.901 Z-4.438 F1080
G1 X127.728 Y66.914 Z-4.444 F1080
G1 X127.704 Y66.919 Z-4.45 F1080
G1 X127.679 Y66.916 Z-4.456 F1080
G1 X127.656 Y66.906 Z-4.462 F1080
G1 X127.638 Y66.889 Z-4.467 F1080
G1 X127.626 Y66.867 Z-4.473 F1080
G1 X127.622 Y66.842 Z-4.479 F1080
G1 X127.625 Y66.818 Z-4.485 F1080
G1 X127.636 Y66.795 Z-4.491 F1080
G1 X127.653 Y66.777 Z-4.497 F1080
G1 X127.676 Y66.766 Z-4.503 F1080
G1 X127.7 Y66.762 Z-4.509 F1080
G1 X127.725 Y66.766 Z-4.515 F1080
G1 X127.747 Y66.778 Z-4.521 F1080
G1 X127.764 Y66.796 Z-4.527 F1080
G1 X127.775 Y66.818 Z-4.533 F1080
G1 X127.778 Y66.843 Z-4.538 F1080
G1 X127.774 Y66.868 Z-4.544 F1080
G1 X127.762 Y66.889 Z-4.55 F1080
G1 X127.743 Y66.906 Z-4.556 F1080
G1 X127.72 Y66.917 Z-4.562 F1080
G1 X127.695 Y66.919 Z-4.568 F1080
G1 X127.671 Y66.914 Z-4.574 F1080
G1 X127.65 Y66.901 Z-4.58 F1080
G1 X127.633 Y66.882 Z-4.586 F1080
G1 X127.624 Y66.859 Z-4.592 F1080
G1 X127.622 Y66.834 Z-4.598 F1080
G1 X127.628 Y66.81 Z-4.604 F1080
G1 X127.641 Y66.789 Z-4.609 F1080
G1 X127.66 Y66.773 Z-4.615 F1080
G1 X127.684 Y66.764 Z-4.621 F1080
G1 X127.709 Y66.763 Z-4.627 F1080
G1 X127.733 Y66.769 Z-4.633 F1080
G1 X127.754 Y66.783 Z-4.639 F1080
G1 X127.769 Y66.803 Z-4.645 F1080
G1 X127.777 Y66.827 Z-4.651 F1080
G1 X127.778 Y66.852 Z-4.657 F1080
G1 X127.77 Y66.875 Z-4.663 F1080
G1 X127.756 Y66.896 Z-4.669 F1080
G1 X127.736 Y66.911 Z-4.675 F1080
G1 X127.712 Y66.918 Z-4.68 F1080
G1 X127.687 Z-4.686 F1080
G1 X127.663 Y66.91 Z-4.692 F1080
G1 X127.643 Y66.895 Z-4.698 F1080
G1 X127.629 Y66.875 Z-4.704 F1080
G1 X127.622 Y66.851 Z-4.71 F1080
G1 X127.623 Y66.826 Z-4.716 F1080
G1 X127.632 Y66.802 Z-4.722 F1080
G1 X127.647 Y66.783 Z-4.728 F1080
G1 X127.668 Y66.769 Z-4.734 F1080
G1 X127.692 Y66.763 Z-4.74 F1080
G1 X127.717 Y66.764 Z-4.746 F1080
G1 X127.74 Y66.773 Z-4.751 F1080
G1 X127.759 Y66.789 Z-4.757 F1080
G1 X127.773 Y66.811 Z-4.763 F1080
G1 X127.778 Y66.835 Z-4.769 F1080
G1 X127.776 Y66.86 Z-4.775 F1080
G1 X127.766 Y66.883 Z-4.781 F1080
G1 X127.75 Y66.901 Z-4.787 F1080
G1 X127.728 Y66.914 Z-4.793 F1080
G1 X127.704 Y66.919 Z-4.799 F1080
G1 X127.679 Y66.916 Z-4.805 F1080
G1 X127.656 Y66.906 Z-4.811 F1080
G1 X127.638 Y66.889 Z-4.817 F1080
G1 X127.626 Y66.867 Z-4.822 F1080
G1 X127.622 Y66.842 Z-4.828 F1080
G1 X127.625 Y66.818 Z-4.834 F1080
G1 X127.636 Y66.795 Z-4.84 F1080
G1 X127.654 Y66.777 Z-4.846 F1080
G1 X127.676 Y66.766 Z-4.852 F1080
G1 X127.701 Y66.762 Z-4.858 F1080
G1 X127.725 Y66.766 Z-4.864 F1080
G1 X127.747 Y66.778 Z-4.87 F1080
G1 X127.765 Y66.796 Z-4.876 F1080
G1 X127.775 Y66.819 Z-4.882 F1080
G1 X127.778 Y66.843 Z-4.888 F1080
G1 X127.774 Y66.868 Z-4.893 F1080
G1 X127.761 Y66.89 Z-4.899 F1080
G1 X127.743 Y66.906 Z-4.905 F1080
G1 X127.72 Y66.917 Z-4.911 F1080
G1 X127.695 Y66.919 Z-4.917 F1080
G1 X127.671 Y66.914 Z-4.923 F1080
G1 X127.649 Y66.901 Z-4.929 F1080
G1 X127.633 Y66.882 Z-4.935 F1080
G1 X127.624 Y66.859 Z-4.941 F1080
G1 X127.622 Y66.834 Z-4.947 F1080
G1 X127.628 Y66.81 Z-4.953 F1080
G1 X127.641 Y66.789 Z-4.959 F1080
G1 X127.661 Y66.773 Z-4.964 F1080
G1 X127.684 Y66.764 Z-4.97 F1080
G1 X127.709 Y66.763 Z-4.976 F1080
G1 X127.733 Y66.769 Z-4.982 F1080
G1 X127.754 Y66.783 Z-4.988 F1080
G1 X127.769 Y66.803 Z-4.994 F1080
G1 X127.777 Y66.827 Z-5 F1080
G1 X127.778 Y66.852 Z-5.006 F1080
G1 X127.77 Y66.876 Z-5.012 F1080
G1 X127.756 Y66.896 Z-5.018 F1080
G1 X127.736 Y66.911 Z-5.024 F1080
G1 X127.712 Y66.918 Z-5.03 F1080
G1 X127.687 Z-5.036 F1080
G1 X127.663 Y66.91 Z-5.041 F1080
G1 X127.643 Y66.895 Z-5.047 F1080
G1 X127.629 Y66.874 Z-5.053 F1080
G1 X127.622 Y66.851 Z-5.059 F1080
G1 X127.623 Y66.826 Z-5.065 F1080
G1 X127.632 Y66.802 Z-5.071 F1080
G1 X127.647 Y66.783 Z-5.077 F1080
G1 X127.668 Y66.769 Z-5.083 F1080
G1 X127.692 Y66.763 Z-5.089 F1080
G1 X127.717 Y66.764 Z-5.095 F1080
G1 X127.74 Y66.773 Z-5.101 F1080
G1 X127.76 Y66.79 Z-5.107 F1080
G1 X127.773 Y66.811 Z-5.112 F1080
G1 X127.778 Y66.835 Z-5.118 F1080
G1 X127.776 Y66.86 Z-5.124 F1080
G1 X127.766 Y66.883 Z-5.13 F1080
G1 X127.75 Y66.902 Z-5.136 F1080
G1 X127.728 Y66.914 Z-5.142 F1080
G1 X127.703 Y66.919 Z-5.148 F1080
G1 X127.679 Y66.916 Z-5.154 F1080
G1 X127.656 Y66.906 Z-5.16 F1080
G1 X127.638 Y66.889 Z-5.166 F1080
G1 X127.626 Y66.867 Z-5.172 F1080
G1 X127.622 Y66.842 Z-5.178 F1080
G1 X127.625 Y66.817 Z-5.183 F1080
G1 X127.636 Y66.795 Z-5.189 F1080
G1 X127.654 Y66.777 Z-5.195 F1080
G1 X127.676 Y66.766 Z-5.201 F1080
G1 X127.701 Y66.762 Z-5.207 F1080
G1 X127.725 Y66.766 Z-5.213 F1080
G1 X127.747 Y66.778 Z-5.219 F1080
G1 X127.765 Y66.796 Z-5.225 F1080
G1 X127.775 Y66.819 Z-5.231 F1080
G1 X127.778 Y66.844 Z-5.237 F1080
G1 X127.774 Y66.868 Z-5.243 F1080
G1 X127.761 Y66.89 Z-5.249 F1080
G1 X127.743 Y66.907 Z-5.254 F1080
G1 X127.72 Y66.917 Z-5.26 F1080
G1 X127.695 Y66.919 Z-5.266 F1080
G1 X127.671 Y66.914 Z-5.272 F1080
G1 X127.649 Y66.901 Z-5.278 F1080
G1 X127.633 Y66.882 Z-5.284 F1080
G1 X127.624 Y66.859 Z-5.29 F1080
G1 X127.622 Y66.834 Z-5.296 F1080
G1 X127.628 Y66.809 Z-5.302 F1080
G1 X127.641 Y66.788 Z-5.308 F1080
G1 X127.661 Y66.773 Z-5.314 F1080
G1 X127.684 Y66.764 Z-5.32 F1080
G1 X127.709 Y66.763 Z-5.325 F1080
G1 X127.733 Y66.77 Z-5.331 F1080
G1 X127.754 Y66.784 Z-5.337 F1080
G1 X127.769 Y66.803 Z-5.343 F1080
G1 X127.777 Y66.827 Z-5.349 F1080
G1 X127.778 Y66.852 Z-5.355 F1080
G1 X127.77 Y66.876 Z-5.361 F1080
G1 X127.756 Y66.896 Z-5.367 F1080
G1 X127.735 Y66.911 Z-5.373 F1080
G1 X127.712 Y66.918 Z-5.379 F1080
G1 X127.687 Z-5.385 F1080
G1 X127.663 Y66.91 Z-5.391 F1080
G1 X127.643 Y66.895 Z-5.396 F1080
G1 X127.629 Y66.874 Z-5.402 F1080
G1 X127.622 Y66.85 Z-5.408 F1080
G1 X127.623 Y66.825 Z-5.414 F1080
G1 X127.632 Y66.802 Z-5.42 F1080
G1 X127.647 Y66.782 Z-5.426 F1080
G1 X127.668 Y66.769 Z-5.432 F1080
G1 X127.692 Y66.763 Z-5.438 F1080
G1 X127.717 Y66.764 Z-5.444 F1080
G1 X127.741 Y66.774 Z-5.45 F1080
G1 X127.76 Y66.79 Z-5.456 F1080
G1 X127.773 Y66.811 Z-5.462 F1080
G1 X127.778 Y66.835 Z-5.467 F1080
G1 X127.776 Y66.86 Z-5.473 F1080
G1 X127.766 Y66.883 Z-5.479 F1080
G1 X127.749 Y66.902 Z-5.485 F1080
G1 X127.728 Y66.914 Z-5.491 F1080
G1 X127.703 Y66.919 Z-5.497 F1080
G1 X127.678 Y66.916 Z-5.503 F1080
G1 X127.656 Y66.906 Z-5.509 F1080
G1 X127.638 Y66.888 Z-5.515 F1080
G1 X127.626 Y66.867 Z-5.521 F1080
G1 X127.622 Y66.842 Z-5.527 F1080
G1 X127.625 Y66.817 Z-5.533 F1080
G1 X127.636 Y66.795 Z-5.538 F1080
G1 X127.654 Y66.777 Z-5.544 F1080
G1 X127.676 Y66.766 Z-5.55 F1080
G1 X127.701 Y66.762 Z-5.556 F1080
G1 X127.726 Y66.766 Z-5.562 F1080
G1 X127.748 Y66.778 Z-5.568 F1080
G1 X127.765 Y66.796 Z-5.574 F1080
G1 X127.775 Y66.819 Z-5.58 F1080
G1 X127.778 Y66.844 Z-5.586 F1080
G1 X127.774 Y66.868 Z-5.592 F1080
G1 X127.761 Y66.89 Z-5.598 F1080
G1 X127.743 Y66.907 Z-5.604 F1080
G1 X127.72 Y66.917 Z-5.609 F1080
G1 X127.695 Y66.919 Z-5.615 F1080
G1 X127.671 Y66.913 Z-5.621 F1080
G1 X127.649 Y66.901 Z-5.627 F1080
G1 X127.633 Y66.882 Z-5.633 F1080
G1 X127.624 Y66.858 Z-5.639 F1080
G1 X127.622 Y66.833 Z-5.645 F1080
G1 X127.628 Y66.809 Z-5.651 F1080
G1 X127.642 Y66.788 Z-5.657 F1080
G1 X127.661 Y66.773 Z-5.663 F1080
G1 X127.684 Y66.764 Z-5.669 F1080
G1 X127.709 Y66.763 Z-5.675 F1080
G1 X127.733 Y66.77 Z-5.68 F1080
G1 X127.754 Y66.784 Z-5.686 F1080
G1 X127.769 Y66.804 Z-5.692 F1080
G1 X127.777 Y66.827 Z-5.698 F1080
G1 X127.778 Y66.852 Z-5.704 F1080
G1 X127.77 Y66.876 Z-5.71 F1080
G1 X127.756 Y66.896 Z-5.716 F1080
G1 X127.735 Y66.911 Z-5.722 F1080
G1 X127.711 Y66.918 Z-5.728 F1080
G1 X127.687 Z-5.734 F1080
G1 X127.663 Y66.91 Z-5.74 F1080
G1 X127.643 Y66.895 Z-5.746 F1080
G1 X127.629 Y66.874 Z-5.751 F1080
G1 X127.622 Y66.85 Z-5.757 F1080
G1 X127.623 Y66.825 Z-5.763 F1080
G1 X127.632 Y66.802 Z-5.769 F1080
G1 X127.648 Y66.782 Z-5.775 F1080
G1 X127.668 Y66.769 Z-5.781 F1080
G1 X127.693 Y66.763 Z-5.787 F1080
G1 X127.718 Y66.764 Z-5.793 F1080
G1 X127.741 Y66.774 Z-5.799 F1080
G1 X127.76 Y66.79 Z-5.805 F1080
G1 X127.773 Y66.811 Z-5.811 F1080
G1 X127.778 Y66.835 Z-5.817 F1080
G1 X127.776 Y66.86 Z-5.822 F1080
G1 X127.766 Y66.883 Z-5.828 F1080
G1 X127.749 Y66.902 Z-5.834 F1080
G1 X127.728 Y66.914 Z-5.84 F1080
G1 X127.703 Y66.919 Z-5.846 F1080
G1 X127.678 Y66.916 Z-5.852 F1080
G1 X127.656 Y66.906 Z-5.858 F1080
G1 X127.638 Y66.888 Z-5.864 F1080
G1 X127.626 Y66.866 Z-5.87 F1080
G1 X127.621 Y66.842 Z-5.876 F1080
G1 X127.625 Y66.817 Z-5.882 F1080
G1 X127.636 Y66.795 Z-5.888 F1080
G1 X127.654 Y66.777 Z-5.893 F1080
G1 X127.676 Y66.766 Z-5.899 F1080
G1 X127.701 Y66.762 Z-5.905 F1080
G1 X127.726 Y66.767 Z-5.911 F1080
G1 X127.748 Y66.778 Z-5.917 F1080
G1 X127.765 Y66.796 Z-5.923 F1080
G1 X127.775 Y66.819 Z-5.929 F1080
G1 X127.778 Y66.844 Z-5.935 F1080
G1 X127.773 Y66.868 Z-5.941 F1080
G1 X127.761 Y66.89 Z-5.947 F1080
G1 X127.742 Y66.907 Z-5.953 F1080
G1 X127.72 Y66.917 Z-5.959 F1080
G1 X127.695 Y66.919 Z-5.964 F1080
G1 X127.67 Y66.913 Z-5.97 F1080
G1 X127.649 Y66.9 Z-5.976 F1080
G1 X127.633 Y66.881 Z-5.982 F1080
G1 X127.623 Y66.858 Z-5.988 F1080
G1 X127.622 Y66.833 Z-5.994 F1080
G1 X127.628 Y66.809 Z-6 F1080
G1 X127.642 Y66.788 Z-6.006 F1080
G1 X127.661 Y66.773 Z-6.012 F1080
G1 X127.685 Y66.764 Z-6.018 F1080
G1 X127.709 Y66.763 Z-6.024 F1080
G1 X127.733 Y66.77 Z-6.03 F1080
G1 X127.754 Y66.784 Z-6.036 F1080
G1 X127.769 Y66.804 Z-6.041 F1080
G1 X127.777 Y66.827 Z-6.047 F1080
G1 X127.778 Y66.852 Z-6.053 F1080
G1 X127.77 Y66.876 Z-6.059 F1080
G1 X127.755 Y66.896 Z-6.065 F1080
G1 X127.735 Y66.911 Z-6.071 F1080
G1 X127.711 Y66.918 Z-6.077 F1080
G1 X127.686 Z-6.083 F1080
G1 X127.663 Y66.91 Z-6.089 F1080
G1 X127.643 Y66.895 Z-6.095 F1080
G1 X127.629 Y66.874 Z-6.101 F1080
G1 X127.622 Y66.85 Z-6.107 F1080
G1 X127.623 Y66.825 Z-6.112 F1080
G1 X127.632 Y66.802 Z-6.118 F1080
G1 X127.648 Y66.782 Z-6.124 F1080
G1 X127.669 Y66.769 Z-6.13 F1080
G1 X127.693 Y66.763 Z-6.136 F1080
G1 X127.718 Y66.764 Z-6.142 F1080
G1 X127.741 Y66.774 Z-6.148 F1080
G1 X127.76 Y66.79 Z-6.154 F1080
G1 X127.773 Y66.811 Z-6.16 F1080
G1 X127.778 Y66.836 Z-6.166 F1080
G1 X127.776 Y66.861 Z-6.172 F1080
G1 X127.766 Y66.883 Z-6.178 F1080
G1 X127.749 Y66.902 Z-6.183 F1080
G1 X127.727 Y66.914 Z-6.189 F1080
G1 X127.703 Y66.919 Z-6.195 F1080
G1 X127.678 Y66.916 Z-6.201 F1080
G1 X127.656 Y66.905 Z-6.207 F1080
G1 X127.637 Y66.888 Z-6.213 F1080
G1 X127.626 Y66.866 Z-6.219 F1080
G1 X127.621 Y66.842 Z-6.225 F1080
G1 X127.625 Y66.817 Z-6.231 F1080
G1 X127.636 Y66.795 Z-6.237 F1080
G1 X127.654 Y66.777 Z-6.243 F1080
G1 X127.677 Y66.766 Z-6.249 F1080
G1 X127.701 Y66.762 Z-6.254 F1080
G1 X127.726 Y66.767 Z-6.26 F1080
G1 X127.748 Y66.778 Z-6.266 F1080
G1 X127.765 Y66.797 Z-6.272 F1080
G1 X127.776 Y66.819 Z-6.278 F1080
G1 X127.778 Y66.844 Z-6.284 F1080
G1 X127.773 Y66.869 Z-6.29 F1080
G1 X127.761 Y66.89 Z-6.296 F1080
G1 X127.742 Y66.907 Z-6.302 F1080
G1 X127.719 Y66.917 Z-6.308 F1080
G1 X127.695 Y66.919 Z-6.314 F1080
G1 X127.67 Y66.913 Z-6.32 F1080
G1 X127.649 Y66.9 Z-6.325 F1080
G1 X127.633 Y66.881 Z-6.331 F1080
G1 X127.623 Y66.858 Z-6.337 F1080
G1 X127.622 Y66.833 Z-6.343 F1080
G1 X127.628 Y66.809 Z-6.349 F1080
G1 X127.642 Y66.788 Z-6.355 F1080
G1 X127.661 Y66.772 Z-6.361 F1080
G1 X127.685 Y66.764 Z-6.367 F1080
G1 X127.71 Y66.763 Z-6.373 F1080
G1 X127.734 Y66.77 Z-6.379 F1080
G1 X127.754 Y66.784 Z-6.385 F1080
G1 X127.769 Y66.804 Z-6.391 F1080
G1 X127.777 Y66.828 Z-6.396 F1080
G1 X127.778 Y66.852 Z-6.402 F1080
G1 X127.77 Y66.876 Z-6.408 F1080
G1 X127.755 Y66.896 Z-6.414 F1080
G1 X127.735 Y66.911 Z-6.42 F1080
G1 X127.711 Y66.918 Z-6.426 F1080
G1 X127.686 Z-6.432 F1080
G1 X127.663 Y66.91 Z-6.438 F1080
G1 X127.643 Y66.894 Z-6.444 F1080
G1 X127.629 Y66.874 Z-6.45 F1080
G1 X127.622 Y66.85 Z-6.456 F1080
G1 X127.623 Y66.825 Z-6.462 F1080
G1 X127.632 Y66.801 Z-6.467 F1080
G1 X127.648 Y66.782 Z-6.473 F1080
G1 X127.669 Y66.769 Z-6.479 F1080
G1 X127.693 Y66.763 Z-6.485 F1080
G1 X127.718 Y66.764 Z-6.491 F1080
G1 X127.741 Y66.774 Z-6.497 F1080
G1 X127.76 Y66.79 Z-6.503 F1080
G1 X127.773 Y66.812 Z-6.509 F1080
G1 X127.778 Y66.836 Z-6.515 F1080
G1 X127.776 Y66.861 Z-6.521 F1080
G1 X127.766 Y66.884 Z-6.527 F1080
G1 X127.749 Y66.902 Z-6.533 F1080
G1 X127.727 Y66.914 Z-6.538 F1080
G1 X127.703 Y66.919 Z-6.544 F1080
G1 X127.678 Y66.916 Z-6.55 F1080
G1 X127.655 Y66.905 Z-6.556 F1080
G1 X127.637 Y66.888 Z-6.562 F1080
G1 X127.626 Y66.866 Z-6.568 F1080
G1 X127.621 Y66.841 Z-6.574 F1080
G1 X127.625 Y66.817 Z-6.58 F1080
G1 X127.637 Y66.794 Z-6.586 F1080
G1 X127.654 Y66.777 Z-6.592 F1080
G1 X127.677 Y66.766 Z-6.598 F1080
G1 X127.701 Y66.762 Z-6.604 F1080
G1 X127.726 Y66.767 Z-6.609 F1080
G1 X127.748 Y66.779 Z-6.615 F1080
G1 X127.765 Y66.797 Z-6.621 F1080
G1 X127.776 Y66.819 Z-6.627 F1080
G1 X127.778 Y66.844 Z-6.633 F1080
G1 X127.773 Y66.869 Z-6.639 F1080
G1 X127.761 Y66.89 Z-6.645 F1080
G1 X127.742 Y66.907 Z-6.651 F1080
G1 X127.719 Y66.917 Z-6.657 F1080
G1 X127.694 Y66.919 Z-6.663 F1080
G1 X127.67 Y66.913 Z-6.669 F1080
G1 X127.649 Y66.9 Z-6.675 F1080
G1 X127.633 Y66.881 Z-6.68 F1080
G1 X127.623 Y66.858 Z-6.686 F1080
G1 X127.622 Y66.833 Z-6.692 F1080
G1 X127.628 Y66.809 Z-6.698 F1080
G1 X127.642 Y66.788 Z-6.704 F1080
G1 X127.661 Y66.772 Z-6.71 F1080
G1 X127.685 Y66.764 Z-6.716 F1080
G1 X127.71 Y66.763 Z-6.722 F1080
G1 X127.734 Y66.77 Z-6.728 F1080
G1 X127.754 Y66.784 Z-6.734 F1080
G1 X127.769 Y66.804 Z-6.74 F1080
G1 X127.777 Y66.828 Z-6.746 F1080
G1 X127.778 Y66.853 Z-6.751 F1080
G1 X127.77 Y66.876 Z-6.757 F1080
G1 X127.755 Y66.897 Z-6.763 F1080
G1 X127.735 Y66.911 Z-6.769 F1080
G1 X127.711 Y66.918 Z-6.775 F1080
G1 X127.686 Z-6.781 F1080
G1 X127.662 Y66.91 Z-6.787 F1080
G1 X127.643 Y66.894 Z-6.793 F1080
G1 X127.629 Y66.874 Z-6.799 F1080
G1 X127.622 Y66.85 Z-6.805 F1080
G1 X127.623 Y66.825 Z-6.811 F1080
G1 X127.632 Y66.801 Z-6.817 F1080
G1 X127.648 Y66.782 Z-6.822 F1080
G1 X127.669 Y66.769 Z-6.828 F1080
G1 X127.693 Y66.763 Z-6.834 F1080
G1 X127.718 Y66.764 Z-6.84 F1080
G1 X127.741 Y66.774 Z-6.846 F1080
G1 X127.76 Y66.79 Z-6.852 F1080
G1 X127.773 Y66.812 Z-6.858 F1080
G1 X127.778 Y66.836 Z-6.864 F1080
G1 X127.776 Y66.861 Z-6.87 F1080
G1 X127.766 Y66.884 Z-6.876 F1080
G1 X127.749 Y66.902 Z-6.882 F1080
G1 X127.727 Y66.914 Z-6.888 F1080
G1 X127.703 Y66.919 Z-6.893 F1080
G1 X127.678 Y66.916 Z-6.899 F1080
G1 X127.655 Y66.905 Z-6.905 F1080
G1 X127.637 Y66.888 Z-6.911 F1080
G1 X127.626 Y66.866 Z-6.917 F1080
G1 X127.621 Y66.841 Z-6.923 F1080
G1 X127.625 Y66.816 Z-6.929 F1080
G1 X127.637 Y66.794 Z-6.935 F1080
G1 X127.655 Y66.777 Z-6.941 F1080
G1 X127.677 Y66.766 Z-6.947 F1080
G1 X127.702 Y66.762 Z-6.953 F1080
G1 X127.726 Y66.767 Z-6.959 F1080
G1 X127.748 Y66.779 Z-6.964 F1080
G1 X127.765 Y66.797 Z-6.97 F1080
G1 X127.776 Y66.82 Z-6.976 F1080
G1 X127.778 Y66.844 Z-6.982 F1080
G1 X127.773 Y66.869 Z-6.988 F1080
G1 X127.761 Y66.891 Z-6.994 F1080
G1 X127.742 Y66.907 Z-7 F1080
G1 X127.719 Y66.917 Z-7.006 F1080
G1 X127.694 Y66.919 Z-7.012 F1080
G1 X127.67 Y66.913 Z-7.018 F1080
G1 X127.649 Y66.9 Z-7.024 F1080
G1 X127.633 Y66.881 Z-7.03 F1080
G1 X127.623 Y66.858 Z-7.036 F1080
G1 X127.622 Y66.833 Z-7.041 F1080
G1 X127.628 Y66.809 Z-7.047 F1080
G1 X127.642 Y66.788 Z-7.053 F1080
G1 X127.662 Y66.772 Z-7.059 F1080
G1 X127.685 Y66.764 Z-7.065 F1080
G1 X127.71 Y66.763 Z-7.071 F1080
G1 X127.734 Y66.77 Z-7.077 F1080
G1 X127.755 Y66.784 Z-7.083 F1080
G1 X127.769 Y66.804 Z-7.089 F1080
G1 X127.777 Y66.828 Z-7.095 F1080
G1 X127.778 Y66.853 Z-7.101 F1080
G1 X127.77 Y66.877 Z-7.107 F1080
G1 X127.755 Y66.897 Z-7.112 F1080
G1 X127.735 Y66.911 Z-7.118 F1080
G1 X127.711 Y66.918 Z-7.124 F1080
G1 X127.686 Z-7.13 F1080
G1 X127.662 Y66.91 Z-7.136 F1080
G1 X127.643 Y66.894 Z-7.142 F1080
G1 X127.629 Y66.873 Z-7.148 F1080
G1 X127.622 Y66.849 Z-7.154 F1080
G1 X127.623 Y66.824 Z-7.16 F1080
G1 X127.632 Y66.801 Z-7.166 F1080
G1 X127.648 Y66.782 Z-7.172 F1080
G1 X127.669 Y66.769 Z-7.178 F1080
G1 X127.693 Y66.762 Z-7.183 F1080
G1 X127.718 Y66.764 Z-7.189 F1080
G1 X127.741 Y66.774 Z-7.195 F1080
G1 X127.76 Y66.79 Z-7.201 F1080
G1 X127.773 Y66.812 Z-7.207 F1080
G1 X127.778 Y66.836 Z-7.213 F1080
G1 X127.776 Y66.861 Z-7.219 F1080
G1 X127.766 Y66.884 Z-7.225 F1080
G1 X127.749 Y66.902 Z-7.231 F1080
G1 X127.727 Y66.914 Z-7.237 F1080
G1 X127.702 Y66.919 Z-7.243 F1080
G1 X127.678 Y66.916 Z-7.249 F1080
G1 X127.655 Y66.905 Z-7.254 F1080
G1 X127.637 Y66.888 Z-7.26 F1080
G1 X127.626 Y66.866 Z-7.266 F1080
G1 X127.621 Y66.841 Z-7.272 F1080
G1 X127.625 Y66.816 Z-7.278 F1080
G1 X127.637 Y66.794 Z-7.284 F1080
G1 X127.655 Y66.777 Z-7.29 F1080
G1 X127.677 Y66.766 Z-7.296 F1080
G1 X127.702 Y66.762 Z-7.302 F1080
G1 X127.726 Y66.767 Z-7.308 F1080
G1 X127.748 Y66.779 Z-7.314 F1080
G1 X127.765 Y66.797 Z-7.32 F1080
G1 X127.776 Y66.82 Z-7.325 F1080
G1 X127.778 Y66.845 Z-7.331 F1080
G1 X127.773 Y66.869 Z-7.337 F1080
G1 X127.761 Y66.891 Z-7.343 F1080
G1 X127.742 Y66.907 Z-7.349 F1080
G1 X127.719 Y66.917 Z-7.355 F1080
G1 X127.694 Y66.919 Z-7.361 F1080
G1 X127.67 Y66.913 Z-7.367 F1080
G1 X127.648 Y66.9 Z-7.373 F1080
G1 X127.632 Y66.881 Z-7.379 F1080
G1 X127.623 Y66.858 Z-7.385 F1080
G1 X127.622 Y66.833 Z-7.391 F1080
G1 X127.628 Y66.808 Z-7.396 F1080
G1 X127.642 Y66.788 Z-7.402 F1080
G1 X127.662 Y66.772 Z-7.408 F1080
G1 X127.685 Y66.764 Z-7.414 F1080
G1 X127.71 Y66.763 Z-7.42 F1080
G1 X127.734 Y66.77 Z-7.426 F1080
G1 X127.755 Y66.784 Z-7.432 F1080
G1 X127.77 Y66.804 Z-7.438 F1080
G1 X127.777 Y66.828 Z-7.444 F1080
G1 X127.778 Y66.853 Z-7.45 F1080
G1 X127.77 Y66.877 Z-7.456 F1080
G1 X127.755 Y66.897 Z-7.462 F1080
G1 X127.734 Y66.911 Z-7.467 F1080
G1 X127.711 Y66.919 Z-7.473 F1080
G1 X127.686 Y66.918 Z-7.479 F1080
G1 X127.662 Y66.909 Z-7.485 F1080
G1 X127.642 Y66.894 Z-7.491 F1080
G1 X127.629 Y66.873 Z-7.497 F1080
G1 X127.622 Y66.849 Z-7.503 F1080
G1 X127.623 Y66.824 Z-7.509 F1080
G1 X127.632 Y66.801 Z-7.515 F1080
G1 X127.648 Y66.782 Z-7.521 F1080
G1 X127.669 Y66.768 Z-7.527 F1080
G1 X127.694 Y66.762 Z-7.533 F1080
G1 X127.719 Y66.764 Z-7.538 F1080
G1 X127.742 Y66.774 Z-7.544 F1080
G1 X127.76 Y66.791 Z-7.55 F1080
G1 X127.773 Y66.812 Z-7.556 F1080
G1 X127.778 Y66.836 Z-7.562 F1080
G1 X127.776 Y66.861 Z-7.568 F1080
G1 X127.765 Y66.884 Z-7.574 F1080
G1 X127.749 Y66.902 Z-7.58 F1080
G1 X127.727 Y66.915 Z-7.586 F1080
G1 X127.702 Y66.919 Z-7.592 F1080
G1 X127.677 Y66.916 Z-7.598 F1080
G1 X127.655 Y66.905 Z-7.604 F1080
G1 X127.637 Y66.888 Z-7.609 F1080
G1 X127.625 Y66.865 Z-7.615 F1080
G1 X127.621 Y66.841 Z-7.621 F1080
G1 X127.625 Y66.816 Z-7.627 F1080
G1 X127.637 Y66.794 Z-7.633 F1080
G1 X127.655 Y66.777 Z-7.639 F1080
G1 X127.677 Y66.766 Z-7.645 F1080
G1 X127.702 Y66.762 Z-7.651 F1080
G1 X127.727 Y66.767 Z-7.657 F1080
G1 X127.748 Y66.779 Z-7.663 F1080
G1 X127.765 Y66.797 Z-7.669 F1080
G1 X127.776 Y66.82 Z-7.675 F1080
G1 X127.778 Y66.845 Z-7.68 F1080
G1 X127.773 Y66.869 Z-7.686 F1080
G1 X127.76 Y66.891 Z-7.692 F1080
G1 X127.742 Y66.907 Z-7.698 F1080
G1 X127.719 Y66.917 Z-7.704 F1080
G1 X127.694 Y66.919 Z-7.71 F1080
G1 X127.669 Y66.913 Z-7.716 F1080
G1 X127.648 Y66.9 Z-7.722 F1080
G1 X127.632 Y66.881 Z-7.728 F1080
G1 X127.623 Y66.857 Z-7.734 F1080
G1 X127.622 Y66.832 Z-7.74 F1080
G1 X127.629 Y66.808 Z-7.746 F1080
G1 X127.642 Y66.787 Z-7.751 F1080
G1 X127.662 Y66.772 Z-7.757 F1080
G1 X127.685 Y66.764 Z-7.763 F1080
G1 X127.71 Y66.763 Z-7.769 F1080
G1 X127.734 Y66.77 Z-7.775 F1080
G1 X127.755 Y66.784 Z-7.781 F1080
G1 X127.77 Y66.805 Z-7.787 F1080
G1 X127.778 Y66.828 Z-7.793 F1080
G1 X127.777 Y66.853 Z-7.799 F1080
G1 X127.77 Y66.877 Z-7.805 F1080
G1 X127.755 Y66.897 Z-7.811 F1080
G1 X127.734 Y66.911 Z-7.817 F1080
G1 X127.71 Y66.919 Z-7.822 F1080
G1 X127.685 Y66.918 Z-7.828 F1080
G1 X127.662 Y66.909 Z-7.834 F1080
G1 X127.642 Y66.894 Z-7.84 F1080
G1 X127.628 Y66.873 Z-7.846 F1080
G1 X127.622 Y66.849 Z-7.852 F1080
G1 X127.623 Y66.824 Z-7.858 F1080
G1 X127.632 Y66.801 Z-7.864 F1080
G1 X127.648 Y66.782 Z-7.87 F1080
G1 X127.67 Y66.768 Z-7.876 F1080
G1 X127.694 Y66.762 Z-7.882 F1080
G1 X127.719 Y66.764 Z-7.888 F1080
G1 X127.742 Y66.774 Z-7.893 F1080
G1 X127.76 Y66.791 Z-7.899 F1080
G1 X127.773 Y66.812 Z-7.905 F1080
G1 X127.778 Y66.837 Z-7.911 F1080
G1 X127.776 Y66.861 Z-7.917 F1080
G1 X127.765 Y66.884 Z-7.923 F1080
G1 X127.748 Y66.903 Z-7.929 F1080
G1 X127.727 Y66.915 Z-7.935 F1080
G1 X127.702 Y66.919 Z-7.941 F1080
G1 X127.677 Y66.916 Z-7.947 F1080
G1 X127.655 Y66.905 Z-7.953 F1080
G1 X127.637 Y66.887 Z-7.959 F1080
G1 X127.625 Y66.865 Z-7.964 F1080
G1 X127.621 Y66.841 Z-7.97 F1080
G1 X127.626 Y66.816 Z-7.976 F1080
G1 X127.637 Y66.794 Z-7.982 F1080
G1 X127.655 Y66.776 Z-7.988 F1080
G1 X127.677 Y66.766 Z-7.994 F1080
G1 X127.702 Y66.762 Z-8 F1080
G1 X127.727 Y66.767 Z-8.006 F1080
G1 X127.749 Y66.779 Z-8.012 F1080
G1 X127.765 Y66.797 Z-8.018 F1080
G1 X127.776 Y66.82 Z-8.024 F1080
G1 X127.778 Y66.845 Z-8.03 F1080
G1 X127.773 Y66.869 Z-8.036 F1080
G1 X127.76 Y66.891 Z-8.041 F1080
G1 X127.742 Y66.907 Z-8.047 F1080
G1 X127.718 Y66.917 Z-8.053 F1080
G1 X127.694 Y66.919 Z-8.059 F1080
G1 X127.669 Y66.913 Z-8.065 F1080
G1 X127.648 Y66.9 Z-8.071 F1080
G1 X127.632 Y66.88 Z-8.077 F1080
G1 X127.623 Y66.857 Z-8.083 F1080
G1 X127.622 Y66.832 Z-8.089 F1080
G1 X127.629 Y66.808 Z-8.095 F1080
G1 X127.642 Y66.787 Z-8.101 F1080
G1 X127.662 Y66.772 Z-8.107 F1080
G1 X127.686 Y66.764 Z-8.112 F1080
G1 X127.711 Y66.763 Z-8.118 F1080
G1 X127.735 Y66.77 Z-8.124 F1080
G1 X127.755 Y66.785 Z-8.13 F1080
G1 X127.77 Y66.805 Z-8.136 F1080
G1 X127.778 Y66.828 Z-8.142 F1080
G1 X127.777 Y66.853 Z-8.148 F1080
G1 X127.77 Y66.877 Z-8.154 F1080
G1 X127.755 Y66.897 Z-8.16 F1080
G1 X127.734 Y66.911 Z-8.166 F1080
G1 X127.71 Y66.919 Z-8.172 F1080
G1 X127.685 Y66.918 Z-8.178 F1080
G1 X127.662 Y66.909 Z-8.183 F1080
G1 X127.642 Y66.894 Z-8.189 F1080
G1 X127.628 Y66.873 Z-8.195 F1080
G1 X127.622 Y66.849 Z-8.201 F1080
G1 X127.623 Y66.824 Z-8.207 F1080
G1 X127.632 Y66.801 Z-8.213 F1080
G1 X127.648 Y66.781 Z-8.219 F1080
G1 X127.67 Y66.768 Z-8.225 F1080
G1 X127.694 Y66.762 Z-8.231 F1080
G1 X127.719 Y66.765 Z-8.237 F1080
G1 X127.742 Y66.774 Z-8.243 F1080
G1 X127.761 Y66.791 Z-8.249 F1080
G1 X127.773 Y66.812 Z-8.254 F1080
G1 X127.778 Y66.837 Z-8.26 F1080
G1 X127.776 Y66.862 Z-8.266 F1080
G1 X127.765 Y66.884 Z-8.272 F1080
G1 X127.748 Y66.903 Z-8.278 F1080
G1 X127.726 Y66.915 Z-8.284 F1080
G1 X127.702 Y66.919 Z-8.29 F1080
G1 X127.677 Y66.916 Z-8.296 F1080
G1 X127.655 Y66.905 Z-8.302 F1080
G1 X127.637 Y66.887 Z-8.308 F1080
G1 X127.625 Y66.865 Z-8.314 F1080
G1 X127.621 Y66.84 Z-8.32 F1080
G1 X127.626 Y66.816 Z-8.325 F1080
G1 X127.637 Y66.794 Z-8.331 F1080
G1 X127.655 Y66.776 Z-8.337 F1080
G1 X127.678 Y66.765 Z-8.343 F1080
G1 X127.702 Y66.762 Z-8.349 F1080
G1 X127.727 Y66.767 Z-8.355 F1080
G1 X127.749 Y66.779 Z-8.361 F1080
G1 X127.766 Y66.798 Z-8.367 F1080
G1 X127.776 Y66.82 Z-8.373 F1080
G1 X127.778 Y66.845 Z-8.379 F1080
G1 X127.773 Y66.87 Z-8.385 F1080
G1 X127.76 Y66.891 Z-8.391 F1080
G1 X127.741 Y66.907 Z-8.396 F1080
G1 X127.718 Y66.917 Z-8.402 F1080
G1 X127.693 Y66.919 Z-8.408 F1080
G1 X127.669 Y66.913 Z-8.414 F1080
G1 X127.648 Y66.9 Z-8.42 F1080
G1 X127.632 Y66.88 Z-8.426 F1080
G1 X127.623 Y66.857 Z-8.432 F1080
G1 X127.622 Y66.832 Z-8.438 F1080
G1 X127.629 Y66.808 Z-8.444 F1080
G1 X127.643 Y66.787 Z-8.45 F1080
G1 X127.662 Y66.772 Z-8.456 F1080
G1 X127.686 Y66.764 Z-8.462 F1080
G1 X127.711 Y66.763 Z-8.467 F1080
G1 X127.735 Y66.77 Z-8.473 F1080
G1 X127.755 Y66.785 Z-8.479 F1080
G1 X127.77 Y66.805 Z-8.485 F1080
G1 X127.778 Y66.829 Z-8.491 F1080
G1 X127.777 Y66.854 Z-8.497 F1080
G1 X127.769 Y66.877 Z-8.503 F1080
G1 X127.754 Y66.897 Z-8.509 F1080
G1 X127.734 Y66.911 Z-8.515 F1080
G1 X127.71 Y66.919 Z-8.521 F1080
G1 X127.685 Y66.918 Z-8.527 F1080
G1 X127.662 Y66.909 Z-8.533 F1080
G1 X127.642 Y66.894 Z-8.538 F1080
G1 X127.628 Y66.873 Z-8.544 F1080
G1 X127.622 Y66.849 Z-8.55 F1080
G1 X127.623 Y66.824 Z-8.556 F1080
G1 X127.633 Y66.8 Z-8.562 F1080
G1 X127.649 Y66.781 Z-8.568 F1080
G1 X127.67 Y66.768 Z-8.574 F1080
G1 X127.694 Y66.762 Z-8.58 F1080
G1 X127.719 Y66.765 Z-8.586 F1080
G1 X127.742 Y66.774 Z-8.592 F1080
G1 X127.761 Y66.791 Z-8.598 F1080
G1 X127.773 Y66.813 Z-8.604 F1080
G1 X127.778 Y66.837 Z-8.609 F1080
G1 X127.776 Y66.862 Z-8.615 F1080
G1 X127.765 Y66.884 Z-8.621 F1080
G1 X127.748 Y66.903 Z-8.627 F1080
G1 X127.726 Y66.915 Z-8.633 F1080
G1 X127.702 Y66.919 Z-8.639 F1080
G1 X127.677 Y66.916 Z-8.645 F1080
G1 X127.654 Y66.905 Z-8.651 F1080
G1 X127.637 Y66.887 Z-8.657 F1080
G1 X127.625 Y66.865 Z-8.663 F1080
G1 X127.621 Y66.84 Z-8.669 F1080
G1 X127.626 Y66.816 Z-8.675 F1080
G1 X127.637 Y66.793 Z-8.68 F1080
G1 X127.655 Y66.776 Z-8.686 F1080
G1 X127.678 Y66.765 Z-8.692 F1080
G1 X127.703 Y66.762 Z-8.698 F1080
G1 X127.727 Y66.767 Z-8.704 F1080
G1 X127.749 Y66.779 Z-8.71 F1080
G1 X127.766 Y66.798 Z-8.716 F1080
G1 X127.776 Y66.821 Z-8.722 F1080
G1 X127.778 Y66.845 Z-8.728 F1080
G1 X127.773 Y66.87 Z-8.734 F1080
G1 X127.76 Y66.891 Z-8.74 F1080
G1 X127.741 Y66.908 Z-8.746 F1080
G1 X127.718 Y66.917 Z-8.751 F1080
G1 X127.693 Y66.919 Z-8.757 F1080
G1 X127.669 Y66.913 Z-8.763 F1080
G1 X127.648 Y66.899 Z-8.769 F1080
G1 X127.632 Y66.88 Z-8.775 F1080
G1 X127.623 Y66.857 Z-8.781 F1080
G1 X127.622 Y66.832 Z-8.787 F1080
G1 X127.629 Y66.808 Z-8.793 F1080
G1 X127.643 Y66.787 Z-8.799 F1080
G1 X127.662 Y66.772 Z-8.805 F1080
G1 X127.686 Y66.763 Z-8.811 F1080
G1 X127.711 Z-8.817 F1080
G1 X127.735 Y66.77 Z-8.822 F1080
G1 X127.755 Y66.785 Z-8.828 F1080
G1 X127.77 Y66.805 Z-8.834 F1080
G1 X127.778 Y66.829 Z-8.84 F1080
G1 X127.777 Y66.854 Z-8.846 F1080
G1 X127.769 Y66.877 Z-8.852 F1080
G1 X127.754 Y66.897 Z-8.858 F1080
G1 X127.734 Y66.912 Z-8.864 F1080
G1 X127.71 Y66.919 Z-8.87 F1080
G1 X127.685 Y66.918 Z-8.876 F1080
G1 X127.661 Y66.909 Z-8.882 F1080
G1 X127.642 Y66.894 Z-8.888 F1080
G1 X127.628 Y66.873 Z-8.893 F1080
G1 X127.622 Y66.848 Z-8.899 F1080
G1 X127.623 Y66.824 Z-8.905 F1080
G1 X127.633 Y66.8 Z-8.911 F1080
G1 X127.649 Y66.781 Z-8.917 F1080
G1 X127.67 Y66.768 Z-8.923 F1080
G1 X127.694 Y66.762 Z-8.929 F1080
G1 X127.719 Y66.765 Z-8.935 F1080
G1 X127.742 Y66.775 Z-8.941 F1080
G1 X127.761 Y66.791 Z-8.947 F1080
G1 X127.773 Y66.813 Z-8.953 F1080
G1 X127.778 Y66.837 Z-8.959 F1080
G1 X127.776 Y66.862 Z-8.964 F1080
G1 X127.765 Y66.885 Z-8.97 F1080
G1 X127.748 Y66.903 Z-8.976 F1080
G1 X127.726 Y66.915 Z-8.982 F1080
G1 X127.701 Y66.919 Z-8.988 F1080
G1 X127.677 Y66.916 Z-8.994 F1080
G1 X127.654 Y66.905 Z-9 F1080
G1 X127.637 Y66.887 Z-9.006 F1080
G1 X127.625 Y66.865 Z-9.012 F1080
G1 X127.621 Y66.84 Z-9.018 F1080
G1 X127.626 Y66.815 Z-9.024 F1080
G1 X127.637 Y66.793 Z-9.03 F1080
G1 X127.655 Y66.776 Z-9.036 F1080
G1 X127.678 Y66.765 Z-9.041 F1080
G1 X127.703 Y66.762 Z-9.047 F1080
G1 X127.727 Y66.767 Z-9.053 F1080
G1 X127.749 Y66.779 Z-9.059 F1080
G1 X127.766 Y66.798 Z-9.065 F1080
G1 X127.776 Y66.821 Z-9.071 F1080
G1 X127.778 Y66.846 Z-9.077 F1080
G1 X127.773 Y66.87 Z-9.083 F1080
G1 X127.76 Y66.891 Z-9.089 F1080
G1 X127.741 Y66.908 Z-9.095 F1080
G1 X127.718 Y66.917 Z-9.101 F1080
G1 X127.693 Y66.919 Z-9.107 F1080
G1 X127.669 Y66.913 Z-9.112 F1080
G1 X127.648 Y66.899 Z-9.118 F1080
G1 X127.632 Y66.88 Z-9.124 F1080
G1 X127.623 Y66.857 Z-9.13 F1080
G1 X127.622 Y66.832 Z-9.136 F1080
G1 X127.629 Y66.808 Z-9.142 F1080
G1 X127.643 Y66.787 Z-9.148 F1080
G1 X127.663 Y66.772 Z-9.154 F1080
G1 X127.686 Y66.763 Z-9.16 F1080
G1 X127.711 Z-9.166 F1080
G1 X127.735 Y66.77 Z-9.172 F1080
G1 X127.755 Y66.785 Z-9.178 F1080
G1 X127.77 Y66.805 Z-9.183 F1080
G1 X127.778 Y66.829 Z-9.189 F1080
G1 X127.777 Y66.854 Z-9.195 F1080
G1 X127.769 Y66.878 Z-9.201 F1080
G1 X127.754 Y66.898 Z-9.207 F1080
G1 X127.734 Y66.912 Z-9.213 F1080
G1 X127.71 Y66.919 Z-9.219 F1080
G1 X127.685 Y66.918 Z-9.225 F1080
G1 X127.661 Y66.909 Z-9.231 F1080
G1 X127.642 Y66.893 Z-9.237 F1080
G1 X127.628 Y66.872 Z-9.243 F1080
G1 X127.622 Y66.848 Z-9.249 F1080
G1 X127.623 Y66.823 Z-9.254 F1080
G1 X127.633 Y66.8 Z-9.26 F1080
G1 X127.649 Y66.781 Z-9.266 F1080
G1 X127.67 Y66.768 Z-9.272 F1080
G1 X127.695 Y66.762 Z-9.278 F1080
G1 X127.719 Y66.765 Z-9.284 F1080
G1 X127.742 Y66.775 Z-9.29 F1080
G1 X127.761 Y66.791 Z-9.296 F1080
G1 X127.773 Y66.813 Z-9.302 F1080
G1 X127.778 Y66.837 Z-9.308 F1080
G1 X127.776 Y66.862 Z-9.314 F1080
G1 X127.765 Y66.885 Z-9.32 F1080
G1 X127.748 Y66.903 Z-9.325 F1080
G1 X127.726 Y66.915 Z-9.331 F1080
G1 X127.701 Y66.919 Z-9.337 F1080
G1 X127.677 Y66.916 Z-9.343 F1080
G1 X127.654 Y66.904 Z-9.349 F1080
G1 X127.636 Y66.887 Z-9.355 F1080
G1 X127.625 Y66.865 Z-9.361 F1080
G1 X127.622 Y66.84 Z-9.367 F1080
G1 X127.626 Y66.815 Z-9.373 F1080
G1 X127.638 Y66.793 Z-9.379 F1080
G1 X127.656 Y66.776 Z-9.385 F1080
G1 X127.678 Y66.765 Z-9.391 F1080
G1 X127.703 Y66.762 Z-9.396 F1080
G1 X127.727 Y66.767 Z-9.402 F1080
G1 X127.749 Y66.78 Z-9.408 F1080
G1 X127.766 Y66.798 Z-9.414 F1080
G1 X127.776 Y66.821 Z-9.42 F1080
G1 X127.778 Y66.846 Z-9.426 F1080
G1 X127.773 Y66.87 Z-9.432 F1080
G1 X127.76 Y66.892 Z-9.438 F1080
G1 X127.741 Y66.908 Z-9.444 F1080
G1 X127.718 Y66.917 Z-9.45 F1080
G1 X127.693 Y66.919 Z-9.456 F1080
G1 X127.669 Y66.913 Z-9.462 F1080
G1 X127.648 Y66.899 Z-9.467 F1080
G1 X127.632 Y66.88 Z-9.473 F1080
G1 X127.623 Y66.856 Z-9.479 F1080
G1 X127.622 Y66.831 Z-9.485 F1080
G1 X127.629 Y66.807 Z-9.491 F1080
G1 X127.643 Y66.787 Z-9.497 F1080
G1 X127.663 Y66.772 Z-9.503 F1080
G1 X127.686 Y66.763 Z-9.509 F1080
G1 X127.711 Z-9.515 F1080
G1 X127.735 Y66.771 Z-9.521 F1080
G1 X127.755 Y66.785 Z-9.527 F1080
G1 X127.77 Y66.805 Z-9.533 F1080
G1 X127.778 Y66.829 Z-9.538 F1080
G1 X127.777 Y66.854 Z-9.544 F1080
G1 X127.769 Y66.878 Z-9.55 F1080
G1 X127.754 Y66.898 Z-9.556 F1080
G1 X127.733 Y66.912 Z-9.562 F1080
G1 X127.709 Y66.919 Z-9.568 F1080
G1 X127.684 Y66.918 Z-9.574 F1080
G1 X127.661 Y66.909 Z-9.58 F1080
G1 X127.642 Y66.893 Z-9.586 F1080
G1 X127.628 Y66.872 Z-9.592 F1080
G1 X127.622 Y66.848 Z-9.598 F1080
G1 X127.623 Y66.823 Z-9.604 F1080
G1 X127.633 Y66.8 Z-9.609 F1080
G1 X127.649 Y66.781 Z-9.615 F1080
G1 X127.67 Y66.768 Z-9.621 F1080
G1 X127.695 Y66.762 Z-9.627 F1080
G1 X127.72 Y66.765 Z-9.633 F1080
G1 X127.742 Y66.775 Z-9.639 F1080
G1 X127.761 Y66.791 Z-9.645 F1080
G1 X127.773 Y66.813 Z-9.651 F1080
G1 X127.778 Y66.838 Z-9.657 F1080
G1 X127.775 Y66.862 Z-9.663 F1080
G1 X127.765 Y66.885 Z-9.669 F1080
G1 X127.748 Y66.903 Z-9.675 F1080
G1 X127.726 Y66.915 Z-9.68 F1080
G1 X127.701 Y66.919 Z-9.686 F1080
G1 X127.676 Y66.916 Z-9.692 F1080
G1 X127.654 Y66.904 Z-9.698 F1080
G1 X127.636 Y66.887 Z-9.704 F1080
G1 X127.625 Y66.864 Z-9.71 F1080
G1 X127.622 Y66.84 Z-9.716 F1080
G1 X127.626 Y66.815 Z-9.722 F1080
G1 X127.638 Y66.793 Z-9.728 F1080
G1 X127.656 Y66.776 Z-9.734 F1080
G1 X127.678 Y66.765 Z-9.74 F1080
G1 X127.703 Y66.762 Z-9.746 F1080
G1 X127.728 Y66.767 Z-9.751 F1080
G1 X127.749 Y66.78 Z-9.757 F1080
G1 X127.766 Y66.798 Z-9.763 F1080
G1 X127.776 Y66.821 Z-9.769 F1080
G1 X127.778 Y66.846 Z-9.775 F1080
G1 X127.773 Y66.87 Z-9.781 F1080
G1 X127.76 Y66.892 Z-9.787 F1080
G1 X127.741 Y66.908 Z-9.793 F1080
G1 X127.718 Y66.917 Z-9.799 F1080
G1 X127.693 Y66.919 Z-9.805 F1080
G1 X127.668 Y66.913 Z-9.811 F1080
G1 X127.647 Y66.899 Z-9.817 F1080
G1 X127.632 Y66.88 Z-9.822 F1080
G1 X127.623 Y66.856 Z-9.828 F1080
G1 X127.622 Y66.831 Z-9.834 F1080
G1 X127.629 Y66.807 Z-9.84 F1080
G1 X127.643 Y66.787 Z-9.846 F1080
G1 X127.663 Y66.772 Z-9.852 F1080
G1 X127.687 Y66.763 Z-9.858 F1080
G1 X127.712 Z-9.864 F1080
G1 X127.735 Y66.771 Z-9.87 F1080
G1 X127.756 Y66.785 Z-9.876 F1080
G1 X127.77 Y66.806 Z-9.882 F1080
G1 X127.778 Y66.829 Z-9.888 F1080
G1 X127.777 Y66.854 Z-9.893 F1080
G1 X127.769 Y66.878 Z-9.899 F1080
G1 X127.754 Y66.898 Z-9.905 F1080
G1 X127.733 Y66.912 Z-9.911 F1080
G1 X127.709 Y66.919 Z-9.917 F1080
G1 X127.684 Y66.918 Z-9.923 F1080
G1 X127.661 Y66.909 Z-9.929 F1080
G1 X127.642 Y66.893 Z-9.935 F1080
G1 X127.628 Y66.872 Z-9.941 F1080
G1 X127.622 Y66.848 Z-9.947 F1080
G1 X127.624 Y66.823 Z-9.953 F1080
G1 X127.633 Y66.8 Z-9.959 F1080
G1 X127.649 Y66.781 Z-9.964 F1080
G1 X127.671 Y66.768 Z-9.97 F1080
G1 X127.695 Y66.762 Z-9.976 F1080
G1 X127.72 Y66.765 Z-9.982 F1080
G1 X127.743 Y66.775 Z-9.988 F1080
G1 X127.761 Y66.792 Z-9.994 F1080
G1 X127.774 Y66.813 Z-10 F1080
G1 X127.778 Y66.838 Z-10.006 F1080
G1 X127.775 Y66.863 Z-10.012 F1080
G1 X127.765 Y66.885 Z-10.018 F1080
G1 X127.748 Y66.903 Z-10.024 F1080
G1 X127.725 Y66.915 Z-10.03 F1080
G1 X127.701 Y66.919 Z-10.036 F1080
G1 X127.676 Y66.916 Z-10.041 F1080
G1 X127.654 Y66.904 Z-10.047 F1080
G1 X127.636 Y66.887 Z-10.053 F1080
G1 X127.625 Y66.864 Z-10.059 F1080
G1 X127.622 Y66.839 Z-10.065 F1080
G1 X127.626 Y66.815 Z-10.071 F1080
G1 X127.638 Y66.793 Z-10.077 F1080
G1 X127.656 Y66.776 Z-10.083 F1080
G1 X127.679 Y66.765 Z-10.089 F1080
G1 X127.703 Y66.762 Z-10.095 F1080
G1 X127.728 Y66.767 Z-10.101 F1080
G1 X127.749 Y66.78 Z-10.107 F1080
G1 X127.766 Y66.798 Z-10.112 F1080
G1 X127.776 Y66.821 Z-10.118 F1080
G1 X127.778 Y66.846 Z-10.124 F1080
G1 X127.773 Y66.87 Z-10.13 F1080
G1 X127.76 Y66.892 Z-10.136 F1080
G1 X127.741 Y66.908 Z-10.142 F1080
G1 X127.717 Y66.917 Z-10.148 F1080
G1 X127.692 Y66.919 Z-10.154 F1080
G1 X127.668 Y66.913 Z-10.16 F1080
G1 X127.647 Y66.899 Z-10.166 F1080
G1 X127.632 Y66.879 Z-10.172 F1080
G1 X127.623 Y66.856 Z-10.178 F1080
G1 X127.622 Y66.831 Z-10.183 F1080
G1 X127.629 Y66.807 Z-10.189 F1080
G1 X127.643 Y66.787 Z-10.195 F1080
G1 X127.663 Y66.771 Z-10.201 F1080
G1 X127.687 Y66.763 Z-10.207 F1080
G1 X127.712 Z-10.213 F1080
G1 X127.736 Y66.771 Z-10.219 F1080
G1 X127.756 Y66.785 Z-10.225 F1080
G1 X127.77 Y66.806 Z-10.231 F1080
G1 X127.778 Y66.83 Z-10.237 F1080
G1 X127.777 Y66.855 Z-10.243 F1080
G1 X127.769 Y66.878 Z-10.249 F1080
G1 X127.754 Y66.898 Z-10.254 F1080
G1 X127.733 Y66.912 Z-10.26 F1080
G1 X127.709 Y66.919 Z-10.266 F1080
G1 X127.684 Y66.918 Z-10.272 F1080
G1 X127.661 Y66.909 Z-10.278 F1080
G1 X127.641 Y66.893 Z-10.284 F1080
G1 X127.628 Y66.872 Z-10.29 F1080
G1 X127.622 Y66.848 Z-10.296 F1080
G1 X127.624 Y66.823 Z-10.302 F1080
G1 X127.633 Y66.8 Z-10.308 F1080
G1 X127.649 Y66.781 Z-10.314 F1080
G1 X127.671 Y66.768 Z-10.32 F1080
G1 X127.695 Y66.762 Z-10.325 F1080
G1 X127.72 Y66.765 Z-10.331 F1080
G1 X127.743 Y66.775 Z-10.337 F1080
G1 X127.761 Y66.792 Z-10.343 F1080
G1 X127.774 Y66.813 Z-10.349 F1080
G1 X127.778 Y66.838 Z-10.355 F1080
G1 X127.775 Y66.863 Z-10.361 F1080
G1 X127.765 Y66.885 Z-10.367 F1080
G1 X127.747 Y66.903 Z-10.373 F1080
G1 X127.725 Y66.915 Z-10.379 F1080
G1 X127.701 Y66.919 Z-10.385 F1080
G1 X127.676 Y66.915 Z-10.391 F1080
G1 X127.654 Y66.904 Z-10.396 F1080
G1 X127.636 Y66.886 Z-10.402 F1080
G1 X127.625 Y66.864 Z-10.408 F1080
G1 X127.622 Y66.839 Z-10.414 F1080
G1 X127.626 Y66.815 Z-10.42 F1080
G1 X127.638 Y66.793 Z-10.426 F1080
G1 X127.656 Y66.776 Z-10.432 F1080
G1 X127.679 Y66.765 Z-10.438 F1080
G1 X127.704 Y66.762 Z-10.444 F1080
G1 X127.728 Y66.767 Z-10.45 F1080
G1 X127.75 Y66.78 Z-10.456 F1080
G1 X127.766 Y66.799 Z-10.462 F1080
G1 X127.776 Y66.821 Z-10.467 F1080
G1 X127.778 Y66.846 Z-10.473 F1080
G1 X127.773 Y66.871 Z-10.479 F1080
G1 X127.759 Y66.892 Z-10.485 F1080
G1 X127.74 Y66.908 Z-10.491 F1080
G1 X127.717 Y66.917 Z-10.497 F1080
G1 X127.692 Y66.919 Z-10.503 F1080
G1 X127.668 Y66.912 Z-10.509 F1080
G1 X127.647 Y66.899 Z-10.515 F1080
G1 X127.632 Y66.879 Z-10.521 F1080
G1 X127.623 Y66.856 Z-10.527 F1080
G1 X127.622 Y66.831 Z-10.533 F1080
G1 X127.629 Y66.807 Z-10.538 F1080
G1 X127.643 Y66.786 Z-10.544 F1080
G1 X127.663 Y66.771 Z-10.55 F1080
G1 X127.687 Y66.763 Z-10.556 F1080
G1 X127.712 Z-10.562 F1080
G1 X127.736 Y66.771 Z-10.568 F1080
G1 X127.756 Y66.786 Z-10.574 F1080
G1 X127.77 Y66.806 Z-10.58 F1080
G1 X127.778 Y66.83 Z-10.586 F1080
G1 X127.777 Y66.855 Z-10.592 F1080
G1 X127.769 Y66.878 Z-10.598 F1080
G1 X127.754 Y66.898 Z-10.604 F1080
G1 X127.733 Y66.912 Z-10.609 F1080
G1 X127.709 Y66.919 Z-10.615 F1080
G1 X127.684 Y66.918 Z-10.621 F1080
G1 X127.661 Y66.909 Z-10.627 F1080
G1 X127.641 Y66.893 Z-10.633 F1080
G1 X127.628 Y66.872 Z-10.639 F1080
G1 X127.622 Y66.848 Z-10.645 F1080
G1 X127.624 Y66.823 Z-10.651 F1080
G1 X127.633 Y66.8 Z-10.657 F1080
G1 X127.649 Y66.781 Z-10.663 F1080
G1 X127.671 Y66.768 Z-10.669 F1080
G1 X127.695 Y66.762 Z-10.675 F1080
G1 X127.72 Y66.765 Z-10.68 F1080
G1 X127.743 Y66.775 Z-10.686 F1080
G1 X127.761 Y66.792 Z-10.692 F1080
G1 X127.774 Y66.814 Z-10.698 F1080
G1 X127.778 Y66.838 Z-10.704 F1080
G1 X127.775 Y66.863 Z-10.71 F1080
G1 X127.765 Y66.885 Z-10.716 F1080
G1 X127.747 Y66.903 Z-10.722 F1080
G1 X127.725 Y66.915 Z-10.728 F1080
G1 X127.7 Y66.919 Z-10.734 F1080
G1 X127.676 Y66.915 Z-10.74 F1080
G1 X127.654 Y66.904 Z-10.746 F1080
G1 X127.636 Y66.886 Z-10.751 F1080
G1 X127.625 Y66.864 Z-10.757 F1080
G1 X127.622 Y66.839 Z-10.763 F1080
G1 X127.626 Y66.815 Z-10.769 F1080
G1 X127.638 Y66.793 Z-10.775 F1080
G1 X127.656 Y66.776 Z-10.781 F1080
G1 X127.679 Y66.765 Z-10.787 F1080
G1 X127.704 Y66.762 Z-10.793 F1080
G1 X127.728 Y66.767 Z-10.799 F1080
G1 X127.75 Y66.78 Z-10.805 F1080
G1 X127.766 Y66.799 Z-10.811 F1080
G1 X127.776 Y66.822 Z-10.817 F1080
G1 X127.778 Y66.847 Z-10.822 F1080
G1 X127.772 Y66.871 Z-10.828 F1080
G1 X127.759 Y66.892 Z-10.834 F1080
G1 X127.74 Y66.908 Z-10.84 F1080
G1 X127.717 Y66.917 Z-10.846 F1080
G1 X127.692 Y66.919 Z-10.852 F1080
G1 X127.668 Y66.912 Z-10.858 F1080
G1 X127.647 Y66.899 Z-10.864 F1080
G1 X127.632 Y66.879 Z-10.87 F1080
G1 X127.623 Y66.856 Z-10.876 F1080
G1 X127.622 Y66.831 Z-10.882 F1080
G1 X127.629 Y66.807 Z-10.888 F1080
G1 X127.643 Y66.786 Z-10.893 F1080
G1 X127.663 Y66.771 Z-10.899 F1080
G1 X127.687 Y66.763 Z-10.905 F1080
G1 X127.712 Z-10.911 F1080
G1 X127.736 Y66.771 Z-10.917 F1080
G1 X127.756 Y66.786 Z-10.923 F1080
G1 X127.77 Y66.806 Z-10.929 F1080
G1 X127.778 Y66.83 Z-10.935 F1080
G1 X127.777 Y66.855 Z-10.941 F1080
G1 X127.769 Y66.878 Z-10.947 F1080
G1 X127.754 Y66.898 Z-10.953 F1080
G1 X127.733 Y66.912 Z-10.959 F1080
G1 X127.709 Y66.919 Z-10.964 F1080
G1 X127.684 Y66.918 Z-10.97 F1080
G1 X127.66 Y66.909 Z-10.976 F1080
G1 X127.641 Y66.893 Z-10.982 F1080
G1 X127.628 Y66.872 Z-10.988 F1080
G1 X127.622 Y66.847 Z-10.994 F1080
G1 X127.624 Y66.822 Z-11 F1080
G1 X127.633 Y66.799 Z-11.006 F1080
G1 X127.65 Y66.78 Z-11.012 F1080
G1 X127.671 Y66.768 Z-11.018 F1080
G1 X127.695 Y66.762 Z-11.024 F1080
G1 X127.72 Y66.765 Z-11.03 F1080
G1 X127.743 Y66.775 Z-11.036 F1080
G1 X127.762 Y66.792 Z-11.041 F1080
G1 X127.774 Y66.814 Z-11.047 F1080
G1 X127.778 Y66.838 Z-11.053 F1080
G1 X127.775 Y66.863 Z-11.059 F1080
G1 X127.764 Y66.886 Z-11.065 F1080
G1 X127.747 Y66.904 Z-11.071 F1080
G1 X127.725 Y66.915 Z-11.077 F1080
G1 X127.7 Y66.919 Z-11.083 F1080
G1 X127.676 Y66.915 Z-11.089 F1080
G1 X127.653 Y66.904 Z-11.095 F1080
G1 X127.636 Y66.886 Z-11.101 F1080
G1 X127.625 Y66.864 Z-11.107 F1080
G1 X127.622 Y66.839 Z-11.112 F1080
G1 X127.626 Y66.814 Z-11.118 F1080
G1 X127.638 Y66.792 Z-11.124 F1080
G1 X127.656 Y66.775 Z-11.13 F1080
G1 X127.679 Y66.765 Z-11.136 F1080
G1 X127.704 Y66.762 Z-11.142 F1080
G1 X127.728 Y66.768 Z-11.148 F1080
G1 X127.75 Y66.78 Z-11.154 F1080
G1 X127.766 Y66.799 Z-11.16 F1080
G1 X127.776 Y66.822 Z-11.166 F1080
G1 X127.778 Y66.847 Z-11.172 F1080
G1 X127.772 Y66.871 Z-11.178 F1080
G1 X127.759 Y66.892 Z-11.183 F1080
G1 X127.74 Y66.908 Z-11.189 F1080
G1 X127.717 Y66.917 Z-11.195 F1080
G1 X127.692 Y66.919 Z-11.201 F1080
G1 X127.668 Y66.912 Z-11.207 F1080
G1 X127.647 Y66.899 Z-11.213 F1080
G1 X127.631 Y66.879 Z-11.219 F1080
G1 X127.623 Y66.855 Z-11.225 F1080
G1 X127.622 Y66.831 Z-11.231 F1080
G1 X127.629 Y66.807 Z-11.237 F1080
G1 X127.644 Y66.786 Z-11.243 F1080
G1 X127.664 Y66.771 Z-11.249 F1080
G1 X127.687 Y66.763 Z-11.254 F1080
G1 X127.712 Z-11.26 F1080
G1 X127.736 Y66.771 Z-11.266 F1080
G1 X127.756 Y66.786 Z-11.272 F1080
G1 X127.771 Y66.806 Z-11.278 F1080
G1 X127.778 Y66.83 Z-11.284 F1080
G1 X127.777 Y66.855 Z-11.29 F1080
G1 X127.769 Y66.879 Z-11.296 F1080
G1 X127.753 Y66.898 Z-11.302 F1080
G1 X127.733 Y66.912 Z-11.308 F1080
G1 X127.709 Y66.919 Z-11.314 F1080
G1 X127.684 Y66.917 Z-11.32 F1080
G1 X127.66 Y66.908 Z-11.325 F1080
G1 X127.641 Y66.893 Z-11.331 F1080
G1 X127.628 Y66.871 Z-11.337 F1080
G1 X127.622 Y66.847 Z-11.343 F1080
G1 X127.624 Y66.822 Z-11.349 F1080
G1 X127.633 Y66.799 Z-11.355 F1080
G1 X127.65 Y66.78 Z-11.361 F1080
G1 X127.671 Y66.768 Z-11.367 F1080
G1 X127.696 Y66.762 Z-11.373 F1080
G1 X127.721 Y66.765 Z-11.379 F1080
G1 X127.743 Y66.775 Z-11.385 F1080
G1 X127.762 Y66.792 Z-11.391 F1080
G1 X127.774 Y66.814 Z-11.396 F1080
G1 X127.778 Y66.839 Z-11.402 F1080
G1 X127.775 Y66.863 Z-11.408 F1080
G1 X127.764 Y66.886 Z-11.414 F1080
G1 X127.747 Y66.904 Z-11.42 F1080
G1 X127.725 Y66.915 Z-11.426 F1080
G1 X127.7 Y66.919 Z-11.432 F1080
G1 X127.675 Y66.915 Z-11.438 F1080
G1 X127.653 Y66.904 Z-11.444 F1080
G1 X127.636 Y66.886 Z-11.45 F1080
G1 X127.625 Y66.863 Z-11.456 F1080
G1 X127.622 Y66.839 Z-11.462 F1080
G1 X127.626 Y66.814 Z-11.467 F1080
G1 X127.638 Y66.792 Z-11.473 F1080
G1 X127.657 Y66.775 Z-11.479 F1080
G1 X127.679 Y66.765 Z-11.485 F1080
G1 X127.704 Y66.762 Z-11.491 F1080
G1 X127.729 Y66.768 Z-11.497 F1080
G1 X127.75 Y66.78 Z-11.503 F1080
G1 X127.767 Y66.799 Z-11.509 F1080
G1 X127.776 Y66.822 Z-11.515 F1080
G1 X127.778 Y66.847 Z-11.521 F1080
G1 X127.772 Y66.871 Z-11.527 F1080
G1 X127.759 Y66.892 Z-11.533 F1080
G1 X127.74 Y66.908 Z-11.538 F1080
G1 X127.717 Y66.917 Z-11.544 F1080
G1 X127.692 Y66.919 Z-11.55 F1080
G1 X127.668 Y66.912 Z-11.556 F1080
G1 X127.647 Y66.898 Z-11.562 F1080
G1 X127.631 Y66.879 Z-11.568 F1080
G1 X127.623 Y66.855 Z-11.574 F1080
G1 X127.622 Y66.83 Z-11.58 F1080
G1 X127.629 Y66.806 Z-11.586 F1080
G1 X127.644 Y66.786 Z-11.592 F1080
G1 X127.664 Y66.771 Z-11.598 F1080
G1 X127.687 Y66.763 Z-11.604 F1080
G1 X127.712 Z-11.609 F1080
G1 X127.736 Y66.771 Z-11.615 F1080
G1 X127.756 Y66.786 Z-11.621 F1080
G1 X127.771 Y66.806 Z-11.627 F1080
G1 X127.778 Y66.83 Z-11.633 F1080
G1 X127.777 Y66.855 Z-11.639 F1080
G1 X127.769 Y66.879 Z-11.645 F1080
G1 X127.753 Y66.898 Z-11.651 F1080
G1 X127.732 Y66.912 Z-11.657 F1080
G1 X127.708 Y66.919 Z-11.663 F1080
G1 X127.683 Y66.917 Z-11.669 F1080
G1 X127.66 Y66.908 Z-11.675 F1080
G1 X127.641 Y66.892 Z-11.68 F1080
G1 X127.628 Y66.871 Z-11.686 F1080
G1 X127.622 Y66.847 Z-11.692 F1080
G1 X127.624 Y66.822 Z-11.698 F1080
G1 X127.633 Y66.799 Z-11.704 F1080
G1 X127.65 Y66.78 Z-11.71 F1080
G1 X127.671 Y66.768 Z-11.716 F1080
G1 X127.696 Y66.762 Z-11.722 F1080
G1 X127.721 Y66.765 Z-11.728 F1080
G1 X127.743 Y66.775 Z-11.734 F1080
G1 X127.762 Y66.792 Z-11.74 F1080
G1 X127.774 Y66.814 Z-11.746 F1080
G1 X127.778 Y66.839 Z-11.751 F1080
G1 X127.775 Y66.863 Z-11.757 F1080
G1 X127.764 Y66.886 Z-11.763 F1080
G1 X127.747 Y66.904 Z-11.769 F1080
G1 X127.725 Y66.915 Z-11.775 F1080
G1 X127.7 Y66.919 Z-11.781 F1080
G1 X127.675 Y66.915 Z-11.787 F1080
G1 X127.653 Y66.904 Z-11.793 F1080
G1 X127.636 Y66.886 Z-11.799 F1080
G1 X127.625 Y66.863 Z-11.805 F1080
G1 X127.622 Y66.839 Z-11.811 F1080
G1 X127.626 Y66.814 Z-11.817 F1080
G1 X127.638 Y66.792 Z-11.822 F1080
G1 X127.657 Y66.775 Z-11.828 F1080
G1 X127.679 Y66.765 Z-11.834 F1080
G1 X127.704 Y66.762 Z-11.84 F1080
G1 X127.729 Y66.768 Z-11.846 F1080
G1 X127.75 Y66.78 Z-11.852 F1080
G1 X127.767 Y66.799 Z-11.858 F1080
G1 X127.776 Y66.822 Z-11.864 F1080
G1 X127.778 Y66.847 Z-11.87 F1080
G1 X127.772 Y66.871 Z-11.876 F1080
G1 X127.759 Y66.893 Z-11.882 F1080
G1 X127.74 Y66.908 Z-11.888 F1080
G1 X127.716 Y66.917 Z-11.893 F1080
G1 X127.692 Y66.919 Z-11.899 F1080
G1 X127.667 Y66.912 Z-11.905 F1080
G1 X127.647 Y66.898 Z-11.911 F1080
G1 X127.631 Y66.879 Z-11.917 F1080
G1 X127.623 Y66.855 Z-11.923 F1080
G1 X127.622 Y66.83 Z-11.929 F1080
G1 X127.629 Y66.806 Z-11.935 F1080
G1 X127.644 Y66.786 Z-11.941 F1080
G1 X127.664 Y66.771 Z-11.947 F1080
G1 X127.688 Y66.763 Z-11.953 F1080
G1 X127.713 Z-11.959 F1080
G1 X127.736 Y66.771 Z-11.964 F1080
G1 X127.756 Y66.786 Z-11.97 F1080
G1 X127.771 Y66.807 Z-11.976 F1080
G1 X127.778 Y66.83 Z-11.982 F1080
G1 X127.777 Y66.855 Z-11.988 F1080
G1 X127.769 Y66.879 Z-11.994 F1080
G1 X127.753 Y66.899 Z-12 F1080
G3 X127.647 Y66.783 I-0.053 J-0.058 F1080
G3 X127.753 Y66.899 I0.053 J0.058 F1080
; MOVEMENT_LEAD_OUT
G3 X127.698 Y66.896 I-0.027 J-0.029 F1080
G1 X127.7 Y66.841 F1080
; MOVEMENT_CUTTING
G1 Z5 F1080
G1 X127.579 Y38.845 F1080
G1 Z1.683 F1080
; MOVEMENT_LEAD_IN
G1 Z0 F1080
G1 X127.618 Y38.806 F1080
G3 X127.657 Y38.845 J0.039 F1080
; MOVEMENT_CUTTING
G1 X127.653 Y38.87 Z-0.006 F1080
G1 X127.642 Y38.892 Z-0.012 F1080
G1 X127.624 Y38.91 Z-0.018 F1080
G1 X127.601 Y38.92 Z-0.024 F1080
G1 X127.577 Y38.924 Z-0.03 F1080
G1 X127.552 Y38.919 Z-0.036 F1080
G1 X127.53 Y38.907 Z-0.041 F1080
G1 X127.513 Y38.889 Z-0.047 F1080
G1 X127.503 Y38.866 Z-0.053 F1080
G1 X127.5 Y38.841 Z-0.059 F1080
G1 X127.506 Y38.817 Z-0.065 F1080
G1 X127.518 Y38.795 Z-0.071 F1080
G1 X127.537 Y38.779 Z-0.077 F1080
G1 X127.56 Y38.769 Z-0.083 F1080
G1 X127.585 Y38.767 Z-0.089 F1080
G1 X127.609 Y38.773 Z-0.095 F1080
G1 X127.63 Y38.786 Z-0.101 F1080
G1 X127.646 Y38.805 Z-0.107 F1080
G1 X127.655 Y38.829 Z-0.112 F1080
G1 X127.657 Y38.854 Z-0.118 F1080
G1 X127.65 Y38.878 Z-0.124 F1080
G1 X127.636 Y38.899 Z-0.13 F1080
G1 X127.617 Y38.914 Z-0.136 F1080
G1 X127.593 Y38.922 Z-0.142 F1080
G1 X127.568 Y38.923 Z-0.148 F1080
G1 X127.544 Y38.916 Z-0.154 F1080
G1 X127.524 Y38.901 Z-0.16 F1080
G1 X127.509 Y38.881 Z-0.166 F1080
G1 X127.501 Y38.858 Z-0.172 F1080
G1 Y38.833 Z-0.178 F1080
G1 X127.509 Y38.809 Z-0.183 F1080
G1 X127.524 Y38.789 Z-0.189 F1080
G1 X127.544 Y38.775 Z-0.195 F1080
G1 X127.568 Y38.767 Z-0.201 F1080
G1 X127.593 Y38.768 Z-0.207 F1080
G1 X127.617 Y38.777 Z-0.213 F1080
G1 X127.636 Y38.792 Z-0.219 F1080
G1 X127.65 Y38.813 Z-0.225 F1080
G1 X127.657 Y38.837 Z-0.231 F1080
G1 X127.655 Y38.862 Z-0.237 F1080
G1 X127.646 Y38.885 Z-0.243 F1080
G1 X127.63 Y38.904 Z-0.249 F1080
G1 X127.609 Y38.918 Z-0.254 F1080
G1 X127.585 Y38.924 Z-0.26 F1080
G1 X127.56 Y38.921 Z-0.266 F1080
G1 X127.537 Y38.912 Z-0.272 F1080
G1 X127.518 Y38.895 Z-0.278 F1080
G1 X127.506 Y38.874 Z-0.284 F1080
G1 X127.5 Y38.849 Z-0.29 F1080
G1 X127.503 Y38.824 Z-0.296 F1080
G1 X127.513 Y38.802 Z-0.302 F1080
G1 X127.53 Y38.783 Z-0.308 F1080
G1 X127.552 Y38.771 Z-0.314 F1080
G1 X127.577 Y38.767 Z-0.32 F1080
G1 X127.602 Y38.77 Z-0.325 F1080
G1 X127.624 Y38.781 Z-0.331 F1080
G1 X127.642 Y38.799 Z-0.337 F1080
G1 X127.653 Y38.821 Z-0.343 F1080
G1 X127.657 Y38.845 Z-0.349 F1080
G1 X127.653 Y38.87 Z-0.355 F1080
G1 X127.642 Y38.892 Z-0.361 F1080
G1 X127.624 Y38.91 Z-0.367 F1080
G1 X127.601 Y38.92 Z-0.373 F1080
G1 X127.576 Y38.924 Z-0.379 F1080
G1 X127.552 Y38.919 Z-0.385 F1080
G1 X127.53 Y38.907 Z-0.391 F1080
G1 X127.513 Y38.888 Z-0.396 F1080
G1 X127.503 Y38.866 Z-0.402 F1080
G1 X127.5 Y38.841 Z-0.408 F1080
G1 X127.506 Y38.816 Z-0.414 F1080
G1 X127.518 Y38.795 Z-0.42 F1080
G1 X127.537 Y38.779 Z-0.426 F1080
G1 X127.56 Y38.769 Z-0.432 F1080
G1 X127.585 Y38.767 Z-0.438 F1080
G1 X127.609 Y38.773 Z-0.444 F1080
G1 X127.631 Y38.786 Z-0.45 F1080
G1 X127.646 Y38.806 Z-0.456 F1080
G1 X127.655 Y38.829 Z-0.462 F1080
G1 X127.657 Y38.854 Z-0.467 F1080
G1 X127.65 Y38.878 Z-0.473 F1080
G1 X127.636 Y38.899 Z-0.479 F1080
G1 X127.617 Y38.914 Z-0.485 F1080
G1 X127.593 Y38.922 Z-0.491 F1080
G1 X127.568 Y38.923 Z-0.497 F1080
G1 X127.544 Y38.916 Z-0.503 F1080
G1 X127.524 Y38.901 Z-0.509 F1080
G1 X127.509 Y38.881 Z-0.515 F1080
G1 X127.501 Y38.857 Z-0.521 F1080
G1 Y38.832 Z-0.527 F1080
G1 X127.509 Y38.809 Z-0.533 F1080
G1 X127.524 Y38.789 Z-0.538 F1080
G1 X127.545 Y38.775 Z-0.544 F1080
G1 X127.569 Y38.767 Z-0.55 F1080
G1 X127.594 Y38.768 Z-0.556 F1080
G1 X127.617 Y38.777 Z-0.562 F1080
G1 X127.637 Y38.792 Z-0.568 F1080
G1 X127.65 Y38.813 Z-0.574 F1080
G1 X127.657 Y38.837 Z-0.58 F1080
G1 X127.655 Y38.862 Z-0.586 F1080
G1 X127.646 Y38.885 Z-0.592 F1080
G1 X127.63 Y38.905 Z-0.598 F1080
G1 X127.609 Y38.918 Z-0.604 F1080
G1 X127.585 Y38.924 Z-0.609 F1080
G1 X127.56 Y38.921 Z-0.615 F1080
G1 X127.537 Y38.912 Z-0.621 F1080
G1 X127.518 Y38.895 Z-0.627 F1080
G1 X127.505 Y38.874 Z-0.633 F1080
G1 X127.5 Y38.849 Z-0.639 F1080
G1 X127.503 Y38.824 Z-0.645 F1080
G1 X127.513 Y38.802 Z-0.651 F1080
G1 X127.531 Y38.783 Z-0.657 F1080
G1 X127.552 Y38.771 Z-0.663 F1080
G1 X127.577 Y38.767 Z-0.669 F1080
G1 X127.602 Y38.77 Z-0.675 F1080
G1 X127.624 Y38.781 Z-0.68 F1080
G1 X127.642 Y38.799 Z-0.686 F1080
G1 X127.653 Y38.821 Z-0.692 F1080
G1 X127.657 Y38.846 Z-0.698 F1080
G1 X127.653 Y38.87 Z-0.704 F1080
G1 X127.641 Y38.892 Z-0.71 F1080
G1 X127.624 Y38.91 Z-0.716 F1080
G1 X127.601 Y38.921 Z-0.722 F1080
G1 X127.576 Y38.924 Z-0.728 F1080
G1 X127.552 Y38.919 Z-0.734 F1080
G1 X127.53 Y38.907 Z-0.74 F1080
G1 X127.513 Y38.888 Z-0.746 F1080
G1 X127.503 Y38.866 Z-0.751 F1080
G1 X127.5 Y38.841 Z-0.757 F1080
G1 X127.506 Y38.816 Z-0.763 F1080
G1 X127.519 Y38.795 Z-0.769 F1080
G1 X127.537 Y38.778 Z-0.775 F1080
G1 X127.56 Y38.769 Z-0.781 F1080
G1 X127.585 Y38.767 Z-0.787 F1080
G1 X127.61 Y38.773 Z-0.793 F1080
G1 X127.631 Y38.786 Z-0.799 F1080
G1 X127.647 Y38.806 Z-0.805 F1080
G1 X127.656 Y38.829 Z-0.811 F1080
G1 X127.657 Y38.854 Z-0.817 F1080
G1 X127.65 Y38.878 Z-0.822 F1080
G1 X127.636 Y38.899 Z-0.828 F1080
G1 X127.616 Y38.914 Z-0.834 F1080
G1 X127.593 Y38.922 Z-0.84 F1080
G1 X127.568 Y38.923 Z-0.846 F1080
G1 X127.544 Y38.916 Z-0.852 F1080
G1 X127.524 Y38.901 Z-0.858 F1080
G1 X127.509 Y38.881 Z-0.864 F1080
G1 X127.501 Y38.857 Z-0.87 F1080
G1 Y38.832 Z-0.876 F1080
G1 X127.509 Y38.809 Z-0.882 F1080
G1 X127.524 Y38.789 Z-0.888 F1080
G1 X127.545 Y38.774 Z-0.893 F1080
G1 X127.569 Y38.767 Z-0.899 F1080
G1 X127.594 Y38.768 Z-0.905 F1080
G1 X127.617 Y38.777 Z-0.911 F1080
G1 X127.637 Y38.792 Z-0.917 F1080
G1 X127.65 Y38.813 Z-0.923 F1080
G1 X127.657 Y38.837 Z-0.929 F1080
G1 X127.655 Y38.862 Z-0.935 F1080
G1 X127.646 Y38.886 Z-0.941 F1080
G1 X127.63 Y38.905 Z-0.947 F1080
G1 X127.609 Y38.918 Z-0.953 F1080
G1 X127.584 Y38.924 Z-0.959 F1080
G1 X127.56 Y38.921 Z-0.964 F1080
G1 X127.537 Y38.912 Z-0.97 F1080
G1 X127.518 Y38.895 Z-0.976 F1080
G1 X127.505 Y38.873 Z-0.982 F1080
G1 X127.5 Y38.849 Z-0.988 F1080
G1 X127.503 Y38.824 Z-0.994 F1080
G1 X127.514 Y38.801 Z-1 F1080
G1 X127.531 Y38.783 Z-1.006 F1080
G1 X127.553 Y38.771 Z-1.012 F1080
G1 X127.577 Y38.767 Z-1.018 F1080
G1 X127.602 Y38.77 Z-1.024 F1080
G1 X127.624 Y38.781 Z-1.03 F1080
G1 X127.642 Y38.799 Z-1.036 F1080
G1 X127.653 Y38.821 Z-1.041 F1080
G1 X127.657 Y38.846 Z-1.047 F1080
G1 X127.653 Y38.87 Z-1.053 F1080
G1 X127.641 Y38.893 Z-1.059 F1080
G1 X127.623 Y38.91 Z-1.065 F1080
G1 X127.601 Y38.921 Z-1.071 F1080
G1 X127.576 Y38.924 Z-1.077 F1080
G1 X127.552 Y38.919 Z-1.083 F1080
G1 X127.53 Y38.907 Z-1.089 F1080
G1 X127.513 Y38.888 Z-1.095 F1080
G1 X127.503 Y38.865 Z-1.101 F1080
G1 X127.5 Y38.84 Z-1.107 F1080
G1 X127.506 Y38.816 Z-1.112 F1080
G1 X127.519 Y38.795 Z-1.118 F1080
G1 X127.538 Y38.778 Z-1.124 F1080
G1 X127.561 Y38.769 Z-1.13 F1080
G1 X127.586 Y38.767 Z-1.136 F1080
G1 X127.61 Y38.773 Z-1.142 F1080
G1 X127.631 Y38.787 Z-1.148 F1080
G1 X127.647 Y38.806 Z-1.154 F1080
G1 X127.656 Y38.829 Z-1.16 F1080
G1 X127.657 Y38.854 Z-1.166 F1080
G1 X127.65 Y38.878 Z-1.172 F1080
G1 X127.636 Y38.899 Z-1.178 F1080
G1 X127.616 Y38.914 Z-1.183 F1080
G1 X127.593 Y38.923 Z-1.189 F1080
G1 X127.568 Z-1.195 F1080
G1 X127.544 Y38.916 Z-1.201 F1080
G1 X127.523 Y38.901 Z-1.207 F1080
G1 X127.509 Y38.881 Z-1.213 F1080
G1 X127.501 Y38.857 Z-1.219 F1080
G1 Y38.832 Z-1.225 F1080
G1 X127.509 Y38.808 Z-1.231 F1080
G1 X127.524 Y38.789 Z-1.237 F1080
G1 X127.545 Y38.774 Z-1.243 F1080
G1 X127.569 Y38.767 Z-1.249 F1080
G1 X127.594 Y38.768 Z-1.254 F1080
G1 X127.617 Y38.777 Z-1.26 F1080
G1 X127.637 Y38.793 Z-1.266 F1080
G1 X127.65 Y38.813 Z-1.272 F1080
G1 X127.657 Y38.838 Z-1.278 F1080
G1 X127.655 Y38.863 Z-1.284 F1080
G1 X127.646 Y38.886 Z-1.29 F1080
G1 X127.63 Y38.905 Z-1.296 F1080
G1 X127.609 Y38.918 Z-1.302 F1080
G1 X127.584 Y38.924 Z-1.308 F1080
G1 X127.559 Y38.921 Z-1.314 F1080
G1 X127.536 Y38.911 Z-1.32 F1080
G1 X127.518 Y38.895 Z-1.325 F1080
G1 X127.505 Y38.873 Z-1.331 F1080
G1 X127.5 Y38.849 Z-1.337 F1080
G1 X127.503 Y38.824 Z-1.343 F1080
G1 X127.514 Y38.801 Z-1.349 F1080
G1 X127.531 Y38.783 Z-1.355 F1080
G1 X127.553 Y38.771 Z-1.361 F1080
G1 X127.577 Y38.767 Z-1.367 F1080
G1 X127.602 Y38.77 Z-1.373 F1080
G1 X127.624 Y38.781 Z-1.379 F1080
G1 X127.642 Y38.799 Z-1.385 F1080
G1 X127.653 Y38.821 Z-1.391 F1080
G1 X127.657 Y38.846 Z-1.396 F1080
G1 X127.653 Y38.871 Z-1.402 F1080
G1 X127.641 Y38.893 Z-1.408 F1080
G1 X127.623 Y38.91 Z-1.414 F1080
G1 X127.601 Y38.921 Z-1.42 F1080
G1 X127.576 Y38.924 Z-1.426 F1080
G1 X127.551 Y38.919 Z-1.432 F1080
G1 X127.53 Y38.907 Z-1.438 F1080
G1 X127.513 Y38.888 Z-1.444 F1080
G1 X127.503 Y38.865 Z-1.45 F1080
G1 X127.5 Y38.84 Z-1.456 F1080
G1 X127.506 Y38.816 Z-1.462 F1080
G1 X127.519 Y38.795 Z-1.467 F1080
G1 X127.538 Y38.778 Z-1.473 F1080
G1 X127.561 Y38.769 Z-1.479 F1080
G1 X127.586 Y38.767 Z-1.485 F1080
G1 X127.61 Y38.773 Z-1.491 F1080
G1 X127.631 Y38.787 Z-1.497 F1080
G1 X127.647 Y38.806 Z-1.503 F1080
G1 X127.656 Y38.829 Z-1.509 F1080
G1 X127.657 Y38.854 Z-1.515 F1080
G1 X127.65 Y38.878 Z-1.521 F1080
G1 X127.636 Y38.899 Z-1.527 F1080
G1 X127.616 Y38.914 Z-1.533 F1080
G1 X127.592 Y38.923 Z-1.538 F1080
G1 X127.567 Z-1.544 F1080
G1 X127.544 Y38.915 Z-1.55 F1080
G1 X127.523 Y38.901 Z-1.556 F1080
G1 X127.509 Y38.881 Z-1.562 F1080
G1 X127.501 Y38.857 Z-1.568 F1080
G1 Y38.832 Z-1.574 F1080
G1 X127.509 Y38.808 Z-1.58 F1080
G1 X127.525 Y38.788 Z-1.586 F1080
G1 X127.545 Y38.774 Z-1.592 F1080
G1 X127.569 Y38.767 Z-1.598 F1080
G1 X127.594 Y38.768 Z-1.604 F1080
G1 X127.618 Y38.777 Z-1.609 F1080
G1 X127.637 Y38.793 Z-1.615 F1080
G1 X127.651 Y38.814 Z-1.621 F1080
G1 X127.657 Y38.838 Z-1.627 F1080
G1 X127.655 Y38.863 Z-1.633 F1080
G1 X127.646 Y38.886 Z-1.639 F1080
G1 X127.63 Y38.905 Z-1.645 F1080
G1 X127.608 Y38.918 Z-1.651 F1080
G1 X127.584 Y38.924 Z-1.657 F1080
G1 X127.559 Y38.921 Z-1.663 F1080
G1 X127.536 Y38.911 Z-1.669 F1080
G1 X127.518 Y38.895 Z-1.675 F1080
G1 X127.505 Y38.873 Z-1.68 F1080
G1 X127.5 Y38.849 Z-1.686 F1080
G1 X127.503 Y38.824 Z-1.692 F1080
G1 X127.514 Y38.801 Z-1.698 F1080
G1 X127.531 Y38.783 Z-1.704 F1080
G1 X127.553 Y38.771 Z-1.71 F1080
G1 X127.578 Y38.767 Z-1.716 F1080
G1 X127.602 Y38.77 Z-1.722 F1080
G1 X127.625 Y38.782 Z-1.728 F1080
G1 X127.642 Y38.799 Z-1.734 F1080
G1 X127.654 Y38.821 Z-1.74 F1080
G1 X127.657 Y38.846 Z-1.746 F1080
G1 X127.653 Y38.871 Z-1.751 F1080
G1 X127.641 Y38.893 Z-1.757 F1080
G1 X127.623 Y38.91 Z-1.763 F1080
G1 X127.6 Y38.921 Z-1.769 F1080
G1 X127.576 Y38.924 Z-1.775 F1080
G1 X127.551 Y38.919 Z-1.781 F1080
G1 X127.529 Y38.906 Z-1.787 F1080
G1 X127.513 Y38.888 Z-1.793 F1080
G1 X127.503 Y38.865 Z-1.799 F1080
G1 X127.5 Y38.84 Z-1.805 F1080
G1 X127.506 Y38.816 Z-1.811 F1080
G1 X127.519 Y38.794 Z-1.817 F1080
G1 X127.538 Y38.778 Z-1.822 F1080
G1 X127.561 Y38.769 Z-1.828 F1080
G1 X127.586 Y38.767 Z-1.834 F1080
G1 X127.61 Y38.773 Z-1.84 F1080
G1 X127.631 Y38.787 Z-1.846 F1080
G1 X127.647 Y38.806 Z-1.852 F1080
G1 X127.656 Y38.83 Z-1.858 F1080
G1 X127.657 Y38.855 Z-1.864 F1080
G1 X127.65 Y38.879 Z-1.87 F1080
G1 X127.636 Y38.899 Z-1.876 F1080
G1 X127.616 Y38.914 Z-1.882 F1080
G1 X127.592 Y38.923 Z-1.888 F1080
G1 X127.567 Z-1.893 F1080
G1 X127.543 Y38.915 Z-1.899 F1080
G1 X127.523 Y38.901 Z-1.905 F1080
G1 X127.509 Y38.881 Z-1.911 F1080
G1 X127.501 Y38.857 Z-1.917 F1080
G1 Y38.832 Z-1.923 F1080
G1 X127.51 Y38.808 Z-1.929 F1080
G1 X127.525 Y38.788 Z-1.935 F1080
G1 X127.545 Y38.774 Z-1.941 F1080
G1 X127.569 Y38.767 Z-1.947 F1080
G1 X127.594 Y38.768 Z-1.953 F1080
G1 X127.618 Y38.777 Z-1.959 F1080
G1 X127.637 Y38.793 Z-1.964 F1080
G1 X127.651 Y38.814 Z-1.97 F1080
G1 X127.657 Y38.838 Z-1.976 F1080
G1 X127.655 Y38.863 Z-1.982 F1080
G1 X127.646 Y38.886 Z-1.988 F1080
G1 X127.63 Y38.905 Z-1.994 F1080
G1 X127.608 Y38.918 Z-2 F1080
G1 X127.584 Y38.924 Z-2.006 F1080
G1 X127.559 Y38.921 Z-2.012 F1080
G1 X127.536 Y38.911 Z-2.018 F1080
G1 X127.518 Y38.895 Z-2.024 F1080
G1 X127.505 Y38.873 Z-2.03 F1080
G1 X127.5 Y38.848 Z-2.036 F1080
G1 X127.503 Y38.824 Z-2.041 F1080
G1 X127.514 Y38.801 Z-2.047 F1080
G1 X127.531 Y38.783 Z-2.053 F1080
G1 X127.553 Y38.771 Z-2.059 F1080
G1 X127.578 Y38.767 Z-2.065 F1080
G1 X127.602 Y38.77 Z-2.071 F1080
G1 X127.625 Y38.782 Z-2.077 F1080
G1 X127.642 Y38.799 Z-2.083 F1080
G1 X127.654 Y38.822 Z-2.089 F1080
G1 X127.657 Y38.846 Z-2.095 F1080
G1 X127.653 Y38.871 Z-2.101 F1080
G1 X127.641 Y38.893 Z-2.107 F1080
G1 X127.623 Y38.91 Z-2.112 F1080
G1 X127.6 Y38.921 Z-2.118 F1080
G1 X127.575 Y38.924 Z-2.124 F1080
G1 X127.551 Y38.919 Z-2.13 F1080
G1 X127.529 Y38.906 Z-2.136 F1080
G1 X127.513 Y38.888 Z-2.142 F1080
G1 X127.503 Y38.865 Z-2.148 F1080
G1 X127.5 Y38.84 Z-2.154 F1080
G1 X127.506 Y38.816 Z-2.16 F1080
G1 X127.519 Y38.794 Z-2.166 F1080
G1 X127.538 Y38.778 Z-2.172 F1080
G1 X127.561 Y38.769 Z-2.178 F1080
G1 X127.586 Y38.767 Z-2.183 F1080
G1 X127.61 Y38.773 Z-2.189 F1080
G1 X127.631 Y38.787 Z-2.195 F1080
G1 X127.647 Y38.806 Z-2.201 F1080
G1 X127.656 Y38.83 Z-2.207 F1080
G1 X127.657 Y38.855 Z-2.213 F1080
G1 X127.65 Y38.879 Z-2.219 F1080
G1 X127.636 Y38.899 Z-2.225 F1080
G1 X127.616 Y38.915 Z-2.231 F1080
G1 X127.592 Y38.923 Z-2.237 F1080
G1 X127.567 Z-2.243 F1080
G1 X127.543 Y38.915 Z-2.249 F1080
G1 X127.523 Y38.901 Z-2.254 F1080
G1 X127.508 Y38.88 Z-2.26 F1080
G1 X127.501 Y38.857 Z-2.266 F1080
G1 Y38.832 Z-2.272 F1080
G1 X127.51 Y38.808 Z-2.278 F1080
G1 X127.525 Y38.788 Z-2.284 F1080
G1 X127.545 Y38.774 Z-2.29 F1080
G1 X127.57 Y38.767 Z-2.296 F1080
G1 X127.594 Y38.768 Z-2.302 F1080
G1 X127.618 Y38.777 Z-2.308 F1080
G1 X127.637 Y38.793 Z-2.314 F1080
G1 X127.651 Y38.814 Z-2.32 F1080
G1 X127.657 Y38.838 Z-2.325 F1080
G1 X127.655 Y38.863 Z-2.331 F1080
G1 X127.646 Y38.886 Z-2.337 F1080
G1 X127.629 Y38.905 Z-2.343 F1080
G1 X127.608 Y38.918 Z-2.349 F1080
G1 X127.584 Y38.924 Z-2.355 F1080
G1 X127.559 Y38.921 Z-2.361 F1080
G1 X127.536 Y38.911 Z-2.367 F1080
G1 X127.517 Y38.894 Z-2.373 F1080
G1 X127.505 Y38.873 Z-2.379 F1080
G1 X127.5 Y38.848 Z-2.385 F1080
G1 X127.503 Y38.823 Z-2.391 F1080
G1 X127.514 Y38.801 Z-2.396 F1080
G1 X127.531 Y38.783 Z-2.402 F1080
G1 X127.553 Y38.771 Z-2.408 F1080
G1 X127.578 Y38.767 Z-2.414 F1080
G1 X127.603 Y38.77 Z-2.42 F1080
G1 X127.625 Y38.782 Z-2.426 F1080
G1 X127.642 Y38.8 Z-2.432 F1080
G1 X127.654 Y38.822 Z-2.438 F1080
G1 X127.657 Y38.847 Z-2.444 F1080
G1 X127.653 Y38.871 Z-2.45 F1080
G1 X127.641 Y38.893 Z-2.456 F1080
G1 X127.623 Y38.91 Z-2.462 F1080
G1 X127.6 Y38.921 Z-2.467 F1080
G1 X127.575 Y38.924 Z-2.473 F1080
G1 X127.551 Y38.919 Z-2.479 F1080
G1 X127.529 Y38.906 Z-2.485 F1080
G1 X127.513 Y38.888 Z-2.491 F1080
G1 X127.503 Y38.865 Z-2.497 F1080
G1 X127.5 Y38.84 Z-2.503 F1080
G1 X127.506 Y38.815 Z-2.509 F1080
G1 X127.519 Y38.794 Z-2.515 F1080
G1 X127.538 Y38.778 Z-2.521 F1080
G1 X127.561 Y38.769 Z-2.527 F1080
G1 X127.586 Y38.767 Z-2.533 F1080
G1 X127.61 Y38.773 Z-2.538 F1080
G1 X127.631 Y38.787 Z-2.544 F1080
G1 X127.647 Y38.807 Z-2.55 F1080
G1 X127.656 Y38.83 Z-2.556 F1080
G1 X127.657 Y38.855 Z-2.562 F1080
G1 X127.65 Y38.879 Z-2.568 F1080
G1 X127.635 Y38.9 Z-2.574 F1080
G1 X127.616 Y38.915 Z-2.58 F1080
G1 X127.592 Y38.923 Z-2.586 F1080
G1 X127.567 Z-2.592 F1080
G1 X127.543 Y38.915 Z-2.598 F1080
G1 X127.523 Y38.901 Z-2.604 F1080
G1 X127.508 Y38.88 Z-2.609 F1080
G1 X127.501 Y38.856 Z-2.615 F1080
G1 Y38.831 Z-2.621 F1080
G1 X127.51 Y38.808 Z-2.627 F1080
G1 X127.525 Y38.788 Z-2.633 F1080
G1 X127.546 Y38.774 Z-2.639 F1080
G1 X127.57 Y38.767 Z-2.645 F1080
G1 X127.595 Y38.768 Z-2.651 F1080
G1 X127.618 Y38.777 Z-2.657 F1080
G1 X127.637 Y38.793 Z-2.663 F1080
G1 X127.651 Y38.814 Z-2.669 F1080
G1 X127.657 Y38.838 Z-2.675 F1080
G1 X127.655 Y38.863 Z-2.68 F1080
G1 X127.646 Y38.886 Z-2.686 F1080
G1 X127.629 Y38.905 Z-2.692 F1080
G1 X127.608 Y38.918 Z-2.698 F1080
G1 X127.584 Y38.924 Z-2.704 F1080
G1 X127.559 Y38.921 Z-2.71 F1080
G1 X127.536 Y38.911 Z-2.716 F1080
G1 X127.517 Y38.894 Z-2.722 F1080
G1 X127.505 Y38.872 Z-2.728 F1080
G1 X127.5 Y38.848 Z-2.734 F1080
G1 X127.503 Y38.823 Z-2.74 F1080
G1 X127.514 Y38.801 Z-2.746 F1080
G1 X127.531 Y38.783 Z-2.751 F1080
G1 X127.553 Y38.771 Z-2.757 F1080
G1 X127.578 Y38.767 Z-2.763 F1080
G1 X127.603 Y38.771 Z-2.769 F1080
G1 X127.625 Y38.782 Z-2.775 F1080
G1 X127.643 Y38.8 Z-2.781 F1080
G1 X127.654 Y38.822 Z-2.787 F1080
G1 X127.657 Y38.847 Z-2.793 F1080
G1 X127.653 Y38.871 Z-2.799 F1080
G1 X127.641 Y38.893 Z-2.805 F1080
G1 X127.623 Y38.91 Z-2.811 F1080
G1 X127.6 Y38.921 Z-2.817 F1080
G1 X127.575 Y38.924 Z-2.822 F1080
G1 X127.551 Y38.919 Z-2.828 F1080
G1 X127.529 Y38.906 Z-2.834 F1080
G1 X127.512 Y38.887 Z-2.84 F1080
G1 X127.503 Y38.864 Z-2.846 F1080
G1 X127.5 Y38.84 Z-2.852 F1080
G1 X127.506 Y38.815 Z-2.858 F1080
G1 X127.519 Y38.794 Z-2.864 F1080
G1 X127.538 Y38.778 Z-2.87 F1080
G1 X127.562 Y38.769 Z-2.876 F1080
G1 X127.587 Y38.767 Z-2.882 F1080
G1 X127.611 Y38.774 Z-2.888 F1080
G1 X127.632 Y38.787 Z-2.893 F1080
G1 X127.647 Y38.807 Z-2.899 F1080
G1 X127.656 Y38.83 Z-2.905 F1080
G1 X127.657 Y38.855 Z-2.911 F1080
G1 X127.65 Y38.879 Z-2.917 F1080
G1 X127.635 Y38.9 Z-2.923 F1080
G1 X127.615 Y38.915 Z-2.929 F1080
G1 X127.592 Y38.923 Z-2.935 F1080
G1 X127.567 Z-2.941 F1080
G1 X127.543 Y38.915 Z-2.947 F1080
G1 X127.523 Y38.9 Z-2.953 F1080
G1 X127.508 Y38.88 Z-2.959 F1080
G1 X127.501 Y38.856 Z-2.964 F1080
G1 Y38.831 Z-2.97 F1080
G1 X127.51 Y38.808 Z-2.976 F1080
G1 X127.525 Y38.788 Z-2.982 F1080
G1 X127.546 Y38.774 Z-2.988 F1080
G1 X127.57 Y38.767 Z-2.994 F1080
G1 X127.595 Y38.768 Z-3 F1080
G1 X127.618 Y38.777 Z-3.006 F1080
G1 X127.637 Y38.793 Z-3.012 F1080
G1 X127.651 Y38.814 Z-3.018 F1080
G1 X127.657 Y38.839 Z-3.024 F1080
G1 X127.655 Y38.863 Z-3.03 F1080
G1 X127.645 Y38.887 Z-3.036 F1080
G1 X127.629 Y38.905 Z-3.041 F1080
G1 X127.608 Y38.918 Z-3.047 F1080
G1 X127.583 Y38.924 Z-3.053 F1080
G1 X127.558 Y38.921 Z-3.059 F1080
G1 X127.536 Y38.911 Z-3.065 F1080
G1 X127.517 Y38.894 Z-3.071 F1080
G1 X127.505 Y38.872 Z-3.077 F1080
G1 X127.5 Y38.848 Z-3.083 F1080
G1 X127.503 Y38.823 Z-3.089 F1080
G1 X127.514 Y38.8 Z-3.095 F1080
G1 X127.532 Y38.782 Z-3.101 F1080
G1 X127.554 Y38.771 Z-3.107 F1080
G1 X127.578 Y38.767 Z-3.112 F1080
G1 X127.603 Y38.771 Z-3.118 F1080
G1 X127.625 Y38.782 Z-3.124 F1080
G1 X127.643 Y38.8 Z-3.13 F1080
G1 X127.654 Y38.822 Z-3.136 F1080
G1 X127.657 Y38.847 Z-3.142 F1080
G1 X127.653 Y38.872 Z-3.148 F1080
G1 X127.641 Y38.893 Z-3.154 F1080
G1 X127.622 Y38.91 Z-3.16 F1080
G1 X127.6 Y38.921 Z-3.166 F1080
G1 X127.575 Y38.924 Z-3.172 F1080
G1 X127.55 Y38.919 Z-3.178 F1080
G1 X127.529 Y38.906 Z-3.183 F1080
G1 X127.512 Y38.887 Z-3.189 F1080
G1 X127.503 Y38.864 Z-3.195 F1080
G1 X127.5 Y38.839 Z-3.201 F1080
G1 X127.506 Y38.815 Z-3.207 F1080
G1 X127.519 Y38.794 Z-3.213 F1080
G1 X127.539 Y38.778 Z-3.219 F1080
G1 X127.562 Y38.769 Z-3.225 F1080
G1 X127.587 Y38.767 Z-3.231 F1080
G1 X127.611 Y38.774 Z-3.237 F1080
G1 X127.632 Y38.787 Z-3.243 F1080
G1 X127.647 Y38.807 Z-3.249 F1080
G1 X127.656 Y38.83 Z-3.254 F1080
G1 X127.657 Y38.855 Z-3.26 F1080
G1 X127.649 Y38.879 Z-3.266 F1080
G1 X127.635 Y38.9 Z-3.272 F1080
G1 X127.615 Y38.915 Z-3.278 F1080
G1 X127.592 Y38.923 Z-3.284 F1080
G1 X127.567 Z-3.29 F1080
G1 X127.543 Y38.915 Z-3.296 F1080
G1 X127.523 Y38.9 Z-3.302 F1080
G1 X127.508 Y38.88 Z-3.308 F1080
G1 X127.501 Y38.856 Z-3.314 F1080
G1 X127.502 Y38.831 Z-3.32 F1080
G1 X127.51 Y38.807 Z-3.325 F1080
G1 X127.525 Y38.788 Z-3.331 F1080
G1 X127.546 Y38.774 Z-3.337 F1080
G1 X127.57 Y38.767 Z-3.343 F1080
G1 X127.595 Y38.768 Z-3.349 F1080
G1 X127.618 Y38.777 Z-3.355 F1080
G1 X127.638 Y38.793 Z-3.361 F1080
G1 X127.651 Y38.814 Z-3.367 F1080
G1 X127.657 Y38.839 Z-3.373 F1080
G1 X127.655 Y38.864 Z-3.379 F1080
G1 X127.645 Y38.887 Z-3.385 F1080
G1 X127.629 Y38.906 Z-3.391 F1080
G1 X127.608 Y38.918 Z-3.396 F1080
G1 X127.583 Y38.924 Z-3.402 F1080
G1 X127.558 Y38.921 Z-3.408 F1080
G1 X127.536 Y38.911 Z-3.414 F1080
G1 X127.517 Y38.894 Z-3.42 F1080
G1 X127.505 Y38.872 Z-3.426 F1080
G1 X127.5 Y38.848 Z-3.432 F1080
G1 X127.503 Y38.823 Z-3.438 F1080
G1 X127.514 Y38.8 Z-3.444 F1080
G1 X127.532 Y38.782 Z-3.45 F1080
G1 X127.554 Y38.771 Z-3.456 F1080
G1 X127.578 Y38.767 Z-3.462 F1080
G1 X127.603 Y38.771 Z-3.467 F1080
G1 X127.625 Y38.782 Z-3.473 F1080
G1 X127.643 Y38.8 Z-3.479 F1080
G1 X127.654 Y38.822 Z-3.485 F1080
G1 X127.657 Y38.847 Z-3.491 F1080
G1 X127.653 Y38.872 Z-3.497 F1080
G1 X127.641 Y38.894 Z-3.503 F1080
G1 X127.622 Y38.911 Z-3.509 F1080
G1 X127.6 Y38.921 Z-3.515 F1080
G1 X127.575 Y38.924 Z-3.521 F1080
G1 X127.55 Y38.918 Z-3.527 F1080
G1 X127.529 Y38.906 Z-3.533 F1080
G1 X127.512 Y38.887 Z-3.538 F1080
G1 X127.502 Y38.864 Z-3.544 F1080
G1 X127.5 Y38.839 Z-3.55 F1080
G1 X127.506 Y38.815 Z-3.556 F1080
G1 X127.52 Y38.794 Z-3.562 F1080
G1 X127.539 Y38.778 Z-3.568 F1080
G1 X127.562 Y38.769 Z-3.574 F1080
G1 X127.587 Y38.767 Z-3.58 F1080
G1 X127.611 Y38.774 Z-3.586 F1080
G1 X127.632 Y38.787 Z-3.592 F1080
G1 X127.647 Y38.807 Z-3.598 F1080
G1 X127.656 Y38.831 Z-3.604 F1080
G1 X127.657 Y38.856 Z-3.609 F1080
G1 X127.649 Y38.879 Z-3.615 F1080
G1 X127.635 Y38.9 Z-3.621 F1080
G1 X127.615 Y38.915 Z-3.627 F1080
G1 X127.591 Y38.923 Z-3.633 F1080
G1 X127.566 Z-3.639 F1080
G1 X127.543 Y38.915 Z-3.645 F1080
G1 X127.523 Y38.9 Z-3.651 F1080
G1 X127.508 Y38.88 Z-3.657 F1080
G1 X127.501 Y38.856 Z-3.663 F1080
G1 X127.502 Y38.831 Z-3.669 F1080
G1 X127.51 Y38.807 Z-3.675 F1080
G1 X127.525 Y38.788 Z-3.68 F1080
G1 X127.546 Y38.774 Z-3.686 F1080
G1 X127.57 Y38.767 Z-3.692 F1080
G1 X127.595 Y38.769 Z-3.698 F1080
G1 X127.618 Y38.778 Z-3.704 F1080
G1 X127.638 Y38.793 Z-3.71 F1080
G1 X127.651 Y38.815 Z-3.716 F1080
G1 X127.657 Y38.839 Z-3.722 F1080
G1 X127.655 Y38.864 Z-3.728 F1080
G1 X127.645 Y38.887 Z-3.734 F1080
G1 X127.629 Y38.906 Z-3.74 F1080
G1 X127.607 Y38.918 Z-3.746 F1080
G1 X127.583 Y38.924 Z-3.751 F1080
G1 X127.558 Y38.921 Z-3.757 F1080
G1 X127.535 Y38.911 Z-3.763 F1080
G1 X127.517 Y38.894 Z-3.769 F1080
G1 X127.505 Y38.872 Z-3.775 F1080
G1 X127.5 Y38.847 Z-3.781 F1080
G1 X127.504 Y38.823 Z-3.787 F1080
G1 X127.514 Y38.8 Z-3.793 F1080
G1 X127.532 Y38.782 Z-3.799 F1080
G1 X127.554 Y38.771 Z-3.805 F1080
G1 X127.579 Y38.767 Z-3.811 F1080
G1 X127.603 Y38.771 Z-3.817 F1080
G1 X127.625 Y38.782 Z-3.822 F1080
G1 X127.643 Y38.8 Z-3.828 F1080
G1 X127.654 Y38.823 Z-3.834 F1080
G1 X127.657 Y38.847 Z-3.84 F1080
G1 X127.653 Y38.872 Z-3.846 F1080
G1 X127.64 Y38.894 Z-3.852 F1080
G1 X127.622 Y38.911 Z-3.858 F1080
G1 X127.599 Y38.921 Z-3.864 F1080
G1 X127.575 Y38.924 Z-3.87 F1080
G1 X127.55 Y38.918 Z-3.876 F1080
G1 X127.529 Y38.906 Z-3.882 F1080
G1 X127.512 Y38.887 Z-3.888 F1080
G1 X127.502 Y38.864 Z-3.893 F1080
G1 X127.5 Y38.839 Z-3.899 F1080
G1 X127.506 Y38.815 Z-3.905 F1080
G1 X127.52 Y38.794 Z-3.911 F1080
G1 X127.539 Y38.778 Z-3.917 F1080
G1 X127.562 Y38.769 Z-3.923 F1080
G1 X127.587 Y38.767 Z-3.929 F1080
G1 X127.611 Y38.774 Z-3.935 F1080
G1 X127.632 Y38.788 Z-3.941 F1080
G1 X127.647 Y38.807 Z-3.947 F1080
G1 X127.656 Y38.831 Z-3.953 F1080
G1 X127.657 Y38.856 Z-3.959 F1080
G1 X127.649 Y38.88 Z-3.964 F1080
G1 X127.635 Y38.9 Z-3.97 F1080
G1 X127.615 Y38.915 Z-3.976 F1080
G1 X127.591 Y38.923 Z-3.982 F1080
G1 X127.566 Z-3.988 F1080
G1 X127.542 Y38.915 Z-3.994 F1080
G1 X127.522 Y38.9 Z-4 F1080
G1 X127.508 Y38.88 Z-4.006 F1080
G1 X127.501 Y38.856 Z-4.012 F1080
G1 X127.502 Y38.831 Z-4.018 F1080
G1 X127.51 Y38.807 Z-4.024 F1080
G1 X127.526 Y38.788 Z-4.03 F1080
G1 X127.546 Y38.774 Z-4.036 F1080
G1 X127.57 Y38.767 Z-4.041 F1080
G1 X127.595 Y38.769 Z-4.047 F1080
G1 X127.619 Y38.778 Z-4.053 F1080
G1 X127.638 Y38.794 Z-4.059 F1080
G1 X127.651 Y38.815 Z-4.065 F1080
G1 X127.657 Y38.839 Z-4.071 F1080
G1 X127.655 Y38.864 Z-4.077 F1080
G1 X127.645 Y38.887 Z-4.083 F1080
G1 X127.629 Y38.906 Z-4.089 F1080
G1 X127.607 Y38.918 Z-4.095 F1080
G1 X127.583 Y38.924 Z-4.101 F1080
G1 X127.558 Y38.921 Z-4.107 F1080
G1 X127.535 Y38.911 Z-4.112 F1080
G1 X127.517 Y38.894 Z-4.118 F1080
G1 X127.505 Y38.872 Z-4.124 F1080
G1 X127.5 Y38.847 Z-4.13 F1080
G1 X127.504 Y38.822 Z-4.136 F1080
G1 X127.515 Y38.8 Z-4.142 F1080
G1 X127.532 Y38.782 Z-4.148 F1080
G1 X127.554 Y38.771 Z-4.154 F1080
G1 X127.579 Y38.767 Z-4.16 F1080
G1 X127.604 Y38.771 Z-4.166 F1080
G1 X127.626 Y38.782 Z-4.172 F1080
G1 X127.643 Y38.8 Z-4.178 F1080
G1 X127.654 Y38.823 Z-4.183 F1080
G1 X127.657 Y38.848 Z-4.189 F1080
G1 X127.652 Y38.872 Z-4.195 F1080
G1 X127.64 Y38.894 Z-4.201 F1080
G1 X127.622 Y38.911 Z-4.207 F1080
G1 X127.599 Y38.921 Z-4.213 F1080
G1 X127.574 Y38.924 Z-4.219 F1080
G1 X127.55 Y38.918 Z-4.225 F1080
G1 X127.528 Y38.906 Z-4.231 F1080
G1 X127.512 Y38.887 Z-4.237 F1080
G1 X127.502 Y38.864 Z-4.243 F1080
G1 X127.5 Y38.839 Z-4.249 F1080
G1 X127.506 Y38.815 Z-4.254 F1080
G1 X127.52 Y38.793 Z-4.26 F1080
G1 X127.539 Y38.778 Z-4.266 F1080
G1 X127.562 Y38.768 Z-4.272 F1080
G1 X127.587 Y38.767 Z-4.278 F1080
G1 X127.611 Y38.774 Z-4.284 F1080
G1 X127.632 Y38.788 Z-4.29 F1080
G1 X127.647 Y38.807 Z-4.296 F1080
G1 X127.656 Y38.831 Z-4.302 F1080
G1 Y38.856 Z-4.308 F1080
G1 X127.649 Y38.88 Z-4.314 F1080
G1 X127.635 Y38.9 Z-4.32 F1080
G1 X127.615 Y38.915 Z-4.325 F1080
G1 X127.591 Y38.923 Z-4.331 F1080
G1 X127.566 Z-4.337 F1080
G1 X127.542 Y38.915 Z-4.343 F1080
G1 X127.522 Y38.9 Z-4.349 F1080
G1 X127.508 Y38.879 Z-4.355 F1080
G1 X127.501 Y38.855 Z-4.361 F1080
G1 X127.502 Y38.83 Z-4.367 F1080
G1 X127.51 Y38.807 Z-4.373 F1080
G1 X127.526 Y38.787 Z-4.379 F1080
G1 X127.547 Y38.774 Z-4.385 F1080
G1 X127.571 Y38.767 Z-4.391 F1080
G1 X127.596 Y38.769 Z-4.396 F1080
G1 X127.619 Y38.778 Z-4.402 F1080
G1 X127.638 Y38.794 Z-4.408 F1080
G1 X127.651 Y38.815 Z-4.414 F1080
G1 X127.657 Y38.839 Z-4.42 F1080
G1 X127.655 Y38.864 Z-4.426 F1080
G1 X127.645 Y38.887 Z-4.432 F1080
G1 X127.629 Y38.906 Z-4.438 F1080
G1 X127.607 Y38.918 Z-4.444 F1080
G1 X127.583 Y38.924 Z-4.45 F1080
G1 X127.558 Y38.921 Z-4.456 F1080
G1 X127.535 Y38.911 Z-4.462 F1080
G1 X127.517 Y38.893 Z-4.467 F1080
G1 X127.505 Y38.872 Z-4.473 F1080
G1 X127.5 Y38.847 Z-4.479 F1080
G1 X127.504 Y38.822 Z-4.485 F1080
G1 X127.515 Y38.8 Z-4.491 F1080
G1 X127.532 Y38.782 Z-4.497 F1080
G1 X127.554 Y38.771 Z-4.503 F1080
G1 X127.579 Y38.767 Z-4.509 F1080
G1 X127.604 Y38.771 Z-4.515 F1080
G1 X127.626 Y38.782 Z-4.521 F1080
G1 X127.643 Y38.8 Z-4.527 F1080
G1 X127.654 Y38.823 Z-4.533 F1080
G1 X127.657 Y38.848 Z-4.538 F1080
G1 X127.652 Y38.872 Z-4.544 F1080
G1 X127.64 Y38.894 Z-4.55 F1080
G1 X127.622 Y38.911 Z-4.556 F1080
G1 X127.599 Y38.921 Z-4.562 F1080
G1 X127.574 Y38.924 Z-4.568 F1080
G1 X127.55 Y38.918 Z-4.574 F1080
G1 X127.528 Y38.905 Z-4.58 F1080
G1 X127.512 Y38.887 Z-4.586 F1080
G1 X127.502 Y38.864 Z-4.592 F1080
G1 X127.5 Y38.839 Z-4.598 F1080
G1 X127.507 Y38.814 Z-4.604 F1080
G1 X127.52 Y38.793 Z-4.609 F1080
G1 X127.539 Y38.777 Z-4.615 F1080
G1 X127.563 Y38.768 Z-4.621 F1080
G1 X127.587 Y38.767 Z-4.627 F1080
G1 X127.612 Y38.774 Z-4.633 F1080
G1 X127.632 Y38.788 Z-4.639 F1080
G1 X127.648 Y38.808 Z-4.645 F1080
G1 X127.656 Y38.831 Z-4.651 F1080
G1 Y38.856 Z-4.657 F1080
G1 X127.649 Y38.88 Z-4.663 F1080
G1 X127.635 Y38.9 Z-4.669 F1080
G1 X127.615 Y38.915 Z-4.675 F1080
G1 X127.591 Y38.923 Z-4.68 F1080
G1 X127.566 Z-4.686 F1080
G1 X127.542 Y38.915 Z-4.692 F1080
G1 X127.522 Y38.9 Z-4.698 F1080
G1 X127.508 Y38.879 Z-4.704 F1080
G1 X127.501 Y38.855 Z-4.71 F1080
G1 X127.502 Y38.83 Z-4.716 F1080
G1 X127.51 Y38.807 Z-4.722 F1080
G1 X127.526 Y38.787 Z-4.728 F1080
G1 X127.547 Y38.774 Z-4.734 F1080
G1 X127.571 Y38.767 Z-4.74 F1080
G1 X127.596 Y38.769 Z-4.746 F1080
G1 X127.619 Y38.778 Z-4.751 F1080
G1 X127.638 Y38.794 Z-4.757 F1080
G1 X127.651 Y38.815 Z-4.763 F1080
G1 X127.657 Y38.839 Z-4.769 F1080
G1 X127.655 Y38.864 Z-4.775 F1080
G1 X127.645 Y38.887 Z-4.781 F1080
G1 X127.628 Y38.906 Z-4.787 F1080
G1 X127.607 Y38.919 Z-4.793 F1080
G1 X127.582 Y38.924 Z-4.799 F1080
G1 X127.558 Y38.921 Z-4.805 F1080
G1 X127.535 Y38.91 Z-4.811 F1080
G1 X127.517 Y38.893 Z-4.817 F1080
G1 X127.505 Y38.871 Z-4.822 F1080
G1 X127.5 Y38.847 Z-4.828 F1080
G1 X127.504 Y38.822 Z-4.834 F1080
G1 X127.515 Y38.8 Z-4.84 F1080
G1 X127.532 Y38.782 Z-4.846 F1080
G1 X127.555 Y38.771 Z-4.852 F1080
G1 X127.579 Y38.767 Z-4.858 F1080
G1 X127.604 Y38.771 Z-4.864 F1080
G1 X127.626 Y38.783 Z-4.87 F1080
G1 X127.643 Y38.801 Z-4.876 F1080
G1 X127.654 Y38.823 Z-4.882 F1080
G1 X127.657 Y38.848 Z-4.888 F1080
G1 X127.652 Y38.872 Z-4.893 F1080
G1 X127.64 Y38.894 Z-4.899 F1080
G1 X127.622 Y38.911 Z-4.905 F1080
G1 X127.599 Y38.921 Z-4.911 F1080
G1 X127.574 Y38.924 Z-4.917 F1080
G1 X127.55 Y38.918 Z-4.923 F1080
G1 X127.528 Y38.905 Z-4.929 F1080
G1 X127.512 Y38.886 Z-4.935 F1080
G1 X127.502 Y38.863 Z-4.941 F1080
G1 X127.5 Y38.838 Z-4.947 F1080
G1 X127.507 Y38.814 Z-4.953 F1080
G1 X127.52 Y38.793 Z-4.959 F1080
G1 X127.539 Y38.777 Z-4.964 F1080
G1 X127.563 Y38.768 Z-4.97 F1080
G1 X127.588 Y38.767 Z-4.976 F1080
G1 X127.612 Y38.774 Z-4.982 F1080
G1 X127.632 Y38.788 Z-4.988 F1080
G1 X127.648 Y38.808 Z-4.994 F1080
G1 X127.656 Y38.831 Z-5 F1080
G1 Y38.856 Z-5.006 F1080
G1 X127.649 Y38.88 Z-5.012 F1080
G1 X127.635 Y38.9 Z-5.018 F1080
G1 X127.614 Y38.915 Z-5.024 F1080
G1 X127.591 Y38.923 Z-5.03 F1080
G1 X127.566 Z-5.036 F1080
G1 X127.542 Y38.915 Z-5.041 F1080
G1 X127.522 Y38.9 Z-5.047 F1080
G1 X127.508 Y38.879 Z-5.053 F1080
G1 X127.501 Y38.855 Z-5.059 F1080
G1 X127.502 Y38.83 Z-5.065 F1080
G1 X127.51 Y38.807 Z-5.071 F1080
G1 X127.526 Y38.787 Z-5.077 F1080
G1 X127.547 Y38.774 Z-5.083 F1080
G1 X127.571 Y38.767 Z-5.089 F1080
G1 X127.596 Y38.769 Z-5.095 F1080
G1 X127.619 Y38.778 Z-5.101 F1080
G1 X127.638 Y38.794 Z-5.107 F1080
G1 X127.651 Y38.815 Z-5.112 F1080
G1 X127.657 Y38.84 Z-5.118 F1080
G1 X127.655 Y38.865 Z-5.124 F1080
G1 X127.645 Y38.887 Z-5.13 F1080
G1 X127.628 Y38.906 Z-5.136 F1080
G1 X127.607 Y38.919 Z-5.142 F1080
G1 X127.582 Y38.924 Z-5.148 F1080
G1 X127.557 Y38.921 Z-5.154 F1080
G1 X127.535 Y38.91 Z-5.16 F1080
G1 X127.517 Y38.893 Z-5.166 F1080
G1 X127.505 Y38.871 Z-5.172 F1080
G1 X127.5 Y38.847 Z-5.178 F1080
G1 X127.504 Y38.822 Z-5.183 F1080
G1 X127.515 Y38.8 Z-5.189 F1080
G1 X127.532 Y38.782 Z-5.195 F1080
