;Fusion CAM 2.0.20508
; Posts processor: MPCNC.cps
; Gcode generated: Monday, November 4, 2024 9:20:18 PM GMT
; Document: Main v2 v25
; Setup: Main Distro Front Pocket and Bore
;When using Fusion for Personal Use, the feedrate of rapid
;moves is reduced to match the feedrate of cutting moves,
;which can increase machining time. Unrestricted rapid moves
;are available with a Fusion Subscription.
; 
; Ranges Table:
;   X: Min=34.043 Max=351.825 Size=317.782
;   Y: Min=33.175 Max=266.825 Size=233.65
;   Z: Min=-12.6 Max=10 Size=22.6
; 
; Tools Table:
;  T5 D=6.35 CR=0 - ZMIN=-12.6 - flat end mill 
; 
; Feedrate and Scaling Properties:
;   Feed: Travel speed X/Y = 2500
;   Feed: Travel Speed Z = 300
;   Feed: Enforce Feedrate = true
;   Feed: Scale Feedrate = false
;   Feed: Max XY Cut Speed = 930
;   Feed: Max Z Cut Speed = 270
;   Feed: Max Toolpath Speed = 930
; 
; G1->G0 Mapping Properties:
;   Map: First G1 -> G0 Rapid = false
;   Map: G1s -> G0 Rapids = false
;   Map: SafeZ Mode = Retract : default = 15
;   Map: Allow Rapid Z = false
; 
; *** START begin ***
;   Set Absolute Positioning
;   Units = mm
;   Disable stepper timeout
G90
G21
M84 S0
; COMMAND_TOOL_MEASURE
; Probe to Zero Z
;   Ask User to Attach the Z Probe
;   Do Probing
;   Set Z to probe thickness: Z14
;   Retract the tool to 20
;   Ask User to Remove the Z Probe
M0 Attach ZProbe
G28 Z
G92 Z14
G0 Z20 F300
M400
M0 Detach ZProbe
; *** START end ***
; 
; *** SECTION begin ***
;   X Min: 42.675 - X Max: 351.825
;   Y Min: 33.175 - Y Max: 266.825
;   Z Min: -7.3 - Z Max: 10
; 2D Pocket10 - Milling - Tool: 5 -  flat end mill
; COMMAND_START_SPINDLE
; COMMAND_SPINDLE_CLOCKWISE
; >>> Spindle Speed: Manual
M0 Turn ON 10000RPM
; COMMAND_COOLANT_ON
M117  2D Pocket10
; MOVEMENT_CUTTING
G1 X217.363 Y208.45 Z10 F930
G1 Z5 F930
; MOVEMENT_PLUNGE
G1 Z3.135 F254
; MOVEMENT_RAMP_HELIX
G1 X217.396 Y208.433 Z2.923 F270
G1 X217.489 Y208.386 Z2.735 F270
G1 X217.562 Y208.352 Z2.665 F270
G1 X217.637 Y208.32 Z2.594 F270
G1 X217.776 Y208.267 Z2.527 F270
G1 X217.852 Y208.241 Z2.513 F270
G1 X217.929 Y208.217 Z2.5 F270
G1 X218.079 Y208.176 Z2.495 F270
G1 X218.231 Y208.143 Z2.489 F270
G1 X218.384 Y208.118 Z2.484 F270
G1 X218.538 Y208.102 Z2.478 F270
G1 X218.693 Y208.092 Z2.473 F270
G1 X218.849 Y208.091 Z2.467 F270
G1 X219.004 Y208.098 Z2.462 F270
G1 X219.159 Y208.113 Z2.457 F270
G1 X219.312 Y208.136 Z2.451 F270
G1 X219.464 Y208.167 Z2.446 F270
G1 X219.615 Y208.206 Z2.44 F270
G1 X219.763 Y208.252 Z2.435 F270
G1 X219.909 Y208.306 Z2.429 F270
G1 X220.052 Y208.367 Z2.424 F270
G1 X220.191 Y208.436 Z2.419 F270
G1 X220.327 Y208.511 Z2.413 F270
G1 X220.458 Y208.594 Z2.408 F270
G1 X220.585 Y208.683 Z2.402 F270
G1 X220.708 Y208.779 Z2.397 F270
G1 X220.825 Y208.88 Z2.392 F270
G1 X220.937 Y208.988 Z2.386 F270
G1 X221.043 Y209.101 Z2.381 F270
G1 X221.144 Y209.22 Z2.375 F270
G1 X221.238 Y209.344 Z2.37 F270
G1 X221.325 Y209.472 Z2.364 F270
G1 X221.406 Y209.604 Z2.359 F270
G1 X221.48 Y209.741 Z2.354 F270
G1 X221.547 Y209.881 Z2.348 F270
G1 X221.606 Y210.025 Z2.343 F270
G1 X221.658 Y210.171 Z2.337 F270
G1 X221.703 Y210.32 Z2.332 F270
G1 X221.739 Y210.471 Z2.326 F270
G1 X221.768 Y210.624 Z2.321 F270
G1 X221.789 Y210.778 Z2.316 F270
G1 X221.802 Y210.932 Z2.31 F270
G1 X221.807 Y211.088 Z2.305 F270
G1 X221.804 Y211.243 Z2.299 F270
G1 X221.793 Y211.398 Z2.294 F270
G1 X221.774 Y211.552 Z2.288 F270
G1 X221.747 Y211.705 Z2.283 F270
G1 X221.713 Y211.856 Z2.278 F270
G1 X221.67 Y212.006 Z2.272 F270
G1 X221.62 Y212.153 Z2.267 F270
G1 X221.562 Y212.297 Z2.261 F270
G1 X221.497 Y212.438 Z2.256 F270
G1 X221.425 Y212.576 Z2.25 F270
G1 X221.346 Y212.709 Z2.245 F270
G1 X221.26 Y212.839 Z2.24 F270
G1 X221.168 Y212.964 Z2.234 F270
G1 X221.069 Y213.084 Z2.229 F270
G1 X220.965 Y213.198 Z2.223 F270
G1 X220.854 Y213.307 Z2.218 F270
G1 X220.738 Y213.411 Z2.212 F270
G1 X220.617 Y213.508 Z2.207 F270
G1 X220.491 Y213.599 Z2.202 F270
G1 X220.36 Y213.683 Z2.196 F270
G1 X220.226 Y213.76 Z2.191 F270
G1 X220.087 Y213.831 Z2.185 F270
G1 X219.945 Y213.894 Z2.18 F270
G1 X219.8 Y213.949 Z2.175 F270
G1 X219.653 Y213.998 Z2.169 F270
G1 X219.503 Y214.038 Z2.164 F270
G1 X219.351 Y214.071 Z2.158 F270
G1 X219.197 Y214.096 Z2.153 F270
G1 X219.043 Y214.113 Z2.147 F270
G1 X218.888 Y214.122 Z2.142 F270
G1 X218.733 Y214.123 Z2.137 F270
G1 X218.578 Y214.116 Z2.131 F270
G1 X218.423 Y214.101 Z2.126 F270
G1 X218.269 Y214.078 Z2.12 F270
G1 X218.117 Y214.047 Z2.115 F270
G1 X217.967 Y214.009 Z2.109 F270
G1 X217.818 Y213.962 Z2.104 F270
G1 X217.673 Y213.909 Z2.099 F270
G1 X217.53 Y213.847 Z2.093 F270
G1 X217.391 Y213.779 Z2.088 F270
G1 X217.255 Y213.703 Z2.082 F270
G1 X217.123 Y213.621 Z2.077 F270
G1 X216.996 Y213.531 Z2.071 F270
G1 X216.874 Y213.436 Z2.066 F270
G1 X216.756 Y213.334 Z2.061 F270
G1 X216.644 Y213.226 Z2.055 F270
G1 X216.538 Y213.113 Z2.05 F270
G1 X216.438 Y212.994 Z2.044 F270
G1 X216.344 Y212.871 Z2.039 F270
G1 X216.256 Y212.742 Z2.033 F270
G1 X216.175 Y212.61 Z2.028 F270
G1 X216.102 Y212.473 Z2.023 F270
G1 X216.035 Y212.333 Z2.017 F270
G1 X215.975 Y212.189 Z2.012 F270
G1 X215.923 Y212.043 Z2.006 F270
G1 X215.879 Y211.894 Z2.001 F270
G1 X215.842 Y211.743 Z1.996 F270
G1 X215.814 Y211.591 Z1.99 F270
G1 X215.793 Y211.437 Z1.985 F270
G1 X215.78 Y211.282 Z1.979 F270
G1 X215.775 Y211.127 Z1.974 F270
G1 X215.778 Y210.971 Z1.968 F270
G1 X215.789 Y210.817 Z1.963 F270
G1 X215.807 Y210.662 Z1.958 F270
G1 X215.834 Y210.509 Z1.952 F270
G1 X215.869 Y210.358 Z1.947 F270
G1 X215.911 Y210.209 Z1.941 F270
G1 X215.962 Y210.062 Z1.936 F270
G1 X216.019 Y209.917 Z1.93 F270
G1 X216.084 Y209.776 Z1.925 F270
G1 X216.156 Y209.639 Z1.92 F270
G1 X216.235 Y209.505 Z1.914 F270
G1 X216.321 Y209.376 Z1.909 F270
G1 X216.414 Y209.251 Z1.903 F270
G1 X216.512 Y209.131 Z1.898 F270
G1 X216.617 Y209.016 Z1.892 F270
G1 X216.728 Y208.907 Z1.887 F270
G1 X216.844 Y208.804 Z1.882 F270
G1 X216.965 Y208.706 Z1.876 F270
G1 X217.091 Y208.616 Z1.871 F270
G1 X217.221 Y208.531 Z1.865 F270
G1 X217.356 Y208.454 Z1.86 F270
G1 X217.494 Y208.384 Z1.854 F270
G1 X217.636 Y208.321 Z1.849 F270
G1 X217.781 Y208.265 Z1.844 F270
G1 X217.929 Y208.217 Z1.838 F270
G1 X218.079 Y208.176 Z1.833 F270
G1 X218.231 Y208.143 Z1.827 F270
G1 X218.384 Y208.118 Z1.822 F270
G1 X218.538 Y208.101 Z1.816 F270
G1 X218.694 Y208.092 Z1.811 F270
G1 X218.849 Y208.091 Z1.806 F270
G1 X219.004 Y208.098 Z1.8 F270
G1 X219.159 Y208.113 Z1.795 F270
G1 X219.312 Y208.136 Z1.789 F270
G1 X219.464 Y208.167 Z1.784 F270
G1 X219.615 Y208.206 Z1.779 F270
G1 X219.763 Y208.252 Z1.773 F270
G1 X219.909 Y208.306 Z1.768 F270
G1 X220.052 Y208.367 Z1.762 F270
G1 X220.191 Y208.436 Z1.757 F270
G1 X220.327 Y208.511 Z1.751 F270
G1 X220.458 Y208.594 Z1.746 F270
G1 X220.585 Y208.683 Z1.741 F270
G1 X220.708 Y208.779 Z1.735 F270
G1 X220.825 Y208.88 Z1.73 F270
G1 X220.937 Y208.988 Z1.724 F270
G1 X221.043 Y209.101 Z1.719 F270
G1 X221.144 Y209.22 Z1.713 F270
G1 X221.238 Y209.344 Z1.708 F270
G1 X221.325 Y209.472 Z1.703 F270
G1 X221.406 Y209.605 Z1.697 F270
G1 X221.48 Y209.741 Z1.692 F270
G1 X221.547 Y209.881 Z1.686 F270
G1 X221.606 Y210.025 Z1.681 F270
G1 X221.658 Y210.171 Z1.675 F270
G1 X221.703 Y210.32 Z1.67 F270
G1 X221.739 Y210.471 Z1.665 F270
G1 X221.768 Y210.624 Z1.659 F270
G1 X221.789 Y210.778 Z1.654 F270
G1 X221.802 Y210.932 Z1.648 F270
G1 X221.807 Y211.088 Z1.643 F270
G1 X221.804 Y211.243 Z1.637 F270
G1 X221.793 Y211.398 Z1.632 F270
G1 X221.774 Y211.552 Z1.627 F270
G1 X221.747 Y211.705 Z1.621 F270
G1 X221.712 Y211.856 Z1.616 F270
G1 X221.67 Y212.006 Z1.61 F270
G1 X221.62 Y212.153 Z1.605 F270
G1 X221.562 Y212.297 Z1.6 F270
G1 X221.497 Y212.438 Z1.594 F270
G1 X221.425 Y212.576 Z1.589 F270
G1 X221.346 Y212.709 Z1.583 F270
G1 X221.26 Y212.839 Z1.578 F270
G1 X221.168 Y212.964 Z1.572 F270
G1 X221.069 Y213.084 Z1.567 F270
G1 X220.964 Y213.198 Z1.562 F270
G1 X220.854 Y213.307 Z1.556 F270
G1 X220.738 Y213.411 Z1.551 F270
G1 X220.617 Y213.508 Z1.545 F270
G1 X220.491 Y213.599 Z1.54 F270
G1 X220.36 Y213.683 Z1.534 F270
G1 X220.226 Y213.76 Z1.529 F270
G1 X220.087 Y213.831 Z1.524 F270
G1 X219.945 Y213.894 Z1.518 F270
G1 X219.8 Y213.95 Z1.513 F270
G1 X219.653 Y213.998 Z1.507 F270
G1 X219.503 Y214.038 Z1.502 F270
G1 X219.351 Y214.071 Z1.496 F270
G1 X219.197 Y214.096 Z1.491 F270
G1 X219.043 Y214.113 Z1.486 F270
G1 X218.888 Y214.122 Z1.48 F270
G1 X218.733 Y214.123 Z1.475 F270
G1 X218.577 Y214.116 Z1.469 F270
G1 X218.423 Y214.101 Z1.464 F270
G1 X218.269 Y214.078 Z1.458 F270
G1 X218.117 Y214.047 Z1.453 F270
G1 X217.967 Y214.009 Z1.448 F270
G1 X217.818 Y213.962 Z1.442 F270
G1 X217.673 Y213.909 Z1.437 F270
G1 X217.53 Y213.847 Z1.431 F270
G1 X217.39 Y213.779 Z1.426 F270
G1 X217.255 Y213.703 Z1.42 F270
G1 X217.123 Y213.621 Z1.415 F270
G1 X216.996 Y213.531 Z1.41 F270
G1 X216.874 Y213.436 Z1.404 F270
G1 X216.756 Y213.334 Z1.399 F270
G1 X216.644 Y213.226 Z1.393 F270
G1 X216.538 Y213.113 Z1.388 F270
G1 X216.438 Y212.994 Z1.383 F270
G1 X216.344 Y212.871 Z1.377 F270
G1 X216.256 Y212.742 Z1.372 F270
G1 X216.175 Y212.61 Z1.366 F270
G1 X216.102 Y212.473 Z1.361 F270
G1 X216.035 Y212.333 Z1.355 F270
G1 X215.975 Y212.189 Z1.35 F270
G1 X215.923 Y212.043 Z1.345 F270
G1 X215.879 Y211.894 Z1.339 F270
G1 X215.842 Y211.743 Z1.334 F270
G1 X215.814 Y211.591 Z1.328 F270
G1 X215.793 Y211.437 Z1.323 F270
G1 X215.78 Y211.282 Z1.317 F270
G1 X215.775 Y211.127 Z1.312 F270
G1 X215.778 Y210.971 Z1.307 F270
G1 X215.789 Y210.816 Z1.301 F270
G1 X215.808 Y210.662 Z1.296 F270
G1 X215.834 Y210.509 Z1.29 F270
G1 X215.869 Y210.358 Z1.285 F270
G1 X215.912 Y210.209 Z1.279 F270
G1 X215.962 Y210.061 Z1.274 F270
G1 X216.019 Y209.917 Z1.269 F270
G1 X216.084 Y209.776 Z1.263 F270
G1 X216.156 Y209.639 Z1.258 F270
G1 X216.235 Y209.505 Z1.252 F270
G1 X216.321 Y209.375 Z1.247 F270
G1 X216.414 Y209.251 Z1.241 F270
G1 X216.512 Y209.131 Z1.236 F270
G1 X216.617 Y209.016 Z1.231 F270
G1 X216.728 Y208.907 Z1.225 F270
G1 X216.844 Y208.804 Z1.22 F270
G1 X216.965 Y208.706 Z1.214 F270
G1 X217.091 Y208.616 Z1.209 F270
G1 X217.221 Y208.531 Z1.204 F270
G1 X217.356 Y208.454 Z1.198 F270
G1 X217.494 Y208.384 Z1.193 F270
G1 X217.636 Y208.321 Z1.187 F270
G1 X217.781 Y208.265 Z1.182 F270
G1 X217.929 Y208.217 Z1.176 F270
G1 X218.079 Y208.176 Z1.171 F270
G1 X218.231 Y208.143 Z1.166 F270
G1 X218.384 Y208.118 Z1.16 F270
G1 X218.539 Y208.101 Z1.155 F270
G1 X218.694 Y208.092 Z1.149 F270
G1 X218.849 Y208.091 Z1.144 F270
G1 X219.004 Y208.098 Z1.138 F270
G1 X219.159 Y208.113 Z1.133 F270
G1 X219.312 Y208.136 Z1.128 F270
G1 X219.465 Y208.167 Z1.122 F270
G1 X219.615 Y208.206 Z1.117 F270
G1 X219.763 Y208.252 Z1.111 F270
G1 X219.909 Y208.306 Z1.106 F270
G1 X220.052 Y208.367 Z1.1 F270
G1 X220.191 Y208.436 Z1.095 F270
G1 X220.327 Y208.511 Z1.09 F270
G1 X220.458 Y208.594 Z1.084 F270
G1 X220.586 Y208.683 Z1.079 F270
G1 X220.708 Y208.779 Z1.073 F270
G1 X220.825 Y208.88 Z1.068 F270
G1 X220.937 Y208.988 Z1.062 F270
G1 X221.043 Y209.101 Z1.057 F270
G1 X221.144 Y209.22 Z1.052 F270
G1 X221.238 Y209.344 Z1.046 F270
G1 X221.325 Y209.472 Z1.041 F270
G1 X221.406 Y209.605 Z1.035 F270
G1 X221.48 Y209.741 Z1.03 F270
G1 X221.547 Y209.881 Z1.024 F270
G1 X221.606 Y210.025 Z1.019 F270
G1 X221.658 Y210.171 Z1.014 F270
G1 X221.703 Y210.32 Z1.008 F270
G1 X221.739 Y210.471 Z1.003 F270
G1 X221.768 Y210.624 Z0.997 F270
G1 X221.789 Y210.778 Z0.992 F270
G1 X221.802 Y210.932 Z0.987 F270
G1 X221.807 Y211.088 Z0.981 F270
G1 X221.804 Y211.243 Z0.976 F270
G1 X221.793 Y211.398 Z0.97 F270
G1 X221.774 Y211.552 Z0.965 F270
G1 X221.747 Y211.705 Z0.959 F270
G1 X221.712 Y211.856 Z0.954 F270
G1 X221.67 Y212.006 Z0.949 F270
G1 X221.62 Y212.153 Z0.943 F270
G1 X221.562 Y212.297 Z0.938 F270
G1 X221.497 Y212.438 Z0.932 F270
G1 X221.425 Y212.576 Z0.927 F270
G1 X221.346 Y212.709 Z0.921 F270
G1 X221.26 Y212.839 Z0.916 F270
G1 X221.168 Y212.964 Z0.911 F270
G1 X221.069 Y213.084 Z0.905 F270
G1 X220.964 Y213.198 Z0.9 F270
G1 X220.854 Y213.307 Z0.894 F270
G1 X220.738 Y213.411 Z0.889 F270
G1 X220.617 Y213.508 Z0.883 F270
G1 X220.491 Y213.599 Z0.878 F270
G1 X220.36 Y213.683 Z0.873 F270
G1 X220.226 Y213.76 Z0.867 F270
G1 X220.087 Y213.831 Z0.862 F270
G1 X219.945 Y213.894 Z0.856 F270
G1 X219.8 Y213.95 Z0.851 F270
G1 X219.652 Y213.998 Z0.845 F270
G1 X219.503 Y214.038 Z0.84 F270
G1 X219.351 Y214.071 Z0.835 F270
G1 X219.197 Y214.096 Z0.829 F270
G1 X219.043 Y214.113 Z0.824 F270
G1 X218.888 Y214.122 Z0.818 F270
G1 X218.733 Y214.123 Z0.813 F270
G1 X218.577 Y214.116 Z0.808 F270
G1 X218.423 Y214.101 Z0.802 F270
G1 X218.269 Y214.078 Z0.797 F270
G1 X218.117 Y214.047 Z0.791 F270
G1 X217.967 Y214.009 Z0.786 F270
G1 X217.818 Y213.962 Z0.78 F270
G1 X217.673 Y213.908 Z0.775 F270
G1 X217.53 Y213.847 Z0.77 F270
G1 X217.39 Y213.779 Z0.764 F270
G1 X217.255 Y213.703 Z0.759 F270
G1 X217.123 Y213.621 Z0.753 F270
G1 X216.996 Y213.531 Z0.748 F270
G1 X216.874 Y213.436 Z0.742 F270
G1 X216.756 Y213.334 Z0.737 F270
G1 X216.644 Y213.226 Z0.732 F270
G1 X216.538 Y213.113 Z0.726 F270
G1 X216.438 Y212.994 Z0.721 F270
G1 X216.344 Y212.871 Z0.715 F270
G1 X216.256 Y212.742 Z0.71 F270
G1 X216.175 Y212.61 Z0.704 F270
G1 X216.102 Y212.473 Z0.699 F270
G1 X216.035 Y212.333 Z0.694 F270
G1 X215.975 Y212.189 Z0.688 F270
G1 X215.923 Y212.043 Z0.683 F270
G1 X215.879 Y211.894 Z0.677 F270
G1 X215.842 Y211.743 Z0.672 F270
G1 X215.814 Y211.591 Z0.666 F270
G1 X215.793 Y211.437 Z0.661 F270
G1 X215.78 Y211.282 Z0.656 F270
G1 X215.775 Y211.127 Z0.65 F270
G1 X215.778 Y210.971 Z0.645 F270
G1 X215.789 Y210.816 Z0.639 F270
G1 X215.808 Y210.662 Z0.634 F270
G1 X215.834 Y210.509 Z0.628 F270
G1 X215.869 Y210.358 Z0.623 F270
G1 X215.912 Y210.208 Z0.618 F270
G1 X215.962 Y210.061 Z0.612 F270
G1 X216.019 Y209.917 Z0.607 F270
G1 X216.084 Y209.776 Z0.601 F270
G1 X216.156 Y209.639 Z0.596 F270
G1 X216.235 Y209.505 Z0.591 F270
G1 X216.321 Y209.375 Z0.585 F270
G1 X216.414 Y209.251 Z0.58 F270
G1 X216.512 Y209.131 Z0.574 F270
G1 X216.617 Y209.016 Z0.569 F270
G1 X216.728 Y208.907 Z0.563 F270
G1 X216.844 Y208.804 Z0.558 F270
G1 X216.965 Y208.706 Z0.553 F270
G1 X217.091 Y208.616 Z0.547 F270
G1 X217.221 Y208.531 Z0.542 F270
G1 X217.356 Y208.454 Z0.536 F270
G1 X217.495 Y208.384 Z0.531 F270
G1 X217.636 Y208.321 Z0.525 F270
G1 X217.781 Y208.265 Z0.52 F270
G1 X217.929 Y208.217 Z0.515 F270
G1 X218.079 Y208.176 Z0.509 F270
G1 X218.231 Y208.143 Z0.504 F270
G1 X218.384 Y208.118 Z0.498 F270
G1 X218.539 Y208.101 Z0.493 F270
G1 X218.694 Y208.092 Z0.487 F270
G1 X218.849 Y208.091 Z0.482 F270
G1 X219.004 Y208.098 Z0.477 F270
G1 X219.159 Y208.113 Z0.471 F270
G1 X219.312 Y208.136 Z0.466 F270
G1 X219.465 Y208.167 Z0.46 F270
G1 X219.615 Y208.206 Z0.455 F270
G1 X219.763 Y208.252 Z0.449 F270
G1 X219.909 Y208.306 Z0.444 F270
G1 X220.052 Y208.367 Z0.439 F270
G1 X220.191 Y208.436 Z0.433 F270
G1 X220.327 Y208.511 Z0.428 F270
G1 X220.458 Y208.594 Z0.422 F270
G1 X220.586 Y208.683 Z0.417 F270
G1 X220.708 Y208.779 Z0.412 F270
G1 X220.825 Y208.88 Z0.406 F270
G1 X220.937 Y208.988 Z0.401 F270
G1 X221.043 Y209.101 Z0.395 F270
G1 X221.144 Y209.22 Z0.39 F270
G1 X221.238 Y209.344 Z0.384 F270
G1 X221.325 Y209.472 Z0.379 F270
G1 X221.406 Y209.605 Z0.374 F270
G1 X221.48 Y209.741 Z0.368 F270
G1 X221.547 Y209.881 Z0.363 F270
G1 X221.606 Y210.025 Z0.357 F270
G1 X221.658 Y210.171 Z0.352 F270
G1 X221.703 Y210.32 Z0.346 F270
G1 X221.739 Y210.471 Z0.341 F270
G1 X221.768 Y210.624 Z0.336 F270
G1 X221.789 Y210.778 Z0.33 F270
G1 X221.802 Y210.932 Z0.325 F270
G1 X221.807 Y211.088 Z0.319 F270
G1 X221.804 Y211.243 Z0.314 F270
G1 X221.793 Y211.398 Z0.308 F270
G1 X221.774 Y211.552 Z0.303 F270
G1 X221.747 Y211.705 Z0.298 F270
G1 X221.712 Y211.856 Z0.292 F270
G1 X221.67 Y212.006 Z0.287 F270
G1 X221.62 Y212.153 Z0.281 F270
G1 X221.562 Y212.297 Z0.276 F270
G1 X221.497 Y212.438 Z0.27 F270
G1 X221.425 Y212.576 Z0.265 F270
G1 X221.346 Y212.71 Z0.26 F270
G1 X221.26 Y212.839 Z0.254 F270
G1 X221.168 Y212.964 Z0.249 F270
G1 X221.069 Y213.084 Z0.243 F270
G1 X220.964 Y213.198 Z0.238 F270
G1 X220.854 Y213.307 Z0.232 F270
G1 X220.738 Y213.411 Z0.227 F270
G1 X220.617 Y213.508 Z0.222 F270
G1 X220.491 Y213.599 Z0.216 F270
G1 X220.36 Y213.683 Z0.211 F270
G1 X220.225 Y213.76 Z0.205 F270
G1 X220.087 Y213.831 Z0.2 F270
G1 X219.945 Y213.894 Z0.195 F270
G1 X219.8 Y213.95 Z0.189 F270
G1 X219.652 Y213.998 Z0.184 F270
G1 X219.502 Y214.038 Z0.178 F270
G1 X219.351 Y214.071 Z0.173 F270
G1 X219.197 Y214.096 Z0.167 F270
G1 X219.043 Y214.113 Z0.162 F270
G1 X218.888 Y214.122 Z0.157 F270
G1 X218.733 Y214.123 Z0.151 F270
G1 X218.577 Y214.116 Z0.146 F270
G1 X218.423 Y214.101 Z0.14 F270
G1 X218.269 Y214.078 Z0.135 F270
G1 X218.117 Y214.047 Z0.129 F270
G1 X217.966 Y214.009 Z0.124 F270
G1 X217.818 Y213.962 Z0.119 F270
G1 X217.673 Y213.908 Z0.113 F270
G1 X217.53 Y213.847 Z0.108 F270
G1 X217.39 Y213.779 Z0.102 F270
G1 X217.255 Y213.703 Z0.097 F270
G1 X217.123 Y213.62 Z0.091 F270
G1 X216.996 Y213.531 Z0.086 F270
G1 X216.874 Y213.436 Z0.081 F270
G1 X216.756 Y213.334 Z0.075 F270
G1 X216.644 Y213.226 Z0.07 F270
G1 X216.538 Y213.113 Z0.064 F270
G1 X216.438 Y212.994 Z0.059 F270
G1 X216.344 Y212.871 Z0.053 F270
G1 X216.256 Y212.742 Z0.048 F270
G1 X216.175 Y212.61 Z0.043 F270
G1 X216.102 Y212.473 Z0.037 F270
G1 X216.035 Y212.333 Z0.032 F270
G1 X215.975 Y212.189 Z0.026 F270
G1 X215.923 Y212.043 Z0.021 F270
G1 X215.879 Y211.894 Z0.016 F270
G1 X215.842 Y211.743 Z0.01 F270
G1 X215.814 Y211.591 Z0.005 F270
G1 X215.793 Y211.437 Z-0.001 F270
G1 X215.78 Y211.282 Z-0.006 F270
G1 X215.775 Y211.127 Z-0.012 F270
G1 X215.778 Y210.971 Z-0.017 F270
G1 X215.789 Y210.816 Z-0.022 F270
G1 X215.808 Y210.662 Z-0.028 F270
G1 X215.834 Y210.509 Z-0.033 F270
G1 X215.869 Y210.358 Z-0.039 F270
G1 X215.912 Y210.208 Z-0.044 F270
G1 X215.962 Y210.061 Z-0.05 F270
G1 X216.019 Y209.917 Z-0.055 F270
G1 X216.084 Y209.776 Z-0.06 F270
G1 X216.156 Y209.638 Z-0.066 F270
G1 X216.235 Y209.505 Z-0.071 F270
G1 X216.321 Y209.375 Z-0.077 F270
G1 X216.414 Y209.251 Z-0.082 F270
G1 X216.512 Y209.131 Z-0.088 F270
G1 X216.617 Y209.016 Z-0.093 F270
G1 X216.728 Y208.907 Z-0.098 F270
G1 X216.844 Y208.804 Z-0.104 F270
G1 X216.965 Y208.706 Z-0.109 F270
G1 X217.091 Y208.616 Z-0.115 F270
G1 X217.221 Y208.531 Z-0.12 F270
G1 X217.356 Y208.454 Z-0.126 F270
G1 X217.495 Y208.384 Z-0.131 F270
G1 X217.636 Y208.321 Z-0.136 F270
G1 X217.781 Y208.265 Z-0.142 F270
G1 X217.929 Y208.217 Z-0.147 F270
G1 X218.079 Y208.176 Z-0.153 F270
G1 X218.231 Y208.143 Z-0.158 F270
G1 X218.384 Y208.118 Z-0.164 F270
G1 X218.539 Y208.101 Z-0.169 F270
G1 X218.694 Y208.092 Z-0.174 F270
G1 X218.849 Y208.091 Z-0.18 F270
G1 X219.004 Y208.098 Z-0.185 F270
G1 X219.159 Y208.113 Z-0.191 F270
G1 X219.312 Y208.136 Z-0.196 F270
G1 X219.465 Y208.167 Z-0.201 F270
G1 X219.615 Y208.206 Z-0.207 F270
G1 X219.763 Y208.252 Z-0.212 F270
G1 X219.909 Y208.306 Z-0.218 F270
G1 X220.052 Y208.367 Z-0.223 F270
G1 X220.191 Y208.436 Z-0.229 F270
G1 X220.327 Y208.511 Z-0.234 F270
G1 X220.458 Y208.594 Z-0.239 F270
G1 X220.586 Y208.683 Z-0.245 F270
G1 X220.708 Y208.779 Z-0.25 F270
G1 X220.825 Y208.88 Z-0.256 F270
G1 X220.937 Y208.988 Z-0.261 F270
G1 X221.044 Y209.101 Z-0.267 F270
G1 X221.144 Y209.22 Z-0.272 F270
G1 X221.238 Y209.344 Z-0.277 F270
G1 X221.325 Y209.472 Z-0.283 F270
G1 X221.406 Y209.605 Z-0.288 F270
G1 X221.48 Y209.741 Z-0.294 F270
G1 X221.547 Y209.882 Z-0.299 F270
G1 X221.606 Y210.025 Z-0.305 F270
G1 X221.658 Y210.171 Z-0.31 F270
G1 X221.703 Y210.32 Z-0.315 F270
G1 X221.739 Y210.471 Z-0.321 F270
G1 X221.768 Y210.624 Z-0.326 F270
G1 X221.789 Y210.778 Z-0.332 F270
G1 X221.802 Y210.933 Z-0.337 F270
G1 X221.807 Y211.088 Z-0.343 F270
G1 X221.804 Y211.243 Z-0.348 F270
G1 X221.793 Y211.398 Z-0.353 F270
G1 X221.774 Y211.552 Z-0.359 F270
G1 X221.747 Y211.705 Z-0.364 F270
G1 X221.712 Y211.857 Z-0.37 F270
G1 X221.67 Y212.006 Z-0.375 F270
G1 X221.62 Y212.153 Z-0.38 F270
G1 X221.562 Y212.297 Z-0.386 F270
G1 X221.497 Y212.438 Z-0.391 F270
G1 X221.425 Y212.576 Z-0.397 F270
G1 X221.346 Y212.71 Z-0.402 F270
G1 X221.26 Y212.839 Z-0.408 F270
G1 X221.168 Y212.964 Z-0.413 F270
G1 X221.069 Y213.084 Z-0.418 F270
G1 X220.964 Y213.198 Z-0.424 F270
G1 X220.854 Y213.308 Z-0.429 F270
G1 X220.738 Y213.411 Z-0.435 F270
G1 X220.617 Y213.508 Z-0.44 F270
G1 X220.491 Y213.599 Z-0.446 F270
G1 X220.36 Y213.683 Z-0.451 F270
G1 X220.225 Y213.76 Z-0.456 F270
G1 X220.087 Y213.831 Z-0.462 F270
G1 X219.945 Y213.894 Z-0.467 F270
G1 X219.8 Y213.95 Z-0.473 F270
G1 X219.652 Y213.998 Z-0.478 F270
G1 X219.502 Y214.038 Z-0.484 F270
G1 X219.351 Y214.071 Z-0.489 F270
G1 X219.197 Y214.096 Z-0.494 F270
G1 X219.043 Y214.113 Z-0.5 F270
G1 X218.888 Y214.122 Z-0.505 F270
G1 X218.733 Y214.123 Z-0.511 F270
G1 X218.577 Y214.116 Z-0.516 F270
G1 X218.423 Y214.101 Z-0.522 F270
G1 X218.269 Y214.078 Z-0.527 F270
G1 X218.117 Y214.047 Z-0.532 F270
G1 X217.966 Y214.009 Z-0.538 F270
G1 X217.818 Y213.962 Z-0.543 F270
G1 X217.672 Y213.908 Z-0.549 F270
G1 X217.53 Y213.847 Z-0.554 F270
G1 X217.39 Y213.779 Z-0.56 F270
G1 X217.255 Y213.703 Z-0.565 F270
G1 X217.123 Y213.62 Z-0.57 F270
G1 X216.996 Y213.531 Z-0.576 F270
G1 X216.874 Y213.436 Z-0.581 F270
G1 X216.756 Y213.334 Z-0.587 F270
G1 X216.644 Y213.226 Z-0.592 F270
G1 X216.538 Y213.113 Z-0.597 F270
G1 X216.438 Y212.994 Z-0.603 F270
G1 X216.344 Y212.871 Z-0.608 F270
G1 X216.256 Y212.742 Z-0.614 F270
G1 X216.175 Y212.61 Z-0.619 F270
G1 X216.102 Y212.473 Z-0.625 F270
G1 X216.035 Y212.333 Z-0.63 F270
G1 X215.975 Y212.189 Z-0.635 F270
G1 X215.923 Y212.043 Z-0.641 F270
G1 X215.879 Y211.894 Z-0.646 F270
G1 X215.842 Y211.743 Z-0.652 F270
G1 X215.813 Y211.591 Z-0.657 F270
G1 X215.793 Y211.437 Z-0.663 F270
G1 X215.78 Y211.282 Z-0.668 F270
G1 X215.775 Y211.127 Z-0.673 F270
G1 X215.778 Y210.971 Z-0.679 F270
G1 X215.789 Y210.816 Z-0.684 F270
G1 X215.808 Y210.662 Z-0.69 F270
G1 X215.834 Y210.509 Z-0.695 F270
G1 X215.869 Y210.358 Z-0.701 F270
G1 X215.912 Y210.208 Z-0.706 F270
G1 X215.962 Y210.061 Z-0.711 F270
G1 X216.019 Y209.917 Z-0.717 F270
G1 X216.084 Y209.776 Z-0.722 F270
G1 X216.156 Y209.638 Z-0.728 F270
G1 X216.235 Y209.505 Z-0.733 F270
G1 X216.321 Y209.375 Z-0.739 F270
G1 X216.414 Y209.251 Z-0.744 F270
G1 X216.512 Y209.131 Z-0.749 F270
G1 X216.617 Y209.016 Z-0.755 F270
G1 X216.728 Y208.907 Z-0.76 F270
G1 X216.844 Y208.804 Z-0.766 F270
G1 X216.965 Y208.706 Z-0.771 F270
G1 X217.091 Y208.616 Z-0.776 F270
G1 X217.221 Y208.531 Z-0.782 F270
G1 X217.356 Y208.454 Z-0.787 F270
G1 X217.495 Y208.384 Z-0.793 F270
G1 X217.637 Y208.321 Z-0.798 F270
G1 X217.782 Y208.265 Z-0.804 F270
G1 X217.929 Y208.217 Z-0.809 F270
G1 X218.079 Y208.176 Z-0.814 F270
G1 X218.231 Y208.143 Z-0.82 F270
G1 X218.384 Y208.118 Z-0.825 F270
G1 X218.539 Y208.101 Z-0.831 F270
G1 X218.694 Y208.092 Z-0.836 F270
G1 X218.849 Y208.091 Z-0.842 F270
G1 X219.004 Y208.098 Z-0.847 F270
G1 X219.159 Y208.113 Z-0.852 F270
G1 X219.312 Y208.136 Z-0.858 F270
G1 X219.465 Y208.167 Z-0.863 F270
G1 X219.615 Y208.206 Z-0.869 F270
G1 X219.763 Y208.252 Z-0.874 F270
G1 X219.909 Y208.306 Z-0.88 F270
G1 X220.052 Y208.367 Z-0.885 F270
G1 X220.191 Y208.436 Z-0.89 F270
G1 X220.327 Y208.511 Z-0.896 F270
G1 X220.458 Y208.594 Z-0.901 F270
G1 X220.586 Y208.683 Z-0.907 F270
G1 X220.708 Y208.779 Z-0.912 F270
G1 X220.825 Y208.88 Z-0.918 F270
G1 X220.937 Y208.988 Z-0.923 F270
G1 X221.044 Y209.101 Z-0.928 F270
G1 X221.144 Y209.22 Z-0.934 F270
G1 X221.238 Y209.344 Z-0.939 F270
G1 X221.325 Y209.472 Z-0.945 F270
G1 X221.406 Y209.605 Z-0.95 F270
G1 X221.48 Y209.741 Z-0.956 F270
G1 X221.547 Y209.882 Z-0.961 F270
G1 X221.606 Y210.025 Z-0.966 F270
G1 X221.658 Y210.171 Z-0.972 F270
G1 X221.703 Y210.32 Z-0.977 F270
G1 X221.739 Y210.471 Z-0.983 F270
G1 X221.768 Y210.624 Z-0.988 F270
G1 X221.789 Y210.778 Z-0.993 F270
G1 X221.802 Y210.933 Z-0.999 F270
G1 X221.807 Y211.088 Z-1.004 F270
G1 X221.804 Y211.243 Z-1.01 F270
G1 X221.793 Y211.398 Z-1.015 F270
G1 X221.774 Y211.552 Z-1.021 F270
G1 X221.747 Y211.705 Z-1.026 F270
G1 X221.712 Y211.857 Z-1.031 F270
G1 X221.67 Y212.006 Z-1.037 F270
G1 X221.62 Y212.153 Z-1.042 F270
G1 X221.562 Y212.297 Z-1.048 F270
G1 X221.497 Y212.438 Z-1.053 F270
G1 X221.425 Y212.576 Z-1.059 F270
G1 X221.346 Y212.71 Z-1.064 F270
G1 X221.26 Y212.839 Z-1.069 F270
G1 X221.168 Y212.964 Z-1.075 F270
G1 X221.069 Y213.084 Z-1.08 F270
G1 X220.964 Y213.198 Z-1.086 F270
G1 X220.854 Y213.308 Z-1.091 F270
G1 X220.738 Y213.411 Z-1.097 F270
G1 X220.617 Y213.508 Z-1.102 F270
G1 X220.491 Y213.599 Z-1.107 F270
G1 X220.36 Y213.683 Z-1.113 F270
G1 X220.225 Y213.76 Z-1.118 F270
G1 X220.087 Y213.831 Z-1.124 F270
G1 X219.945 Y213.894 Z-1.129 F270
G1 X219.8 Y213.95 Z-1.135 F270
G1 X219.652 Y213.998 Z-1.14 F270
G1 X219.502 Y214.038 Z-1.145 F270
G1 X219.351 Y214.071 Z-1.151 F270
G1 X219.197 Y214.096 Z-1.156 F270
G1 X219.043 Y214.113 Z-1.162 F270
G1 X218.888 Y214.122 Z-1.167 F270
G1 X218.732 Y214.123 Z-1.172 F270
G1 X218.577 Y214.116 Z-1.178 F270
G1 X218.423 Y214.101 Z-1.183 F270
G1 X218.269 Y214.078 Z-1.189 F270
G1 X218.117 Y214.047 Z-1.194 F270
G1 X217.966 Y214.009 Z-1.2 F270
G1 X217.818 Y213.962 Z-1.205 F270
G1 X217.672 Y213.908 Z-1.21 F270
G1 X217.53 Y213.847 Z-1.216 F270
G1 X217.39 Y213.779 Z-1.221 F270
G1 X217.255 Y213.703 Z-1.227 F270
G1 X217.123 Y213.62 Z-1.232 F270
G1 X216.996 Y213.531 Z-1.238 F270
G1 X216.873 Y213.436 Z-1.243 F270
G1 X216.756 Y213.334 Z-1.248 F270
G1 X216.644 Y213.226 Z-1.254 F270
G1 X216.538 Y213.113 Z-1.259 F270
G1 X216.438 Y212.994 Z-1.265 F270
G1 X216.344 Y212.871 Z-1.27 F270
G1 X216.256 Y212.742 Z-1.276 F270
G1 X216.175 Y212.61 Z-1.281 F270
G1 X216.101 Y212.473 Z-1.286 F270
G1 X216.035 Y212.333 Z-1.292 F270
G1 X215.975 Y212.189 Z-1.297 F270
G1 X215.923 Y212.043 Z-1.303 F270
G1 X215.879 Y211.894 Z-1.308 F270
G1 X215.842 Y211.743 Z-1.314 F270
G1 X215.813 Y211.59 Z-1.319 F270
G1 X215.793 Y211.437 Z-1.324 F270
G1 X215.78 Y211.282 Z-1.33 F270
G1 X215.775 Y211.127 Z-1.335 F270
G1 X215.778 Y210.971 Z-1.341 F270
G1 X215.789 Y210.816 Z-1.346 F270
G1 X215.808 Y210.662 Z-1.352 F270
G1 X215.834 Y210.509 Z-1.357 F270
G1 X215.869 Y210.358 Z-1.362 F270
G1 X215.912 Y210.208 Z-1.368 F270
G1 X215.962 Y210.061 Z-1.373 F270
G1 X216.019 Y209.917 Z-1.379 F270
G1 X216.084 Y209.776 Z-1.384 F270
G1 X216.156 Y209.638 Z-1.389 F270
G1 X216.235 Y209.505 Z-1.395 F270
G1 X216.321 Y209.375 Z-1.4 F270
G1 X216.414 Y209.25 Z-1.406 F270
G1 X216.512 Y209.131 Z-1.411 F270
G1 X216.617 Y209.016 Z-1.417 F270
G1 X216.728 Y208.907 Z-1.422 F270
G1 X216.844 Y208.803 Z-1.427 F270
G1 X216.965 Y208.706 Z-1.433 F270
G1 X217.091 Y208.616 Z-1.438 F270
G1 X217.221 Y208.531 Z-1.444 F270
G1 X217.356 Y208.454 Z-1.449 F270
G1 X217.495 Y208.384 Z-1.455 F270
G1 X217.637 Y208.32 Z-1.46 F270
; MOVEMENT_CUTTING
G2 X223.368 Y204.492 I-6.76 J-16.321 F930
G1 X290.493 Y137.366 F930
G2 X295.665 Y124.875 I-12.499 J-12.491 F930
G1 Y43 F930
G3 X296.335 I0.335 F930
G1 X296.38 Y132.072 F930
G3 X296.085 Y132.785 I-1.008 F930
G1 X218.785 Y210.085 F930
G3 X218.072 Y210.38 I-0.712 J-0.712 F930
G1 X96.868 Y210.335 F930
G3 Y209.665 J-0.335 F930
G1 X210.877 F930
G2 X217.637 Y208.32 J-17.665 F930
; MOVEMENT_LINK_TRANSITION
G2 X219.216 Y205.802 I-0.981 J-2.37 F930
G3 X220.378 Y203.066 I3.344 J-0.194 F930
; MOVEMENT_CUTTING
G2 X221.19 Y202.314 I-9.501 J-11.066 F930
G1 X288.315 Y135.189 F930
G2 X292.585 Y124.875 I-10.315 J-10.312 F930
G1 Y43 F930
G3 X299.415 I3.415 F930
G1 X299.46 Y133.251 F930
G3 X299.096 Y134.129 I-1.243 F930
G1 X220.129 Y213.096 F930
G3 X219.251 Y213.46 I-0.879 J-0.879 F930
G1 X96.868 Y213.415 F930
G3 Y206.585 J-3.415 F930
G1 X210.877 F930
G2 X220.378 Y203.066 J-14.585 F930
; MOVEMENT_LINK_TRANSITION
G2 X221.072 Y200.288 I-1.613 J-1.879 F930
G3 X221.661 Y197.486 I2.441 J-0.95 F930
; MOVEMENT_CUTTING
G1 X286.136 Y133.011 F930
G2 X289.505 Y124.876 I-8.137 J-8.134 F930
G1 Y43 F930
G3 X302.495 I6.495 F930
G1 X302.54 Y134.526 F930
G3 X302.176 Y135.405 I-1.243 F930
G1 X221.405 Y216.176 F930
G3 X220.526 Y216.54 I-0.879 J-0.879 F930
G1 X96.868 Y216.495 F930
G3 Y203.505 J-6.495 F930
G1 X210.877 F930
G2 X219.012 Y200.136 J-11.505 F930
G1 X221.661 Y197.486 F930
; MOVEMENT_LINK_TRANSITION
G2 X222.214 Y194.72 I-1.798 J-1.798 F930
G3 X222.768 Y191.953 I2.352 J-0.968 F930
; MOVEMENT_CUTTING
G1 X283.922 Y130.798 F930
G2 X286.375 Y124.876 I-5.923 J-5.922 F930
G1 Y43 F930
G3 X305.625 I9.625 F930
G1 Y135.646 F930
G3 X305.149 Y136.795 I-1.625 F930
G1 X222.795 Y219.149 F930
G3 X221.646 Y219.625 I-1.149 J-1.149 F930
G1 X96.868 F930
G3 Y200.375 J-9.625 F930
G1 X210.876 F930
G2 X216.798 Y197.923 I0.001 J-8.375 F930
G1 X222.768 Y191.953 F930
; MOVEMENT_LINK_TRANSITION
G2 X222.803 Y191.777 I-0.115 J-0.115 F930
G3 X222.838 Y191.6 I0.15 J-0.062 F930
; MOVEMENT_FINISH_CUTTING
G1 X283.781 Y130.657 F930
G2 X286.175 Y124.876 I-5.781 J-5.78 F930
G1 Y43 F930
G3 X305.825 I9.825 F930
G1 Y135.646 F930
G3 X305.291 Y136.936 I-1.825 F930
G1 X230.551 Y211.675 F930
G1 X222.936 Y219.291 F930
G3 X221.646 Y219.825 I-1.29 J-1.291 F930
G1 X96.868 F930
G3 Y200.175 J-9.825 F930
G1 X210.876 F930
G2 X216.657 Y197.781 I0.001 J-8.175 F930
G1 X222.838 Y191.6 F930
; MOVEMENT_LINK_TRANSITION
G3 X223.38 Y191.838 I0.225 J0.225 F930
G1 X223.3 Y193.64 F930
G3 X223.278 Y193.744 I-0.317 J-0.014 F930
G1 X216.345 Y211.038 F930
G1 X216.041 Y211.515 F930
G3 X215.795 Y211.458 I-0.113 J-0.072 F930
; MOVEMENT_RAMP_HELIX
G1 X215.781 Y211.304 Z-1.465 F270
G1 X215.775 Y211.15 Z-1.471 F270
G1 X215.777 Y210.995 Z-1.476 F270
G1 X215.786 Y210.84 Z-1.482 F270
G1 X215.804 Y210.686 Z-1.487 F270
G1 X215.83 Y210.534 Z-1.492 F270
G1 X215.863 Y210.382 Z-1.498 F270
G1 X215.904 Y210.233 Z-1.503 F270
G1 X215.953 Y210.086 Z-1.509 F270
G1 X216.009 Y209.942 Z-1.514 F270
G1 X216.072 Y209.801 Z-1.519 F270
G1 X216.143 Y209.663 Z-1.525 F270
G1 X216.22 Y209.529 Z-1.53 F270
G1 X216.305 Y209.399 Z-1.536 F270
G1 X216.396 Y209.274 Z-1.541 F270
G1 X216.493 Y209.153 Z-1.547 F270
G1 X216.596 Y209.038 Z-1.552 F270
G1 X216.705 Y208.928 Z-1.557 F270
G1 X216.82 Y208.824 Z-1.563 F270
G1 X216.94 Y208.726 Z-1.568 F270
G1 X217.064 Y208.634 Z-1.574 F270
G1 X217.193 Y208.549 Z-1.579 F270
G1 X217.327 Y208.47 Z-1.584 F270
G1 X217.464 Y208.398 Z-1.59 F270
G1 X217.605 Y208.334 Z-1.595 F270
G1 X217.749 Y208.277 Z-1.601 F270
G1 X217.895 Y208.227 Z-1.606 F270
G1 X218.044 Y208.185 Z-1.611 F270
G1 X218.195 Y208.15 Z-1.617 F270
G1 X218.348 Y208.124 Z-1.622 F270
G1 X218.501 Y208.105 Z-1.628 F270
G1 X218.656 Y208.094 Z-1.633 F270
G1 X218.811 Y208.091 Z-1.638 F270
G1 X218.966 Y208.096 Z-1.644 F270
G1 X219.12 Y208.109 Z-1.649 F270
G1 X219.273 Y208.13 Z-1.655 F270
G1 X219.425 Y208.158 Z-1.66 F270
G1 X219.576 Y208.195 Z-1.665 F270
G1 X219.724 Y208.239 Z-1.671 F270
G1 X219.87 Y208.291 Z-1.676 F270
G1 X220.013 Y208.35 Z-1.682 F270
G1 X220.153 Y208.416 Z-1.687 F270
G1 X220.289 Y208.49 Z-1.693 F270
G1 X220.422 Y208.57 Z-1.698 F270
G1 X220.55 Y208.657 Z-1.703 F270
G1 X220.673 Y208.751 Z-1.709 F270
G1 X220.792 Y208.85 Z-1.714 F270
G1 X220.905 Y208.956 Z-1.72 F270
G1 X221.013 Y209.067 Z-1.725 F270
G1 X221.114 Y209.184 Z-1.73 F270
G1 X221.21 Y209.306 Z-1.736 F270
G1 X221.299 Y209.432 Z-1.741 F270
G1 X221.382 Y209.563 Z-1.747 F270
G1 X221.458 Y209.698 Z-1.752 F270
G1 X221.526 Y209.837 Z-1.757 F270
G1 X221.588 Y209.979 Z-1.763 F270
G1 X221.642 Y210.124 Z-1.768 F270
G1 X221.689 Y210.272 Z-1.774 F270
G1 X221.728 Y210.421 Z-1.779 F270
G1 X221.759 Y210.573 Z-1.784 F270
G1 X221.783 Y210.726 Z-1.79 F270
G1 X221.798 Y210.88 Z-1.795 F270
G1 X221.806 Y211.035 Z-1.801 F270
G1 Y211.19 Z-1.806 F270
G1 X221.798 Y211.344 Z-1.811 F270
G1 X221.782 Y211.498 Z-1.817 F270
G1 X221.758 Y211.651 Z-1.822 F270
G1 X221.726 Y211.803 Z-1.828 F270
G1 X221.686 Y211.952 Z-1.833 F270
G1 X221.639 Y212.1 Z-1.839 F270
G1 X221.584 Y212.245 Z-1.844 F270
G1 X221.522 Y212.386 Z-1.849 F270
G1 X221.453 Y212.525 Z-1.855 F270
G1 X221.377 Y212.66 Z-1.86 F270
G1 X221.294 Y212.79 Z-1.866 F270
G1 X221.204 Y212.917 Z-1.871 F270
G1 X221.108 Y213.038 Z-1.876 F270
G1 X221.006 Y213.154 Z-1.882 F270
G1 X220.898 Y213.265 Z-1.887 F270
G1 X220.784 Y213.371 Z-1.893 F270
G1 X220.666 Y213.47 Z-1.898 F270
G1 X220.542 Y213.563 Z-1.903 F270
G1 X220.414 Y213.65 Z-1.909 F270
G1 X220.281 Y213.73 Z-1.914 F270
G1 X220.144 Y213.803 Z-1.92 F270
G1 X220.004 Y213.869 Z-1.925 F270
G1 X219.861 Y213.927 Z-1.93 F270
G1 X219.715 Y213.978 Z-1.936 F270
G1 X219.566 Y214.022 Z-1.941 F270
G1 X219.416 Y214.058 Z-1.947 F270
G1 X219.263 Y214.086 Z-1.952 F270
G1 X219.11 Y214.106 Z-1.957 F270
G1 X218.956 Y214.119 Z-1.963 F270
G1 X218.801 Y214.123 Z-1.968 F270
G1 X218.646 Y214.12 Z-1.974 F270
G1 X218.492 Y214.109 Z-1.979 F270
G1 X218.338 Y214.089 Z-1.985 F270
G1 X218.186 Y214.062 Z-1.99 F270
G1 X218.035 Y214.027 Z-1.995 F270
G1 X217.886 Y213.985 Z-2.001 F270
G1 X217.74 Y213.934 Z-2.006 F270
G1 X217.596 Y213.877 Z-2.012 F270
G1 X217.455 Y213.812 Z-2.017 F270
G1 X217.318 Y213.74 Z-2.022 F270
G1 X217.185 Y213.661 Z-2.028 F270
G1 X217.056 Y213.575 Z-2.033 F270
G1 X216.932 Y213.483 Z-2.039 F270
G1 X216.812 Y213.384 Z-2.044 F270
G1 X216.698 Y213.279 Z-2.049 F270
G1 X216.589 Y213.169 Z-2.055 F270
G1 X216.487 Y213.054 Z-2.06 F270
G1 X216.39 Y212.933 Z-2.066 F270
G1 X216.299 Y212.807 Z-2.071 F270
G1 X216.215 Y212.677 Z-2.076 F270
G1 X216.138 Y212.543 Z-2.082 F270
G1 X216.068 Y212.405 Z-2.087 F270
G1 X216.005 Y212.263 Z-2.093 F270
G1 X215.949 Y212.119 Z-2.098 F270
G1 X215.901 Y211.972 Z-2.103 F270
G1 X215.861 Y211.822 Z-2.109 F270
G1 X215.828 Y211.671 Z-2.114 F270
G1 X215.803 Y211.518 Z-2.12 F270
G1 X215.786 Y211.364 Z-2.125 F270
G1 X215.776 Y211.21 Z-2.131 F270
G1 X215.775 Y211.055 Z-2.136 F270
G1 X215.782 Y210.9 Z-2.141 F270
G1 X215.796 Y210.746 Z-2.147 F270
G1 X215.819 Y210.593 Z-2.152 F270
G1 X215.849 Y210.441 Z-2.158 F270
G1 X215.887 Y210.291 Z-2.163 F270
G1 X215.933 Y210.143 Z-2.168 F270
G1 X215.986 Y209.998 Z-2.174 F270
G1 X216.047 Y209.855 Z-2.179 F270
G1 X216.114 Y209.716 Z-2.185 F270
G1 X216.189 Y209.581 Z-2.19 F270
G1 X216.271 Y209.449 Z-2.195 F270
G1 X216.36 Y209.322 Z-2.201 F270
G1 X216.454 Y209.2 Z-2.206 F270
G1 X216.555 Y209.082 Z-2.212 F270
G1 X216.662 Y208.97 Z-2.217 F270
G1 X216.775 Y208.864 Z-2.222 F270
G1 X216.892 Y208.763 Z-2.228 F270
G1 X217.015 Y208.669 Z-2.233 F270
G1 X217.143 Y208.581 Z-2.239 F270
G1 X217.275 Y208.5 Z-2.244 F270
G1 X217.41 Y208.425 Z-2.249 F270
G1 X217.55 Y208.358 Z-2.255 F270
G1 X217.692 Y208.298 Z-2.26 F270
G1 X217.838 Y208.245 Z-2.266 F270
G1 X217.986 Y208.2 Z-2.271 F270
G1 X218.136 Y208.163 Z-2.277 F270
G1 X218.288 Y208.133 Z-2.282 F270
G1 X218.442 Y208.111 Z-2.287 F270
G1 X218.596 Y208.097 Z-2.293 F270
G1 X218.751 Y208.091 Z-2.298 F270
G1 X218.905 Y208.093 Z-2.304 F270
G1 X219.06 Y208.103 Z-2.309 F270
G1 X219.214 Y208.121 Z-2.314 F270
G1 X219.366 Y208.146 Z-2.32 F270
G1 X219.518 Y208.18 Z-2.325 F270
G1 X219.667 Y208.221 Z-2.331 F270
G1 X219.814 Y208.27 Z-2.336 F270
G1 X219.958 Y208.326 Z-2.341 F270
G1 X220.099 Y208.39 Z-2.347 F270
G1 X220.237 Y208.46 Z-2.352 F270
G1 X220.371 Y208.538 Z-2.358 F270
G1 X220.501 Y208.622 Z-2.363 F270
G1 X220.626 Y208.713 Z-2.368 F270
G1 X220.746 Y208.811 Z-2.374 F270
G1 X220.862 Y208.914 Z-2.379 F270
G1 X220.971 Y209.023 Z-2.385 F270
G1 X221.075 Y209.138 Z-2.39 F270
G1 X221.173 Y209.258 Z-2.395 F270
G1 X221.265 Y209.382 Z-2.401 F270
G1 X221.35 Y209.512 Z-2.406 F270
G1 X221.429 Y209.645 Z-2.412 F270
G1 X221.501 Y209.782 Z-2.417 F270
G1 X221.565 Y209.923 Z-2.423 F270
G1 X221.622 Y210.067 Z-2.428 F270
G1 X221.672 Y210.214 Z-2.433 F270
G1 X221.714 Y210.363 Z-2.439 F270
G1 X221.748 Y210.514 Z-2.444 F270
G1 X221.775 Y210.666 Z-2.45 F270
G1 X221.793 Y210.82 Z-2.455 F270
G1 X221.804 Y210.975 Z-2.46 F270
G1 X221.807 Y211.129 Z-2.466 F270
G1 X221.802 Y211.284 Z-2.471 F270
G1 X221.789 Y211.438 Z-2.477 F270
G1 X221.768 Y211.592 Z-2.482 F270
G1 X221.739 Y211.744 Z-2.487 F270
G1 X221.702 Y211.894 Z-2.493 F270
G1 X221.658 Y212.043 Z-2.498 F270
G1 X221.606 Y212.189 Z-2.504 F270
G1 X221.547 Y212.332 Z-2.509 F270
G1 X221.481 Y212.472 Z-2.514 F270
G1 X221.407 Y212.608 Z-2.52 F270
G1 X221.327 Y212.74 Z-2.525 F270
G1 X221.24 Y212.868 Z-2.531 F270
G1 X221.146 Y212.991 Z-2.536 F270
G1 X221.046 Y213.11 Z-2.541 F270
G1 X220.941 Y213.223 Z-2.547 F270
G1 X220.829 Y213.33 Z-2.552 F270
G1 X220.712 Y213.432 Z-2.558 F270
G1 X220.591 Y213.528 Z-2.563 F270
G1 X220.464 Y213.617 Z-2.569 F270
G1 X220.333 Y213.699 Z-2.574 F270
G1 X220.198 Y213.775 Z-2.579 F270
G1 X220.059 Y213.844 Z-2.585 F270
G1 X219.917 Y213.905 Z-2.59 F270
G1 X219.772 Y213.959 Z-2.596 F270
G1 X219.624 Y214.006 Z-2.601 F270
G1 X219.475 Y214.045 Z-2.606 F270
G1 X219.323 Y214.076 Z-2.612 F270
G1 X219.17 Y214.1 Z-2.617 F270
G1 X219.016 Y214.115 Z-2.623 F270
G1 X218.861 Y214.123 Z-2.628 F270
G1 X218.706 Y214.122 Z-2.633 F270
G1 X218.552 Y214.114 Z-2.639 F270
G1 X218.398 Y214.098 Z-2.644 F270
G1 X218.245 Y214.074 Z-2.65 F270
G1 X218.093 Y214.042 Z-2.655 F270
G1 X217.944 Y214.002 Z-2.66 F270
G1 X217.796 Y213.955 Z-2.666 F270
G1 X217.651 Y213.9 Z-2.671 F270
G1 X217.51 Y213.838 Z-2.677 F270
G1 X217.371 Y213.768 Z-2.682 F270
G1 X217.236 Y213.692 Z-2.687 F270
G1 X217.106 Y213.609 Z-2.693 F270
G1 X216.98 Y213.519 Z-2.698 F270
G1 X216.858 Y213.423 Z-2.704 F270
G1 X216.742 Y213.321 Z-2.709 F270
G1 X216.631 Y213.213 Z-2.715 F270
G1 X216.526 Y213.099 Z-2.72 F270
G1 X216.427 Y212.98 Z-2.725 F270
G1 X216.334 Y212.857 Z-2.731 F270
G1 X216.247 Y212.728 Z-2.736 F270
G1 X216.167 Y212.595 Z-2.742 F270
G1 X216.094 Y212.459 Z-2.747 F270
G1 X216.029 Y212.319 Z-2.752 F270
G1 X215.97 Y212.175 Z-2.758 F270
G1 X215.919 Y212.029 Z-2.763 F270
G1 X215.875 Y211.881 Z-2.769 F270
G1 X215.84 Y211.73 Z-2.774 F270
G1 X215.811 Y211.578 Z-2.779 F270
G1 X215.791 Y211.424 Z-2.785 F270
G1 X215.779 Y211.27 Z-2.79 F270
G1 X215.775 Y211.115 Z-2.796 F270
G1 X215.778 Y210.96 Z-2.801 F270
G1 X215.79 Y210.806 Z-2.806 F270
G1 X215.809 Y210.652 Z-2.812 F270
G1 X215.836 Y210.5 Z-2.817 F270
G1 X215.871 Y210.349 Z-2.823 F270
G1 X215.914 Y210.2 Z-2.828 F270
G1 X215.964 Y210.054 Z-2.833 F270
G1 X216.022 Y209.91 Z-2.839 F270
G1 X216.087 Y209.77 Z-2.844 F270
G1 X216.159 Y209.633 Z-2.85 F270
G1 X216.239 Y209.5 Z-2.855 F270
G1 X216.324 Y209.371 Z-2.861 F270
G1 X216.417 Y209.247 Z-2.866 F270
G1 X216.515 Y209.127 Z-2.871 F270
G1 X216.62 Y209.013 Z-2.877 F270
G1 X216.73 Y208.904 Z-2.882 F270
G1 X216.846 Y208.802 Z-2.888 F270
G1 X216.967 Y208.705 Z-2.893 F270
G1 X217.093 Y208.614 Z-2.898 F270
G1 X217.223 Y208.531 Z-2.904 F270
G1 X217.357 Y208.453 Z-2.909 F270
G1 X217.495 Y208.383 Z-2.915 F270
G1 X217.637 Y208.32 Z-2.92 F270
; MOVEMENT_CUTTING
G2 X223.368 Y204.492 I-6.76 J-16.321 F930
G1 X290.493 Y137.366 F930
G2 X295.665 Y124.875 I-12.499 J-12.491 F930
G1 Y43 F930
G3 X296.335 I0.335 F930
G1 X296.38 Y132.072 F930
G3 X296.085 Y132.785 I-1.008 F930
G1 X218.785 Y210.085 F930
G3 X218.072 Y210.38 I-0.712 J-0.712 F930
G1 X96.868 Y210.335 F930
G3 Y209.665 J-0.335 F930
G1 X210.877 F930
G2 X217.637 Y208.32 J-17.665 F930
; MOVEMENT_LINK_TRANSITION
G2 X219.216 Y205.802 I-0.981 J-2.37 F930
G3 X220.378 Y203.066 I3.344 J-0.194 F930
; MOVEMENT_CUTTING
G2 X221.19 Y202.314 I-9.501 J-11.066 F930
G1 X288.315 Y135.189 F930
G2 X292.585 Y124.875 I-10.315 J-10.312 F930
G1 Y43 F930
G3 X299.415 I3.415 F930
G1 X299.46 Y133.251 F930
G3 X299.096 Y134.129 I-1.243 F930
G1 X220.129 Y213.096 F930
G3 X219.251 Y213.46 I-0.879 J-0.879 F930
G1 X96.868 Y213.415 F930
G3 Y206.585 J-3.415 F930
G1 X210.877 F930
G2 X220.378 Y203.066 J-14.585 F930
; MOVEMENT_LINK_TRANSITION
G2 X221.072 Y200.288 I-1.613 J-1.879 F930
G3 X221.661 Y197.486 I2.441 J-0.95 F930
; MOVEMENT_CUTTING
G1 X286.136 Y133.011 F930
G2 X289.505 Y124.876 I-8.137 J-8.134 F930
G1 Y43 F930
G3 X302.495 I6.495 F930
G1 X302.54 Y134.526 F930
G3 X302.176 Y135.405 I-1.243 F930
G1 X221.405 Y216.176 F930
G3 X220.526 Y216.54 I-0.879 J-0.879 F930
G1 X96.868 Y216.495 F930
G3 Y203.505 J-6.495 F930
G1 X210.877 F930
G2 X219.012 Y200.136 J-11.505 F930
G1 X221.661 Y197.486 F930
; MOVEMENT_LINK_TRANSITION
G2 X222.214 Y194.72 I-1.798 J-1.798 F930
G3 X222.768 Y191.953 I2.352 J-0.968 F930
; MOVEMENT_CUTTING
G1 X283.922 Y130.798 F930
G2 X286.375 Y124.876 I-5.923 J-5.922 F930
G1 Y43 F930
G3 X305.625 I9.625 F930
G1 Y135.646 F930
G3 X305.149 Y136.795 I-1.625 F930
G1 X222.795 Y219.149 F930
G3 X221.646 Y219.625 I-1.149 J-1.149 F930
G1 X96.868 F930
G3 Y200.375 J-9.625 F930
G1 X210.876 F930
G2 X216.798 Y197.923 I0.001 J-8.375 F930
G1 X222.768 Y191.953 F930
; MOVEMENT_LINK_TRANSITION
G2 X222.803 Y191.777 I-0.115 J-0.115 F930
G3 X222.838 Y191.6 I0.15 J-0.062 F930
; MOVEMENT_FINISH_CUTTING
G1 X283.781 Y130.657 F930
G2 X286.175 Y124.876 I-5.781 J-5.78 F930
G1 Y43 F930
G3 X305.825 I9.825 F930
G1 Y135.646 F930
G3 X305.291 Y136.936 I-1.825 F930
G1 X230.551 Y211.675 F930
G1 X222.936 Y219.291 F930
G3 X221.646 Y219.825 I-1.29 J-1.291 F930
G1 X96.868 F930
G3 Y200.175 J-9.825 F930
G1 X210.876 F930
G2 X216.657 Y197.781 I0.001 J-8.175 F930
G1 X222.838 Y191.6 F930
; MOVEMENT_LINK_TRANSITION
G3 X223.38 Y191.838 I0.225 J0.225 F930
G1 X223.3 Y193.64 F930
G3 X223.278 Y193.744 I-0.317 J-0.014 F930
G1 X216.345 Y211.038 F930
G1 X216.041 Y211.515 F930
G3 X215.795 Y211.458 I-0.113 J-0.072 F930
; MOVEMENT_RAMP_HELIX
G1 X215.781 Y211.304 Z-2.925 F270
G1 X215.775 Y211.15 Z-2.931 F270
G1 X215.777 Y210.995 Z-2.936 F270
G1 X215.786 Y210.84 Z-2.942 F270
G1 X215.804 Y210.686 Z-2.947 F270
G1 X215.83 Y210.534 Z-2.952 F270
G1 X215.863 Y210.382 Z-2.958 F270
G1 X215.904 Y210.233 Z-2.963 F270
G1 X215.953 Y210.086 Z-2.969 F270
G1 X216.009 Y209.942 Z-2.974 F270
G1 X216.072 Y209.801 Z-2.979 F270
G1 X216.143 Y209.663 Z-2.985 F270
G1 X216.22 Y209.529 Z-2.99 F270
G1 X216.305 Y209.399 Z-2.996 F270
G1 X216.396 Y209.274 Z-3.001 F270
G1 X216.493 Y209.153 Z-3.007 F270
G1 X216.596 Y209.038 Z-3.012 F270
G1 X216.705 Y208.928 Z-3.017 F270
G1 X216.82 Y208.824 Z-3.023 F270
G1 X216.94 Y208.726 Z-3.028 F270
G1 X217.064 Y208.634 Z-3.034 F270
G1 X217.193 Y208.549 Z-3.039 F270
G1 X217.327 Y208.47 Z-3.044 F270
G1 X217.464 Y208.398 Z-3.05 F270
G1 X217.605 Y208.334 Z-3.055 F270
G1 X217.749 Y208.277 Z-3.061 F270
G1 X217.895 Y208.227 Z-3.066 F270
G1 X218.044 Y208.185 Z-3.071 F270
G1 X218.195 Y208.15 Z-3.077 F270
G1 X218.348 Y208.124 Z-3.082 F270
G1 X218.501 Y208.105 Z-3.088 F270
G1 X218.656 Y208.094 Z-3.093 F270
G1 X218.811 Y208.091 Z-3.098 F270
G1 X218.966 Y208.096 Z-3.104 F270
G1 X219.12 Y208.109 Z-3.109 F270
G1 X219.273 Y208.13 Z-3.115 F270
G1 X219.425 Y208.158 Z-3.12 F270
G1 X219.576 Y208.195 Z-3.125 F270
G1 X219.724 Y208.239 Z-3.131 F270
G1 X219.87 Y208.291 Z-3.136 F270
G1 X220.013 Y208.35 Z-3.142 F270
G1 X220.153 Y208.416 Z-3.147 F270
G1 X220.289 Y208.49 Z-3.153 F270
G1 X220.422 Y208.57 Z-3.158 F270
G1 X220.55 Y208.657 Z-3.163 F270
G1 X220.673 Y208.751 Z-3.169 F270
G1 X220.792 Y208.85 Z-3.174 F270
G1 X220.905 Y208.956 Z-3.18 F270
G1 X221.013 Y209.067 Z-3.185 F270
G1 X221.114 Y209.184 Z-3.19 F270
G1 X221.21 Y209.306 Z-3.196 F270
G1 X221.299 Y209.432 Z-3.201 F270
G1 X221.382 Y209.563 Z-3.207 F270
G1 X221.458 Y209.698 Z-3.212 F270
G1 X221.526 Y209.837 Z-3.217 F270
G1 X221.588 Y209.979 Z-3.223 F270
G1 X221.642 Y210.124 Z-3.228 F270
G1 X221.689 Y210.272 Z-3.234 F270
G1 X221.728 Y210.421 Z-3.239 F270
G1 X221.759 Y210.573 Z-3.244 F270
G1 X221.783 Y210.726 Z-3.25 F270
G1 X221.798 Y210.88 Z-3.255 F270
G1 X221.806 Y211.035 Z-3.261 F270
G1 Y211.19 Z-3.266 F270
G1 X221.798 Y211.344 Z-3.271 F270
G1 X221.782 Y211.498 Z-3.277 F270
G1 X221.758 Y211.651 Z-3.282 F270
G1 X221.726 Y211.803 Z-3.288 F270
G1 X221.686 Y211.952 Z-3.293 F270
G1 X221.639 Y212.1 Z-3.299 F270
G1 X221.584 Y212.245 Z-3.304 F270
G1 X221.522 Y212.386 Z-3.309 F270
G1 X221.453 Y212.525 Z-3.315 F270
G1 X221.377 Y212.66 Z-3.32 F270
G1 X221.294 Y212.79 Z-3.326 F270
G1 X221.204 Y212.917 Z-3.331 F270
G1 X221.108 Y213.038 Z-3.336 F270
G1 X221.006 Y213.154 Z-3.342 F270
G1 X220.898 Y213.265 Z-3.347 F270
G1 X220.784 Y213.371 Z-3.353 F270
G1 X220.666 Y213.47 Z-3.358 F270
G1 X220.542 Y213.563 Z-3.363 F270
G1 X220.414 Y213.65 Z-3.369 F270
G1 X220.281 Y213.73 Z-3.374 F270
G1 X220.144 Y213.803 Z-3.38 F270
G1 X220.004 Y213.869 Z-3.385 F270
G1 X219.861 Y213.927 Z-3.39 F270
G1 X219.715 Y213.978 Z-3.396 F270
G1 X219.566 Y214.022 Z-3.401 F270
G1 X219.416 Y214.058 Z-3.407 F270
G1 X219.263 Y214.086 Z-3.412 F270
G1 X219.11 Y214.106 Z-3.417 F270
G1 X218.956 Y214.119 Z-3.423 F270
G1 X218.801 Y214.123 Z-3.428 F270
G1 X218.646 Y214.12 Z-3.434 F270
G1 X218.492 Y214.109 Z-3.439 F270
G1 X218.338 Y214.089 Z-3.445 F270
G1 X218.186 Y214.062 Z-3.45 F270
G1 X218.035 Y214.027 Z-3.455 F270
G1 X217.886 Y213.985 Z-3.461 F270
G1 X217.74 Y213.934 Z-3.466 F270
G1 X217.596 Y213.877 Z-3.472 F270
G1 X217.455 Y213.812 Z-3.477 F270
G1 X217.318 Y213.74 Z-3.482 F270
G1 X217.185 Y213.661 Z-3.488 F270
G1 X217.056 Y213.575 Z-3.493 F270
G1 X216.932 Y213.483 Z-3.499 F270
G1 X216.812 Y213.384 Z-3.504 F270
G1 X216.698 Y213.279 Z-3.509 F270
G1 X216.589 Y213.169 Z-3.515 F270
G1 X216.487 Y213.054 Z-3.52 F270
G1 X216.39 Y212.933 Z-3.526 F270
G1 X216.299 Y212.807 Z-3.531 F270
G1 X216.215 Y212.677 Z-3.536 F270
G1 X216.138 Y212.543 Z-3.542 F270
G1 X216.068 Y212.405 Z-3.547 F270
G1 X216.005 Y212.263 Z-3.553 F270
G1 X215.949 Y212.119 Z-3.558 F270
G1 X215.901 Y211.972 Z-3.563 F270
G1 X215.861 Y211.822 Z-3.569 F270
G1 X215.828 Y211.671 Z-3.574 F270
G1 X215.803 Y211.518 Z-3.58 F270
G1 X215.786 Y211.364 Z-3.585 F270
G1 X215.776 Y211.21 Z-3.591 F270
G1 X215.775 Y211.055 Z-3.596 F270
G1 X215.782 Y210.9 Z-3.601 F270
G1 X215.796 Y210.746 Z-3.607 F270
G1 X215.819 Y210.593 Z-3.612 F270
G1 X215.849 Y210.441 Z-3.618 F270
G1 X215.887 Y210.291 Z-3.623 F270
G1 X215.933 Y210.143 Z-3.628 F270
G1 X215.986 Y209.998 Z-3.634 F270
G1 X216.047 Y209.855 Z-3.639 F270
G1 X216.114 Y209.716 Z-3.645 F270
G1 X216.189 Y209.581 Z-3.65 F270
G1 X216.271 Y209.449 Z-3.655 F270
G1 X216.36 Y209.322 Z-3.661 F270
G1 X216.454 Y209.2 Z-3.666 F270
G1 X216.555 Y209.082 Z-3.672 F270
G1 X216.662 Y208.97 Z-3.677 F270
G1 X216.775 Y208.864 Z-3.682 F270
G1 X216.892 Y208.763 Z-3.688 F270
G1 X217.015 Y208.669 Z-3.693 F270
G1 X217.143 Y208.581 Z-3.699 F270
G1 X217.275 Y208.5 Z-3.704 F270
G1 X217.41 Y208.425 Z-3.709 F270
G1 X217.55 Y208.358 Z-3.715 F270
G1 X217.692 Y208.298 Z-3.72 F270
G1 X217.838 Y208.245 Z-3.726 F270
G1 X217.986 Y208.2 Z-3.731 F270
G1 X218.136 Y208.163 Z-3.737 F270
G1 X218.288 Y208.133 Z-3.742 F270
G1 X218.442 Y208.111 Z-3.747 F270
G1 X218.596 Y208.097 Z-3.753 F270
G1 X218.751 Y208.091 Z-3.758 F270
G1 X218.905 Y208.093 Z-3.764 F270
G1 X219.06 Y208.103 Z-3.769 F270
G1 X219.214 Y208.121 Z-3.774 F270
G1 X219.366 Y208.146 Z-3.78 F270
G1 X219.518 Y208.18 Z-3.785 F270
G1 X219.667 Y208.221 Z-3.791 F270
G1 X219.814 Y208.27 Z-3.796 F270
G1 X219.958 Y208.326 Z-3.801 F270
G1 X220.099 Y208.39 Z-3.807 F270
G1 X220.237 Y208.46 Z-3.812 F270
G1 X220.371 Y208.538 Z-3.818 F270
G1 X220.501 Y208.622 Z-3.823 F270
G1 X220.626 Y208.713 Z-3.828 F270
G1 X220.746 Y208.811 Z-3.834 F270
G1 X220.862 Y208.914 Z-3.839 F270
G1 X220.971 Y209.023 Z-3.845 F270
G1 X221.075 Y209.138 Z-3.85 F270
G1 X221.173 Y209.258 Z-3.855 F270
G1 X221.265 Y209.382 Z-3.861 F270
G1 X221.35 Y209.512 Z-3.866 F270
G1 X221.429 Y209.645 Z-3.872 F270
G1 X221.501 Y209.782 Z-3.877 F270
G1 X221.565 Y209.923 Z-3.883 F270
G1 X221.622 Y210.067 Z-3.888 F270
G1 X221.672 Y210.214 Z-3.893 F270
G1 X221.714 Y210.363 Z-3.899 F270
G1 X221.748 Y210.514 Z-3.904 F270
G1 X221.775 Y210.666 Z-3.91 F270
G1 X221.793 Y210.82 Z-3.915 F270
G1 X221.804 Y210.975 Z-3.92 F270
G1 X221.807 Y211.129 Z-3.926 F270
G1 X221.802 Y211.284 Z-3.931 F270
G1 X221.789 Y211.438 Z-3.937 F270
G1 X221.768 Y211.592 Z-3.942 F270
G1 X221.739 Y211.744 Z-3.947 F270
G1 X221.702 Y211.894 Z-3.953 F270
G1 X221.658 Y212.043 Z-3.958 F270
G1 X221.606 Y212.189 Z-3.964 F270
G1 X221.547 Y212.332 Z-3.969 F270
G1 X221.481 Y212.472 Z-3.974 F270
G1 X221.407 Y212.608 Z-3.98 F270
G1 X221.327 Y212.74 Z-3.985 F270
G1 X221.24 Y212.868 Z-3.991 F270
G1 X221.146 Y212.991 Z-3.996 F270
G1 X221.046 Y213.11 Z-4.001 F270
G1 X220.941 Y213.223 Z-4.007 F270
G1 X220.829 Y213.33 Z-4.012 F270
G1 X220.712 Y213.432 Z-4.018 F270
G1 X220.591 Y213.528 Z-4.023 F270
G1 X220.464 Y213.617 Z-4.029 F270
G1 X220.333 Y213.699 Z-4.034 F270
G1 X220.198 Y213.775 Z-4.039 F270
G1 X220.059 Y213.844 Z-4.045 F270
G1 X219.917 Y213.905 Z-4.05 F270
G1 X219.772 Y213.959 Z-4.056 F270
G1 X219.624 Y214.006 Z-4.061 F270
G1 X219.475 Y214.045 Z-4.066 F270
G1 X219.323 Y214.076 Z-4.072 F270
G1 X219.17 Y214.1 Z-4.077 F270
G1 X219.016 Y214.115 Z-4.083 F270
G1 X218.861 Y214.123 Z-4.088 F270
G1 X218.706 Y214.122 Z-4.093 F270
G1 X218.552 Y214.114 Z-4.099 F270
G1 X218.398 Y214.098 Z-4.104 F270
G1 X218.245 Y214.074 Z-4.11 F270
G1 X218.093 Y214.042 Z-4.115 F270
G1 X217.944 Y214.002 Z-4.12 F270
G1 X217.796 Y213.955 Z-4.126 F270
G1 X217.651 Y213.9 Z-4.131 F270
G1 X217.51 Y213.838 Z-4.137 F270
G1 X217.371 Y213.768 Z-4.142 F270
G1 X217.236 Y213.692 Z-4.147 F270
G1 X217.106 Y213.609 Z-4.153 F270
G1 X216.98 Y213.519 Z-4.158 F270
G1 X216.858 Y213.423 Z-4.164 F270
G1 X216.742 Y213.321 Z-4.169 F270
G1 X216.631 Y213.213 Z-4.175 F270
G1 X216.526 Y213.099 Z-4.18 F270
G1 X216.427 Y212.98 Z-4.185 F270
G1 X216.334 Y212.857 Z-4.191 F270
G1 X216.247 Y212.728 Z-4.196 F270
G1 X216.167 Y212.595 Z-4.202 F270
G1 X216.094 Y212.459 Z-4.207 F270
G1 X216.029 Y212.319 Z-4.212 F270
G1 X215.97 Y212.175 Z-4.218 F270
G1 X215.919 Y212.029 Z-4.223 F270
G1 X215.875 Y211.881 Z-4.229 F270
G1 X215.84 Y211.73 Z-4.234 F270
G1 X215.811 Y211.578 Z-4.239 F270
G1 X215.791 Y211.424 Z-4.245 F270
G1 X215.779 Y211.27 Z-4.25 F270
G1 X215.775 Y211.115 Z-4.256 F270
G1 X215.778 Y210.96 Z-4.261 F270
G1 X215.79 Y210.806 Z-4.266 F270
G1 X215.809 Y210.652 Z-4.272 F270
G1 X215.836 Y210.5 Z-4.277 F270
G1 X215.871 Y210.349 Z-4.283 F270
G1 X215.914 Y210.2 Z-4.288 F270
G1 X215.964 Y210.054 Z-4.293 F270
G1 X216.022 Y209.91 Z-4.299 F270
G1 X216.087 Y209.77 Z-4.304 F270
G1 X216.159 Y209.633 Z-4.31 F270
G1 X216.239 Y209.5 Z-4.315 F270
G1 X216.324 Y209.371 Z-4.321 F270
G1 X216.417 Y209.247 Z-4.326 F270
G1 X216.515 Y209.127 Z-4.331 F270
G1 X216.62 Y209.013 Z-4.337 F270
G1 X216.73 Y208.904 Z-4.342 F270
G1 X216.846 Y208.802 Z-4.348 F270
G1 X216.967 Y208.705 Z-4.353 F270
G1 X217.093 Y208.614 Z-4.358 F270
G1 X217.223 Y208.531 Z-4.364 F270
G1 X217.357 Y208.453 Z-4.369 F270
G1 X217.495 Y208.383 Z-4.375 F270
G1 X217.637 Y208.32 Z-4.38 F270
; MOVEMENT_CUTTING
G2 X223.368 Y204.492 I-6.76 J-16.321 F930
G1 X290.493 Y137.366 F930
G2 X295.665 Y124.875 I-12.499 J-12.491 F930
G1 Y43 F930
G3 X296.335 I0.335 F930
G1 X296.38 Y132.072 F930
G3 X296.085 Y132.785 I-1.008 F930
G1 X218.785 Y210.085 F930
G3 X218.072 Y210.38 I-0.712 J-0.712 F930
G1 X96.868 Y210.335 F930
G3 Y209.665 J-0.335 F930
G1 X210.877 F930
G2 X217.637 Y208.32 J-17.665 F930
; MOVEMENT_LINK_TRANSITION
G2 X219.216 Y205.802 I-0.981 J-2.37 F930
G3 X220.378 Y203.066 I3.344 J-0.194 F930
; MOVEMENT_CUTTING
G2 X221.19 Y202.314 I-9.501 J-11.066 F930
G1 X288.315 Y135.189 F930
G2 X292.585 Y124.875 I-10.315 J-10.312 F930
G1 Y43 F930
G3 X299.415 I3.415 F930
G1 X299.46 Y133.251 F930
G3 X299.096 Y134.129 I-1.243 F930
G1 X220.129 Y213.096 F930
G3 X219.251 Y213.46 I-0.879 J-0.879 F930
G1 X96.868 Y213.415 F930
G3 Y206.585 J-3.415 F930
G1 X210.877 F930
G2 X220.378 Y203.066 J-14.585 F930
; MOVEMENT_LINK_TRANSITION
G2 X221.072 Y200.288 I-1.613 J-1.879 F930
G3 X221.661 Y197.486 I2.441 J-0.95 F930
; MOVEMENT_CUTTING
G1 X286.136 Y133.011 F930
G2 X289.505 Y124.876 I-8.137 J-8.134 F930
G1 Y43 F930
G3 X302.495 I6.495 F930
G1 X302.54 Y134.526 F930
G3 X302.176 Y135.405 I-1.243 F930
G1 X221.405 Y216.176 F930
G3 X220.526 Y216.54 I-0.879 J-0.879 F930
G1 X96.868 Y216.495 F930
G3 Y203.505 J-6.495 F930
G1 X210.877 F930
G2 X219.012 Y200.136 J-11.505 F930
G1 X221.661 Y197.486 F930
; MOVEMENT_LINK_TRANSITION
G2 X222.214 Y194.72 I-1.798 J-1.798 F930
G3 X222.768 Y191.953 I2.352 J-0.968 F930
; MOVEMENT_CUTTING
G1 X283.922 Y130.798 F930
G2 X286.375 Y124.876 I-5.923 J-5.922 F930
G1 Y43 F930
G3 X305.625 I9.625 F930
G1 Y135.646 F930
G3 X305.149 Y136.795 I-1.625 F930
G1 X222.795 Y219.149 F930
G3 X221.646 Y219.625 I-1.149 J-1.149 F930
G1 X96.868 F930
G3 Y200.375 J-9.625 F930
G1 X210.876 F930
G2 X216.798 Y197.923 I0.001 J-8.375 F930
G1 X222.768 Y191.953 F930
; MOVEMENT_LINK_TRANSITION
G2 X222.803 Y191.777 I-0.115 J-0.115 F930
G3 X222.838 Y191.6 I0.15 J-0.062 F930
; MOVEMENT_FINISH_CUTTING
G1 X283.781 Y130.657 F930
G2 X286.175 Y124.876 I-5.781 J-5.78 F930
G1 Y43 F930
G3 X305.825 I9.825 F930
G1 Y135.646 F930
G3 X305.291 Y136.936 I-1.825 F930
G1 X230.551 Y211.675 F930
G1 X222.936 Y219.291 F930
G3 X221.646 Y219.825 I-1.29 J-1.291 F930
G1 X96.868 F930
G3 Y200.175 J-9.825 F930
G1 X210.876 F930
G2 X216.657 Y197.781 I0.001 J-8.175 F930
G1 X222.838 Y191.6 F930
; MOVEMENT_LINK_TRANSITION
G3 X223.38 Y191.838 I0.225 J0.225 F930
G1 X223.3 Y193.64 F930
G3 X223.278 Y193.744 I-0.317 J-0.014 F930
G1 X216.345 Y211.038 F930
G1 X216.041 Y211.515 F930
G3 X215.795 Y211.458 I-0.113 J-0.072 F930
; MOVEMENT_RAMP_HELIX
G1 X215.781 Y211.304 Z-4.385 F270
G1 X215.775 Y211.15 Z-4.391 F270
G1 X215.777 Y210.995 Z-4.396 F270
G1 X215.786 Y210.84 Z-4.402 F270
G1 X215.804 Y210.686 Z-4.407 F270
G1 X215.83 Y210.534 Z-4.412 F270
G1 X215.863 Y210.382 Z-4.418 F270
G1 X215.904 Y210.233 Z-4.423 F270
G1 X215.953 Y210.086 Z-4.429 F270
G1 X216.009 Y209.942 Z-4.434 F270
G1 X216.072 Y209.801 Z-4.439 F270
G1 X216.143 Y209.663 Z-4.445 F270
G1 X216.22 Y209.529 Z-4.45 F270
G1 X216.305 Y209.399 Z-4.456 F270
G1 X216.396 Y209.274 Z-4.461 F270
G1 X216.493 Y209.153 Z-4.467 F270
G1 X216.596 Y209.038 Z-4.472 F270
G1 X216.705 Y208.928 Z-4.477 F270
G1 X216.82 Y208.824 Z-4.483 F270
G1 X216.94 Y208.726 Z-4.488 F270
G1 X217.064 Y208.634 Z-4.494 F270
G1 X217.193 Y208.549 Z-4.499 F270
G1 X217.327 Y208.47 Z-4.504 F270
G1 X217.464 Y208.398 Z-4.51 F270
G1 X217.605 Y208.334 Z-4.515 F270
G1 X217.749 Y208.277 Z-4.521 F270
G1 X217.895 Y208.227 Z-4.526 F270
G1 X218.044 Y208.185 Z-4.531 F270
G1 X218.195 Y208.15 Z-4.537 F270
G1 X218.348 Y208.124 Z-4.542 F270
G1 X218.501 Y208.105 Z-4.548 F270
G1 X218.656 Y208.094 Z-4.553 F270
G1 X218.811 Y208.091 Z-4.558 F270
G1 X218.966 Y208.096 Z-4.564 F270
G1 X219.12 Y208.109 Z-4.569 F270
G1 X219.273 Y208.13 Z-4.575 F270
G1 X219.425 Y208.158 Z-4.58 F270
G1 X219.576 Y208.195 Z-4.585 F270
G1 X219.724 Y208.239 Z-4.591 F270
G1 X219.87 Y208.291 Z-4.596 F270
G1 X220.013 Y208.35 Z-4.602 F270
G1 X220.153 Y208.416 Z-4.607 F270
G1 X220.289 Y208.49 Z-4.613 F270
G1 X220.422 Y208.57 Z-4.618 F270
G1 X220.55 Y208.657 Z-4.623 F270
G1 X220.673 Y208.751 Z-4.629 F270
G1 X220.792 Y208.85 Z-4.634 F270
G1 X220.905 Y208.956 Z-4.64 F270
G1 X221.013 Y209.067 Z-4.645 F270
G1 X221.114 Y209.184 Z-4.65 F270
G1 X221.21 Y209.306 Z-4.656 F270
G1 X221.299 Y209.432 Z-4.661 F270
G1 X221.382 Y209.563 Z-4.667 F270
G1 X221.458 Y209.698 Z-4.672 F270
G1 X221.526 Y209.837 Z-4.677 F270
G1 X221.588 Y209.979 Z-4.683 F270
G1 X221.642 Y210.124 Z-4.688 F270
G1 X221.689 Y210.272 Z-4.694 F270
G1 X221.728 Y210.421 Z-4.699 F270
G1 X221.759 Y210.573 Z-4.704 F270
G1 X221.783 Y210.726 Z-4.71 F270
G1 X221.798 Y210.88 Z-4.715 F270
G1 X221.806 Y211.035 Z-4.721 F270
G1 Y211.19 Z-4.726 F270
G1 X221.798 Y211.344 Z-4.731 F270
G1 X221.782 Y211.498 Z-4.737 F270
G1 X221.758 Y211.651 Z-4.742 F270
G1 X221.726 Y211.803 Z-4.748 F270
G1 X221.686 Y211.952 Z-4.753 F270
G1 X221.639 Y212.1 Z-4.759 F270
G1 X221.584 Y212.245 Z-4.764 F270
G1 X221.522 Y212.386 Z-4.769 F270
G1 X221.453 Y212.525 Z-4.775 F270
G1 X221.377 Y212.66 Z-4.78 F270
G1 X221.294 Y212.79 Z-4.786 F270
G1 X221.204 Y212.917 Z-4.791 F270
G1 X221.108 Y213.038 Z-4.796 F270
G1 X221.006 Y213.154 Z-4.802 F270
G1 X220.898 Y213.265 Z-4.807 F270
G1 X220.784 Y213.371 Z-4.813 F270
G1 X220.666 Y213.47 Z-4.818 F270
G1 X220.542 Y213.563 Z-4.823 F270
G1 X220.414 Y213.65 Z-4.829 F270
G1 X220.281 Y213.73 Z-4.834 F270
G1 X220.144 Y213.803 Z-4.84 F270
G1 X220.004 Y213.869 Z-4.845 F270
G1 X219.861 Y213.927 Z-4.85 F270
G1 X219.715 Y213.978 Z-4.856 F270
G1 X219.566 Y214.022 Z-4.861 F270
G1 X219.416 Y214.058 Z-4.867 F270
G1 X219.263 Y214.086 Z-4.872 F270
G1 X219.11 Y214.106 Z-4.877 F270
G1 X218.956 Y214.119 Z-4.883 F270
G1 X218.801 Y214.123 Z-4.888 F270
G1 X218.646 Y214.12 Z-4.894 F270
G1 X218.492 Y214.109 Z-4.899 F270
G1 X218.338 Y214.089 Z-4.905 F270
G1 X218.186 Y214.062 Z-4.91 F270
G1 X218.035 Y214.027 Z-4.915 F270
G1 X217.886 Y213.985 Z-4.921 F270
G1 X217.74 Y213.934 Z-4.926 F270
G1 X217.596 Y213.877 Z-4.932 F270
G1 X217.455 Y213.812 Z-4.937 F270
G1 X217.318 Y213.74 Z-4.942 F270
G1 X217.185 Y213.661 Z-4.948 F270
G1 X217.056 Y213.575 Z-4.953 F270
G1 X216.932 Y213.483 Z-4.959 F270
G1 X216.812 Y213.384 Z-4.964 F270
G1 X216.698 Y213.279 Z-4.969 F270
G1 X216.589 Y213.169 Z-4.975 F270
G1 X216.487 Y213.054 Z-4.98 F270
G1 X216.39 Y212.933 Z-4.986 F270
G1 X216.299 Y212.807 Z-4.991 F270
G1 X216.215 Y212.677 Z-4.996 F270
G1 X216.138 Y212.543 Z-5.002 F270
G1 X216.068 Y212.405 Z-5.007 F270
G1 X216.005 Y212.263 Z-5.013 F270
G1 X215.949 Y212.119 Z-5.018 F270
G1 X215.901 Y211.972 Z-5.023 F270
G1 X215.861 Y211.822 Z-5.029 F270
G1 X215.828 Y211.671 Z-5.034 F270
G1 X215.803 Y211.518 Z-5.04 F270
G1 X215.786 Y211.364 Z-5.045 F270
G1 X215.776 Y211.21 Z-5.051 F270
G1 X215.775 Y211.055 Z-5.056 F270
G1 X215.782 Y210.9 Z-5.061 F270
G1 X215.796 Y210.746 Z-5.067 F270
G1 X215.819 Y210.593 Z-5.072 F270
G1 X215.849 Y210.441 Z-5.078 F270
G1 X215.887 Y210.291 Z-5.083 F270
G1 X215.933 Y210.143 Z-5.088 F270
G1 X215.986 Y209.998 Z-5.094 F270
G1 X216.047 Y209.855 Z-5.099 F270
G1 X216.114 Y209.716 Z-5.105 F270
G1 X216.189 Y209.581 Z-5.11 F270
G1 X216.271 Y209.449 Z-5.115 F270
G1 X216.36 Y209.322 Z-5.121 F270
G1 X216.454 Y209.2 Z-5.126 F270
G1 X216.555 Y209.082 Z-5.132 F270
G1 X216.662 Y208.97 Z-5.137 F270
G1 X216.775 Y208.864 Z-5.142 F270
G1 X216.892 Y208.763 Z-5.148 F270
G1 X217.015 Y208.669 Z-5.153 F270
G1 X217.143 Y208.581 Z-5.159 F270
G1 X217.275 Y208.5 Z-5.164 F270
G1 X217.41 Y208.425 Z-5.169 F270
G1 X217.55 Y208.358 Z-5.175 F270
G1 X217.692 Y208.298 Z-5.18 F270
G1 X217.838 Y208.245 Z-5.186 F270
G1 X217.986 Y208.2 Z-5.191 F270
G1 X218.136 Y208.163 Z-5.197 F270
G1 X218.288 Y208.133 Z-5.202 F270
G1 X218.442 Y208.111 Z-5.207 F270
G1 X218.596 Y208.097 Z-5.213 F270
G1 X218.751 Y208.091 Z-5.218 F270
G1 X218.905 Y208.093 Z-5.224 F270
G1 X219.06 Y208.103 Z-5.229 F270
G1 X219.214 Y208.121 Z-5.234 F270
G1 X219.366 Y208.146 Z-5.24 F270
G1 X219.518 Y208.18 Z-5.245 F270
G1 X219.667 Y208.221 Z-5.251 F270
G1 X219.814 Y208.27 Z-5.256 F270
G1 X219.958 Y208.326 Z-5.261 F270
G1 X220.099 Y208.39 Z-5.267 F270
G1 X220.237 Y208.46 Z-5.272 F270
G1 X220.371 Y208.538 Z-5.278 F270
G1 X220.501 Y208.622 Z-5.283 F270
G1 X220.626 Y208.713 Z-5.288 F270
G1 X220.746 Y208.811 Z-5.294 F270
G1 X220.862 Y208.914 Z-5.299 F270
G1 X220.971 Y209.023 Z-5.305 F270
G1 X221.075 Y209.138 Z-5.31 F270
G1 X221.173 Y209.258 Z-5.315 F270
G1 X221.265 Y209.382 Z-5.321 F270
G1 X221.35 Y209.512 Z-5.326 F270
G1 X221.429 Y209.645 Z-5.332 F270
G1 X221.501 Y209.782 Z-5.337 F270
G1 X221.565 Y209.923 Z-5.343 F270
G1 X221.622 Y210.067 Z-5.348 F270
G1 X221.672 Y210.214 Z-5.353 F270
G1 X221.714 Y210.363 Z-5.359 F270
G1 X221.748 Y210.514 Z-5.364 F270
G1 X221.775 Y210.666 Z-5.37 F270
G1 X221.793 Y210.82 Z-5.375 F270
G1 X221.804 Y210.975 Z-5.38 F270
G1 X221.807 Y211.129 Z-5.386 F270
G1 X221.802 Y211.284 Z-5.391 F270
G1 X221.789 Y211.438 Z-5.397 F270
G1 X221.768 Y211.592 Z-5.402 F270
G1 X221.739 Y211.744 Z-5.407 F270
G1 X221.702 Y211.894 Z-5.413 F270
G1 X221.658 Y212.043 Z-5.418 F270
G1 X221.606 Y212.189 Z-5.424 F270
G1 X221.547 Y212.332 Z-5.429 F270
G1 X221.481 Y212.472 Z-5.434 F270
G1 X221.407 Y212.608 Z-5.44 F270
G1 X221.327 Y212.74 Z-5.445 F270
G1 X221.24 Y212.868 Z-5.451 F270
G1 X221.146 Y212.991 Z-5.456 F270
G1 X221.046 Y213.11 Z-5.461 F270
G1 X220.941 Y213.223 Z-5.467 F270
G1 X220.829 Y213.33 Z-5.472 F270
G1 X220.712 Y213.432 Z-5.478 F270
G1 X220.591 Y213.528 Z-5.483 F270
G1 X220.464 Y213.617 Z-5.489 F270
G1 X220.333 Y213.699 Z-5.494 F270
G1 X220.198 Y213.775 Z-5.499 F270
G1 X220.059 Y213.844 Z-5.505 F270
G1 X219.917 Y213.905 Z-5.51 F270
G1 X219.772 Y213.959 Z-5.516 F270
G1 X219.624 Y214.006 Z-5.521 F270
G1 X219.475 Y214.045 Z-5.526 F270
G1 X219.323 Y214.076 Z-5.532 F270
G1 X219.17 Y214.1 Z-5.537 F270
G1 X219.016 Y214.115 Z-5.543 F270
G1 X218.861 Y214.123 Z-5.548 F270
G1 X218.706 Y214.122 Z-5.553 F270
G1 X218.552 Y214.114 Z-5.559 F270
G1 X218.398 Y214.098 Z-5.564 F270
G1 X218.245 Y214.074 Z-5.57 F270
G1 X218.093 Y214.042 Z-5.575 F270
G1 X217.944 Y214.002 Z-5.58 F270
G1 X217.796 Y213.955 Z-5.586 F270
G1 X217.651 Y213.9 Z-5.591 F270
G1 X217.51 Y213.838 Z-5.597 F270
G1 X217.371 Y213.768 Z-5.602 F270
G1 X217.236 Y213.692 Z-5.607 F270
G1 X217.106 Y213.609 Z-5.613 F270
G1 X216.98 Y213.519 Z-5.618 F270
G1 X216.858 Y213.423 Z-5.624 F270
G1 X216.742 Y213.321 Z-5.629 F270
G1 X216.631 Y213.213 Z-5.635 F270
G1 X216.526 Y213.099 Z-5.64 F270
G1 X216.427 Y212.98 Z-5.645 F270
G1 X216.334 Y212.857 Z-5.651 F270
G1 X216.247 Y212.728 Z-5.656 F270
G1 X216.167 Y212.595 Z-5.662 F270
G1 X216.094 Y212.459 Z-5.667 F270
G1 X216.029 Y212.319 Z-5.672 F270
G1 X215.97 Y212.175 Z-5.678 F270
G1 X215.919 Y212.029 Z-5.683 F270
G1 X215.875 Y211.881 Z-5.689 F270
G1 X215.84 Y211.73 Z-5.694 F270
G1 X215.811 Y211.578 Z-5.699 F270
G1 X215.791 Y211.424 Z-5.705 F270
G1 X215.779 Y211.27 Z-5.71 F270
G1 X215.775 Y211.115 Z-5.716 F270
G1 X215.778 Y210.96 Z-5.721 F270
G1 X215.79 Y210.806 Z-5.726 F270
G1 X215.809 Y210.652 Z-5.732 F270
G1 X215.836 Y210.5 Z-5.737 F270
G1 X215.871 Y210.349 Z-5.743 F270
G1 X215.914 Y210.2 Z-5.748 F270
G1 X215.964 Y210.054 Z-5.753 F270
G1 X216.022 Y209.91 Z-5.759 F270
G1 X216.087 Y209.77 Z-5.764 F270
G1 X216.159 Y209.633 Z-5.77 F270
G1 X216.239 Y209.5 Z-5.775 F270
G1 X216.324 Y209.371 Z-5.781 F270
G1 X216.417 Y209.247 Z-5.786 F270
G1 X216.515 Y209.127 Z-5.791 F270
G1 X216.62 Y209.013 Z-5.797 F270
G1 X216.73 Y208.904 Z-5.802 F270
G1 X216.846 Y208.802 Z-5.808 F270
G1 X216.967 Y208.705 Z-5.813 F270
G1 X217.093 Y208.614 Z-5.818 F270
G1 X217.223 Y208.531 Z-5.824 F270
G1 X217.357 Y208.453 Z-5.829 F270
G1 X217.495 Y208.383 Z-5.835 F270
G1 X217.637 Y208.32 Z-5.84 F270
; MOVEMENT_CUTTING
G2 X223.368 Y204.492 I-6.76 J-16.321 F930
G1 X290.493 Y137.366 F930
G2 X295.665 Y124.875 I-12.499 J-12.491 F930
G1 Y43 F930
G3 X296.335 I0.335 F930
G1 X296.38 Y132.072 F930
G3 X296.085 Y132.785 I-1.008 F930
G1 X218.785 Y210.085 F930
G3 X218.072 Y210.38 I-0.712 J-0.712 F930
G1 X96.868 Y210.335 F930
G3 Y209.665 J-0.335 F930
G1 X210.877 F930
G2 X217.637 Y208.32 J-17.665 F930
; MOVEMENT_LINK_TRANSITION
G2 X219.216 Y205.802 I-0.981 J-2.37 F930
G3 X220.378 Y203.066 I3.344 J-0.194 F930
; MOVEMENT_CUTTING
G2 X221.19 Y202.314 I-9.501 J-11.066 F930
G1 X288.315 Y135.189 F930
G2 X292.585 Y124.875 I-10.315 J-10.312 F930
G1 Y43 F930
G3 X299.415 I3.415 F930
G1 X299.46 Y133.251 F930
G3 X299.096 Y134.129 I-1.243 F930
G1 X220.129 Y213.096 F930
G3 X219.251 Y213.46 I-0.879 J-0.879 F930
G1 X96.868 Y213.415 F930
G3 Y206.585 J-3.415 F930
G1 X210.877 F930
G2 X220.378 Y203.066 J-14.585 F930
; MOVEMENT_LINK_TRANSITION
G2 X221.072 Y200.288 I-1.613 J-1.879 F930
G3 X221.661 Y197.486 I2.441 J-0.95 F930
; MOVEMENT_CUTTING
G1 X286.136 Y133.011 F930
G2 X289.505 Y124.876 I-8.137 J-8.134 F930
G1 Y43 F930
G3 X302.495 I6.495 F930
G1 X302.54 Y134.526 F930
G3 X302.176 Y135.405 I-1.243 F930
G1 X221.405 Y216.176 F930
G3 X220.526 Y216.54 I-0.879 J-0.879 F930
G1 X96.868 Y216.495 F930
G3 Y203.505 J-6.495 F930
G1 X210.877 F930
G2 X219.012 Y200.136 J-11.505 F930
G1 X221.661 Y197.486 F930
; MOVEMENT_LINK_TRANSITION
G2 X222.214 Y194.72 I-1.798 J-1.798 F930
G3 X222.768 Y191.953 I2.352 J-0.968 F930
; MOVEMENT_CUTTING
G1 X283.922 Y130.798 F930
G2 X286.375 Y124.876 I-5.923 J-5.922 F930
G1 Y43 F930
G3 X305.625 I9.625 F930
G1 Y135.646 F930
G3 X305.149 Y136.795 I-1.625 F930
G1 X222.795 Y219.149 F930
G3 X221.646 Y219.625 I-1.149 J-1.149 F930
G1 X96.868 F930
G3 Y200.375 J-9.625 F930
G1 X210.876 F930
G2 X216.798 Y197.923 I0.001 J-8.375 F930
G1 X222.768 Y191.953 F930
; MOVEMENT_LINK_TRANSITION
G2 X222.803 Y191.777 I-0.115 J-0.115 F930
G3 X222.838 Y191.6 I0.15 J-0.062 F930
; MOVEMENT_FINISH_CUTTING
G1 X283.781 Y130.657 F930
G2 X286.175 Y124.876 I-5.781 J-5.78 F930
G1 Y43 F930
G3 X305.825 I9.825 F930
G1 Y135.646 F930
G3 X305.291 Y136.936 I-1.825 F930
G1 X230.551 Y211.675 F930
G1 X222.936 Y219.291 F930
G3 X221.646 Y219.825 I-1.29 J-1.291 F930
G1 X96.868 F930
G3 Y200.175 J-9.825 F930
G1 X210.876 F930
G2 X216.657 Y197.781 I0.001 J-8.175 F930
G1 X222.838 Y191.6 F930
; MOVEMENT_LINK_TRANSITION
G3 X223.38 Y191.838 I0.225 J0.225 F930
G1 X223.3 Y193.64 F930
G3 X223.278 Y193.744 I-0.317 J-0.014 F930
G1 X216.345 Y211.038 F930
G1 X216.041 Y211.515 F930
G3 X215.795 Y211.458 I-0.113 J-0.072 F930
; MOVEMENT_RAMP_HELIX
G1 X215.781 Y211.304 Z-5.845 F270
G1 X215.775 Y211.15 Z-5.851 F270
G1 X215.777 Y210.995 Z-5.856 F270
G1 X215.786 Y210.84 Z-5.862 F270
G1 X215.804 Y210.686 Z-5.867 F270
G1 X215.83 Y210.534 Z-5.872 F270
G1 X215.863 Y210.382 Z-5.878 F270
G1 X215.904 Y210.233 Z-5.883 F270
G1 X215.953 Y210.086 Z-5.889 F270
G1 X216.009 Y209.942 Z-5.894 F270
G1 X216.072 Y209.801 Z-5.899 F270
G1 X216.143 Y209.663 Z-5.905 F270
G1 X216.22 Y209.529 Z-5.91 F270
G1 X216.305 Y209.399 Z-5.916 F270
G1 X216.396 Y209.274 Z-5.921 F270
G1 X216.493 Y209.153 Z-5.927 F270
G1 X216.596 Y209.038 Z-5.932 F270
G1 X216.705 Y208.928 Z-5.937 F270
G1 X216.82 Y208.824 Z-5.943 F270
G1 X216.94 Y208.726 Z-5.948 F270
G1 X217.064 Y208.634 Z-5.954 F270
G1 X217.193 Y208.549 Z-5.959 F270
G1 X217.327 Y208.47 Z-5.964 F270
G1 X217.464 Y208.398 Z-5.97 F270
G1 X217.605 Y208.334 Z-5.975 F270
G1 X217.749 Y208.277 Z-5.981 F270
G1 X217.895 Y208.227 Z-5.986 F270
G1 X218.044 Y208.185 Z-5.991 F270
G1 X218.195 Y208.15 Z-5.997 F270
G1 X218.348 Y208.124 Z-6.002 F270
G1 X218.501 Y208.105 Z-6.008 F270
G1 X218.656 Y208.094 Z-6.013 F270
G1 X218.811 Y208.091 Z-6.018 F270
G1 X218.966 Y208.096 Z-6.024 F270
G1 X219.12 Y208.109 Z-6.029 F270
G1 X219.273 Y208.13 Z-6.035 F270
G1 X219.425 Y208.158 Z-6.04 F270
G1 X219.576 Y208.195 Z-6.045 F270
G1 X219.724 Y208.239 Z-6.051 F270
G1 X219.87 Y208.291 Z-6.056 F270
G1 X220.013 Y208.35 Z-6.062 F270
G1 X220.153 Y208.416 Z-6.067 F270
G1 X220.289 Y208.49 Z-6.073 F270
G1 X220.422 Y208.57 Z-6.078 F270
G1 X220.55 Y208.657 Z-6.083 F270
G1 X220.673 Y208.751 Z-6.089 F270
G1 X220.792 Y208.85 Z-6.094 F270
G1 X220.905 Y208.956 Z-6.1 F270
G1 X221.013 Y209.067 Z-6.105 F270
G1 X221.114 Y209.184 Z-6.11 F270
G1 X221.21 Y209.306 Z-6.116 F270
G1 X221.299 Y209.432 Z-6.121 F270
G1 X221.382 Y209.563 Z-6.127 F270
G1 X221.458 Y209.698 Z-6.132 F270
G1 X221.526 Y209.837 Z-6.137 F270
G1 X221.588 Y209.979 Z-6.143 F270
G1 X221.642 Y210.124 Z-6.148 F270
G1 X221.689 Y210.272 Z-6.154 F270
G1 X221.728 Y210.421 Z-6.159 F270
G1 X221.759 Y210.573 Z-6.164 F270
G1 X221.783 Y210.726 Z-6.17 F270
G1 X221.798 Y210.88 Z-6.175 F270
G1 X221.806 Y211.035 Z-6.181 F270
G1 Y211.19 Z-6.186 F270
G1 X221.798 Y211.344 Z-6.191 F270
G1 X221.782 Y211.498 Z-6.197 F270
G1 X221.758 Y211.651 Z-6.202 F270
G1 X221.726 Y211.803 Z-6.208 F270
G1 X221.686 Y211.952 Z-6.213 F270
G1 X221.639 Y212.1 Z-6.219 F270
G1 X221.584 Y212.245 Z-6.224 F270
G1 X221.522 Y212.386 Z-6.229 F270
G1 X221.453 Y212.525 Z-6.235 F270
G1 X221.377 Y212.66 Z-6.24 F270
G1 X221.294 Y212.79 Z-6.246 F270
G1 X221.204 Y212.917 Z-6.251 F270
G1 X221.108 Y213.038 Z-6.256 F270
G1 X221.006 Y213.154 Z-6.262 F270
G1 X220.898 Y213.265 Z-6.267 F270
G1 X220.784 Y213.371 Z-6.273 F270
G1 X220.666 Y213.47 Z-6.278 F270
G1 X220.542 Y213.563 Z-6.283 F270
G1 X220.414 Y213.65 Z-6.289 F270
G1 X220.281 Y213.73 Z-6.294 F270
G1 X220.144 Y213.803 Z-6.3 F270
G1 X220.004 Y213.869 Z-6.305 F270
G1 X219.861 Y213.927 Z-6.31 F270
G1 X219.715 Y213.978 Z-6.316 F270
G1 X219.566 Y214.022 Z-6.321 F270
G1 X219.416 Y214.058 Z-6.327 F270
G1 X219.263 Y214.086 Z-6.332 F270
G1 X219.11 Y214.106 Z-6.337 F270
G1 X218.956 Y214.119 Z-6.343 F270
G1 X218.801 Y214.123 Z-6.348 F270
G1 X218.646 Y214.12 Z-6.354 F270
G1 X218.492 Y214.109 Z-6.359 F270
G1 X218.338 Y214.089 Z-6.365 F270
G1 X218.186 Y214.062 Z-6.37 F270
G1 X218.035 Y214.027 Z-6.375 F270
G1 X217.886 Y213.985 Z-6.381 F270
G1 X217.74 Y213.934 Z-6.386 F270
G1 X217.596 Y213.877 Z-6.392 F270
G1 X217.455 Y213.812 Z-6.397 F270
G1 X217.318 Y213.74 Z-6.402 F270
G1 X217.185 Y213.661 Z-6.408 F270
G1 X217.056 Y213.575 Z-6.413 F270
G1 X216.932 Y213.483 Z-6.419 F270
G1 X216.812 Y213.384 Z-6.424 F270
G1 X216.698 Y213.279 Z-6.429 F270
G1 X216.589 Y213.169 Z-6.435 F270
G1 X216.487 Y213.054 Z-6.44 F270
G1 X216.39 Y212.933 Z-6.446 F270
G1 X216.299 Y212.807 Z-6.451 F270
G1 X216.215 Y212.677 Z-6.456 F270
G1 X216.138 Y212.543 Z-6.462 F270
G1 X216.068 Y212.405 Z-6.467 F270
G1 X216.005 Y212.263 Z-6.473 F270
G1 X215.949 Y212.119 Z-6.478 F270
G1 X215.901 Y211.972 Z-6.483 F270
G1 X215.861 Y211.822 Z-6.489 F270
G1 X215.828 Y211.671 Z-6.494 F270
G1 X215.803 Y211.518 Z-6.5 F270
G1 X215.786 Y211.364 Z-6.505 F270
G1 X215.776 Y211.21 Z-6.511 F270
G1 X215.775 Y211.055 Z-6.516 F270
G1 X215.782 Y210.9 Z-6.521 F270
G1 X215.796 Y210.746 Z-6.527 F270
G1 X215.819 Y210.593 Z-6.532 F270
G1 X215.849 Y210.441 Z-6.538 F270
G1 X215.887 Y210.291 Z-6.543 F270
G1 X215.933 Y210.143 Z-6.548 F270
G1 X215.986 Y209.998 Z-6.554 F270
G1 X216.047 Y209.855 Z-6.559 F270
G1 X216.114 Y209.716 Z-6.565 F270
G1 X216.189 Y209.581 Z-6.57 F270
G1 X216.271 Y209.449 Z-6.575 F270
G1 X216.36 Y209.322 Z-6.581 F270
G1 X216.454 Y209.2 Z-6.586 F270
G1 X216.555 Y209.082 Z-6.592 F270
G1 X216.662 Y208.97 Z-6.597 F270
G1 X216.775 Y208.864 Z-6.602 F270
G1 X216.892 Y208.763 Z-6.608 F270
G1 X217.015 Y208.669 Z-6.613 F270
G1 X217.143 Y208.581 Z-6.619 F270
G1 X217.275 Y208.5 Z-6.624 F270
G1 X217.41 Y208.425 Z-6.629 F270
G1 X217.55 Y208.358 Z-6.635 F270
G1 X217.692 Y208.298 Z-6.64 F270
G1 X217.838 Y208.245 Z-6.646 F270
G1 X217.986 Y208.2 Z-6.651 F270
G1 X218.136 Y208.163 Z-6.657 F270
G1 X218.288 Y208.133 Z-6.662 F270
G1 X218.442 Y208.111 Z-6.667 F270
G1 X218.596 Y208.097 Z-6.673 F270
G1 X218.751 Y208.091 Z-6.678 F270
G1 X218.905 Y208.093 Z-6.684 F270
G1 X219.06 Y208.103 Z-6.689 F270
G1 X219.214 Y208.121 Z-6.694 F270
G1 X219.366 Y208.146 Z-6.7 F270
G1 X219.518 Y208.18 Z-6.705 F270
G1 X219.667 Y208.221 Z-6.711 F270
G1 X219.814 Y208.27 Z-6.716 F270
G1 X219.958 Y208.326 Z-6.721 F270
G1 X220.099 Y208.39 Z-6.727 F270
G1 X220.237 Y208.46 Z-6.732 F270
G1 X220.371 Y208.538 Z-6.738 F270
G1 X220.501 Y208.622 Z-6.743 F270
G1 X220.626 Y208.713 Z-6.748 F270
G1 X220.746 Y208.811 Z-6.754 F270
G1 X220.862 Y208.914 Z-6.759 F270
G1 X220.971 Y209.023 Z-6.765 F270
G1 X221.075 Y209.138 Z-6.77 F270
G1 X221.173 Y209.258 Z-6.775 F270
G1 X221.265 Y209.382 Z-6.781 F270
G1 X221.35 Y209.512 Z-6.786 F270
G1 X221.429 Y209.645 Z-6.792 F270
G1 X221.501 Y209.782 Z-6.797 F270
G1 X221.565 Y209.923 Z-6.803 F270
G1 X221.622 Y210.067 Z-6.808 F270
G1 X221.672 Y210.214 Z-6.813 F270
G1 X221.714 Y210.363 Z-6.819 F270
G1 X221.748 Y210.514 Z-6.824 F270
G1 X221.775 Y210.666 Z-6.83 F270
G1 X221.793 Y210.82 Z-6.835 F270
G1 X221.804 Y210.975 Z-6.84 F270
G1 X221.807 Y211.129 Z-6.846 F270
G1 X221.802 Y211.284 Z-6.851 F270
G1 X221.789 Y211.438 Z-6.857 F270
G1 X221.768 Y211.592 Z-6.862 F270
G1 X221.739 Y211.744 Z-6.867 F270
G1 X221.702 Y211.894 Z-6.873 F270
G1 X221.658 Y212.043 Z-6.878 F270
G1 X221.606 Y212.189 Z-6.884 F270
G1 X221.547 Y212.332 Z-6.889 F270
G1 X221.481 Y212.472 Z-6.894 F270
G1 X221.407 Y212.608 Z-6.9 F270
G1 X221.327 Y212.74 Z-6.905 F270
G1 X221.24 Y212.868 Z-6.911 F270
G1 X221.146 Y212.991 Z-6.916 F270
G1 X221.046 Y213.11 Z-6.921 F270
G1 X220.941 Y213.223 Z-6.927 F270
G1 X220.829 Y213.33 Z-6.932 F270
G1 X220.712 Y213.432 Z-6.938 F270
G1 X220.591 Y213.528 Z-6.943 F270
G1 X220.464 Y213.617 Z-6.949 F270
G1 X220.333 Y213.699 Z-6.954 F270
G1 X220.198 Y213.775 Z-6.959 F270
G1 X220.059 Y213.844 Z-6.965 F270
G1 X219.917 Y213.905 Z-6.97 F270
G1 X219.772 Y213.959 Z-6.976 F270
G1 X219.624 Y214.006 Z-6.981 F270
G1 X219.475 Y214.045 Z-6.986 F270
G1 X219.323 Y214.076 Z-6.992 F270
G1 X219.17 Y214.1 Z-6.997 F270
G1 X219.016 Y214.115 Z-7.003 F270
G1 X218.861 Y214.123 Z-7.008 F270
G1 X218.706 Y214.122 Z-7.013 F270
G1 X218.552 Y214.114 Z-7.019 F270
G1 X218.398 Y214.098 Z-7.024 F270
G1 X218.245 Y214.074 Z-7.03 F270
G1 X218.093 Y214.042 Z-7.035 F270
G1 X217.944 Y214.002 Z-7.04 F270
G1 X217.796 Y213.955 Z-7.046 F270
G1 X217.651 Y213.9 Z-7.051 F270
G1 X217.51 Y213.838 Z-7.057 F270
G1 X217.371 Y213.768 Z-7.062 F270
G1 X217.236 Y213.692 Z-7.067 F270
G1 X217.106 Y213.609 Z-7.073 F270
G1 X216.98 Y213.519 Z-7.078 F270
G1 X216.858 Y213.423 Z-7.084 F270
G1 X216.742 Y213.321 Z-7.089 F270
G1 X216.631 Y213.213 Z-7.095 F270
G1 X216.526 Y213.099 Z-7.1 F270
G1 X216.427 Y212.98 Z-7.105 F270
G1 X216.334 Y212.857 Z-7.111 F270
G1 X216.247 Y212.728 Z-7.116 F270
G1 X216.167 Y212.595 Z-7.122 F270
G1 X216.094 Y212.459 Z-7.127 F270
G1 X216.029 Y212.319 Z-7.132 F270
G1 X215.97 Y212.175 Z-7.138 F270
G1 X215.919 Y212.029 Z-7.143 F270
G1 X215.875 Y211.881 Z-7.149 F270
G1 X215.84 Y211.73 Z-7.154 F270
G1 X215.811 Y211.578 Z-7.159 F270
G1 X215.791 Y211.424 Z-7.165 F270
G1 X215.779 Y211.27 Z-7.17 F270
G1 X215.775 Y211.115 Z-7.176 F270
G1 X215.778 Y210.96 Z-7.181 F270
G1 X215.79 Y210.806 Z-7.186 F270
G1 X215.809 Y210.652 Z-7.192 F270
G1 X215.836 Y210.5 Z-7.197 F270
G1 X215.871 Y210.349 Z-7.203 F270
G1 X215.914 Y210.2 Z-7.208 F270
G1 X215.964 Y210.054 Z-7.213 F270
G1 X216.022 Y209.91 Z-7.219 F270
G1 X216.087 Y209.77 Z-7.224 F270
G1 X216.159 Y209.633 Z-7.23 F270
G1 X216.239 Y209.5 Z-7.235 F270
G1 X216.324 Y209.371 Z-7.241 F270
G1 X216.417 Y209.247 Z-7.246 F270
G1 X216.515 Y209.127 Z-7.251 F270
G1 X216.62 Y209.013 Z-7.257 F270
G1 X216.73 Y208.904 Z-7.262 F270
G1 X216.846 Y208.802 Z-7.268 F270
G1 X216.967 Y208.705 Z-7.273 F270
G1 X217.093 Y208.614 Z-7.278 F270
G1 X217.223 Y208.531 Z-7.284 F270
G1 X217.357 Y208.453 Z-7.289 F270
G1 X217.495 Y208.383 Z-7.295 F270
G1 X217.637 Y208.32 Z-7.3 F270
; MOVEMENT_CUTTING
G2 X223.368 Y204.492 I-6.76 J-16.321 F930
G1 X290.493 Y137.366 F930
G2 X295.665 Y124.875 I-12.499 J-12.491 F930
G1 Y43 F930
G3 X296.335 I0.335 F930
G1 X296.38 Y132.072 F930
G3 X296.085 Y132.785 I-1.008 F930
G1 X218.785 Y210.085 F930
G3 X218.072 Y210.38 I-0.712 J-0.712 F930
G1 X96.868 Y210.335 F930
G3 Y209.665 J-0.335 F930
G1 X210.877 F930
G2 X217.637 Y208.32 J-17.665 F930
; MOVEMENT_LINK_TRANSITION
G2 X219.216 Y205.802 I-0.981 J-2.37 F930
G3 X220.378 Y203.066 I3.344 J-0.194 F930
; MOVEMENT_CUTTING
G2 X221.19 Y202.314 I-9.501 J-11.066 F930
G1 X288.315 Y135.189 F930
G2 X292.585 Y124.875 I-10.315 J-10.312 F930
G1 Y43 F930
G3 X299.415 I3.415 F930
G1 X299.46 Y133.251 F930
G3 X299.096 Y134.129 I-1.243 F930
G1 X220.129 Y213.096 F930
G3 X219.251 Y213.46 I-0.879 J-0.879 F930
G1 X96.868 Y213.415 F930
G3 Y206.585 J-3.415 F930
G1 X210.877 F930
G2 X220.378 Y203.066 J-14.585 F930
; MOVEMENT_LINK_TRANSITION
G2 X221.072 Y200.288 I-1.613 J-1.879 F930
G3 X221.661 Y197.486 I2.441 J-0.95 F930
; MOVEMENT_CUTTING
G1 X286.136 Y133.011 F930
G2 X289.505 Y124.876 I-8.137 J-8.134 F930
G1 Y43 F930
G3 X302.495 I6.495 F930
G1 X302.54 Y134.526 F930
G3 X302.176 Y135.405 I-1.243 F930
G1 X221.405 Y216.176 F930
G3 X220.526 Y216.54 I-0.879 J-0.879 F930
G1 X96.868 Y216.495 F930
G3 Y203.505 J-6.495 F930
G1 X210.877 F930
G2 X219.012 Y200.136 J-11.505 F930
G1 X221.661 Y197.486 F930
; MOVEMENT_LINK_TRANSITION
G2 X222.214 Y194.72 I-1.798 J-1.798 F930
G3 X222.768 Y191.953 I2.352 J-0.968 F930
; MOVEMENT_CUTTING
G1 X283.922 Y130.798 F930
G2 X286.375 Y124.876 I-5.923 J-5.922 F930
G1 Y43 F930
G3 X305.625 I9.625 F930
G1 Y135.646 F930
G3 X305.149 Y136.795 I-1.625 F930
G1 X222.795 Y219.149 F930
G3 X221.646 Y219.625 I-1.149 J-1.149 F930
G1 X96.868 F930
G3 Y200.375 J-9.625 F930
G1 X210.876 F930
G2 X216.798 Y197.923 I0.001 J-8.375 F930
G1 X222.768 Y191.953 F930
; MOVEMENT_LINK_TRANSITION
G2 X222.803 Y191.777 I-0.115 J-0.115 F930
G3 X222.838 Y191.6 I0.15 J-0.062 F930
; MOVEMENT_FINISH_CUTTING
G1 X283.781 Y130.657 F930
G2 X286.175 Y124.876 I-5.781 J-5.78 F930
G1 Y43 F930
G3 X305.825 I9.825 F930
G1 Y135.646 F930
G3 X305.291 Y136.936 I-1.825 F930
G1 X230.551 Y211.675 F930
G1 X222.936 Y219.291 F930
G3 X221.646 Y219.825 I-1.29 J-1.291 F930
G1 X96.868 F930
G3 Y200.175 J-9.825 F930
G1 X210.876 F930
G2 X216.657 Y197.781 I0.001 J-8.175 F930
G1 X222.838 Y191.6 F930
; MOVEMENT_LEAD_OUT
G1 X222.888 Y191.557 Z-7.29 F930
G1 X222.942 Y191.52 Z-7.279 F930
G1 X223 Y191.489 Z-7.269 F930
G1 X223.054 Y191.466 Z-7.239 F930
G1 X223.11 Y191.449 Z-7.209 F930
G1 X223.168 Y191.437 Z-7.179 F930
G1 X223.238 Y191.43 Z-7.108 F930
G1 X223.308 Y191.431 Z-7.038 F930
G1 X223.353 Y191.436 Z-6.95 F930
G1 X223.397 Y191.444 Z-6.861 F930
G1 X223.428 Y191.451 Z-6.665 F930
; MOVEMENT_CUTTING
G1 Z5 F930
G1 X182.525 Y149.95 F930
; MOVEMENT_PLUNGE
G1 Z3.135 F254
; MOVEMENT_RAMP_HELIX
G1 X182.558 Y149.933 Z2.923 F270
G1 X182.651 Y149.886 Z2.735 F270
G1 X182.724 Y149.852 Z2.665 F270
G1 X182.799 Y149.82 Z2.594 F270
G1 X182.938 Y149.767 Z2.527 F270
G1 X183.014 Y149.741 Z2.513 F270
G1 X183.091 Y149.717 Z2.5 F270
G1 X183.241 Y149.676 Z2.495 F270
G1 X183.393 Y149.643 Z2.489 F270
G1 X183.546 Y149.618 Z2.484 F270
G1 X183.7 Y149.602 Z2.478 F270
G1 X183.855 Y149.592 Z2.473 F270
G1 X184.011 Y149.591 Z2.467 F270
G1 X184.166 Y149.598 Z2.462 F270
G1 X184.321 Y149.613 Z2.457 F270
G1 X184.474 Y149.636 Z2.451 F270
G1 X184.626 Y149.667 Z2.446 F270
G1 X184.777 Y149.706 Z2.44 F270
G1 X184.925 Y149.752 Z2.435 F270
G1 X185.071 Y149.806 Z2.429 F270
G1 X185.214 Y149.867 Z2.424 F270
G1 X185.353 Y149.936 Z2.419 F270
G1 X185.489 Y150.011 Z2.413 F270
G1 X185.62 Y150.094 Z2.408 F270
G1 X185.747 Y150.183 Z2.402 F270
G1 X185.87 Y150.279 Z2.397 F270
G1 X185.987 Y150.38 Z2.392 F270
G1 X186.099 Y150.488 Z2.386 F270
G1 X186.205 Y150.601 Z2.381 F270
G1 X186.306 Y150.72 Z2.375 F270
G1 X186.4 Y150.844 Z2.37 F270
G1 X186.487 Y150.972 Z2.364 F270
G1 X186.568 Y151.104 Z2.359 F270
G1 X186.642 Y151.241 Z2.354 F270
G1 X186.709 Y151.381 Z2.348 F270
G1 X186.768 Y151.525 Z2.343 F270
G1 X186.82 Y151.671 Z2.337 F270
G1 X186.865 Y151.82 Z2.332 F270
G1 X186.901 Y151.971 Z2.326 F270
G1 X186.93 Y152.124 Z2.321 F270
G1 X186.951 Y152.278 Z2.316 F270
G1 X186.964 Y152.432 Z2.31 F270
G1 X186.969 Y152.588 Z2.305 F270
G1 X186.966 Y152.743 Z2.299 F270
G1 X186.955 Y152.898 Z2.294 F270
G1 X186.936 Y153.052 Z2.288 F270
G1 X186.909 Y153.205 Z2.283 F270
G1 X186.875 Y153.356 Z2.278 F270
G1 X186.832 Y153.506 Z2.272 F270
G1 X186.782 Y153.653 Z2.267 F270
G1 X186.724 Y153.797 Z2.261 F270
G1 X186.659 Y153.938 Z2.256 F270
G1 X186.587 Y154.076 Z2.25 F270
G1 X186.508 Y154.209 Z2.245 F270
G1 X186.422 Y154.339 Z2.24 F270
G1 X186.33 Y154.464 Z2.234 F270
G1 X186.231 Y154.584 Z2.229 F270
G1 X186.127 Y154.698 Z2.223 F270
G1 X186.016 Y154.807 Z2.218 F270
G1 X185.9 Y154.911 Z2.212 F270
G1 X185.779 Y155.008 Z2.207 F270
G1 X185.653 Y155.099 Z2.202 F270
G1 X185.522 Y155.183 Z2.196 F270
G1 X185.388 Y155.26 Z2.191 F270
G1 X185.249 Y155.331 Z2.185 F270
G1 X185.107 Y155.394 Z2.18 F270
G1 X184.962 Y155.449 Z2.175 F270
G1 X184.815 Y155.498 Z2.169 F270
G1 X184.665 Y155.538 Z2.164 F270
G1 X184.513 Y155.571 Z2.158 F270
G1 X184.359 Y155.596 Z2.153 F270
G1 X184.205 Y155.613 Z2.147 F270
G1 X184.05 Y155.622 Z2.142 F270
G1 X183.895 Y155.623 Z2.137 F270
G1 X183.74 Y155.616 Z2.131 F270
G1 X183.585 Y155.601 Z2.126 F270
G1 X183.431 Y155.578 Z2.12 F270
G1 X183.279 Y155.547 Z2.115 F270
G1 X183.129 Y155.509 Z2.109 F270
G1 X182.98 Y155.462 Z2.104 F270
G1 X182.835 Y155.409 Z2.099 F270
G1 X182.692 Y155.347 Z2.093 F270
G1 X182.553 Y155.279 Z2.088 F270
G1 X182.417 Y155.203 Z2.082 F270
G1 X182.285 Y155.121 Z2.077 F270
G1 X182.158 Y155.031 Z2.071 F270
G1 X182.036 Y154.936 Z2.066 F270
G1 X181.918 Y154.834 Z2.061 F270
G1 X181.806 Y154.726 Z2.055 F270
G1 X181.7 Y154.613 Z2.05 F270
G1 X181.6 Y154.494 Z2.044 F270
G1 X181.506 Y154.371 Z2.039 F270
G1 X181.418 Y154.242 Z2.033 F270
G1 X181.337 Y154.11 Z2.028 F270
G1 X181.264 Y153.973 Z2.023 F270
G1 X181.197 Y153.833 Z2.017 F270
G1 X181.137 Y153.689 Z2.012 F270
G1 X181.085 Y153.543 Z2.006 F270
G1 X181.041 Y153.394 Z2.001 F270
G1 X181.004 Y153.243 Z1.996 F270
G1 X180.976 Y153.091 Z1.99 F270
G1 X180.955 Y152.937 Z1.985 F270
G1 X180.942 Y152.782 Z1.979 F270
G1 X180.937 Y152.627 Z1.974 F270
G1 X180.94 Y152.471 Z1.968 F270
G1 X180.951 Y152.317 Z1.963 F270
G1 X180.97 Y152.162 Z1.958 F270
G1 X180.996 Y152.009 Z1.952 F270
G1 X181.031 Y151.858 Z1.947 F270
G1 X181.073 Y151.709 Z1.941 F270
G1 X181.124 Y151.562 Z1.936 F270
G1 X181.181 Y151.417 Z1.93 F270
G1 X181.246 Y151.276 Z1.925 F270
G1 X181.318 Y151.139 Z1.92 F270
G1 X181.397 Y151.005 Z1.914 F270
G1 X181.483 Y150.876 Z1.909 F270
G1 X181.576 Y150.751 Z1.903 F270
G1 X181.674 Y150.631 Z1.898 F270
G1 X181.779 Y150.516 Z1.892 F270
G1 X181.89 Y150.407 Z1.887 F270
G1 X182.006 Y150.304 Z1.882 F270
G1 X182.127 Y150.206 Z1.876 F270
G1 X182.253 Y150.116 Z1.871 F270
G1 X182.383 Y150.031 Z1.865 F270
G1 X182.518 Y149.954 Z1.86 F270
G1 X182.656 Y149.884 Z1.854 F270
G1 X182.798 Y149.821 Z1.849 F270
G1 X182.943 Y149.765 Z1.844 F270
G1 X183.091 Y149.717 Z1.838 F270
G1 X183.241 Y149.676 Z1.833 F270
G1 X183.393 Y149.643 Z1.827 F270
G1 X183.546 Y149.618 Z1.822 F270
G1 X183.7 Y149.601 Z1.816 F270
G1 X183.856 Y149.592 Z1.811 F270
G1 X184.011 Y149.591 Z1.806 F270
G1 X184.166 Y149.598 Z1.8 F270
G1 X184.321 Y149.613 Z1.795 F270
G1 X184.474 Y149.636 Z1.789 F270
G1 X184.626 Y149.667 Z1.784 F270
G1 X184.777 Y149.706 Z1.779 F270
G1 X184.925 Y149.752 Z1.773 F270
G1 X185.071 Y149.806 Z1.768 F270
G1 X185.214 Y149.867 Z1.762 F270
G1 X185.353 Y149.936 Z1.757 F270
G1 X185.489 Y150.011 Z1.751 F270
G1 X185.62 Y150.094 Z1.746 F270
G1 X185.747 Y150.183 Z1.741 F270
G1 X185.87 Y150.279 Z1.735 F270
G1 X185.987 Y150.38 Z1.73 F270
G1 X186.099 Y150.488 Z1.724 F270
G1 X186.205 Y150.601 Z1.719 F270
G1 X186.306 Y150.72 Z1.713 F270
G1 X186.4 Y150.844 Z1.708 F270
G1 X186.487 Y150.972 Z1.703 F270
G1 X186.568 Y151.105 Z1.697 F270
G1 X186.642 Y151.241 Z1.692 F270
G1 X186.709 Y151.381 Z1.686 F270
G1 X186.768 Y151.525 Z1.681 F270
G1 X186.82 Y151.671 Z1.675 F270
G1 X186.865 Y151.82 Z1.67 F270
G1 X186.901 Y151.971 Z1.665 F270
G1 X186.93 Y152.124 Z1.659 F270
G1 X186.951 Y152.278 Z1.654 F270
G1 X186.964 Y152.432 Z1.648 F270
G1 X186.969 Y152.588 Z1.643 F270
G1 X186.966 Y152.743 Z1.637 F270
G1 X186.955 Y152.898 Z1.632 F270
G1 X186.936 Y153.052 Z1.627 F270
G1 X186.909 Y153.205 Z1.621 F270
G1 X186.874 Y153.356 Z1.616 F270
G1 X186.832 Y153.506 Z1.61 F270
G1 X186.782 Y153.653 Z1.605 F270
G1 X186.724 Y153.797 Z1.6 F270
G1 X186.659 Y153.938 Z1.594 F270
G1 X186.587 Y154.076 Z1.589 F270
G1 X186.508 Y154.209 Z1.583 F270
G1 X186.422 Y154.339 Z1.578 F270
G1 X186.33 Y154.464 Z1.572 F270
G1 X186.231 Y154.584 Z1.567 F270
G1 X186.126 Y154.698 Z1.562 F270
G1 X186.016 Y154.807 Z1.556 F270
G1 X185.9 Y154.911 Z1.551 F270
G1 X185.779 Y155.008 Z1.545 F270
G1 X185.653 Y155.099 Z1.54 F270
G1 X185.522 Y155.183 Z1.534 F270
G1 X185.388 Y155.26 Z1.529 F270
G1 X185.249 Y155.331 Z1.524 F270
G1 X185.107 Y155.394 Z1.518 F270
G1 X184.962 Y155.45 Z1.513 F270
G1 X184.815 Y155.498 Z1.507 F270
G1 X184.665 Y155.538 Z1.502 F270
G1 X184.513 Y155.571 Z1.496 F270
G1 X184.359 Y155.596 Z1.491 F270
G1 X184.205 Y155.613 Z1.486 F270
G1 X184.05 Y155.622 Z1.48 F270
G1 X183.895 Y155.623 Z1.475 F270
G1 X183.739 Y155.616 Z1.469 F270
G1 X183.585 Y155.601 Z1.464 F270
G1 X183.431 Y155.578 Z1.458 F270
G1 X183.279 Y155.547 Z1.453 F270
G1 X183.129 Y155.509 Z1.448 F270
G1 X182.98 Y155.462 Z1.442 F270
G1 X182.835 Y155.409 Z1.437 F270
G1 X182.692 Y155.347 Z1.431 F270
G1 X182.552 Y155.279 Z1.426 F270
G1 X182.417 Y155.203 Z1.42 F270
G1 X182.285 Y155.121 Z1.415 F270
G1 X182.158 Y155.031 Z1.41 F270
G1 X182.036 Y154.936 Z1.404 F270
G1 X181.918 Y154.834 Z1.399 F270
G1 X181.806 Y154.726 Z1.393 F270
G1 X181.7 Y154.613 Z1.388 F270
G1 X181.6 Y154.494 Z1.383 F270
G1 X181.506 Y154.371 Z1.377 F270
G1 X181.418 Y154.242 Z1.372 F270
G1 X181.337 Y154.11 Z1.366 F270
G1 X181.264 Y153.973 Z1.361 F270
G1 X181.197 Y153.833 Z1.355 F270
G1 X181.137 Y153.689 Z1.35 F270
G1 X181.085 Y153.543 Z1.345 F270
G1 X181.041 Y153.394 Z1.339 F270
G1 X181.004 Y153.243 Z1.334 F270
G1 X180.976 Y153.091 Z1.328 F270
G1 X180.955 Y152.937 Z1.323 F270
G1 X180.942 Y152.782 Z1.317 F270
G1 X180.937 Y152.627 Z1.312 F270
G1 X180.94 Y152.471 Z1.307 F270
G1 X180.951 Y152.316 Z1.301 F270
G1 X180.97 Y152.162 Z1.296 F270
G1 X180.996 Y152.009 Z1.29 F270
G1 X181.031 Y151.858 Z1.285 F270
G1 X181.074 Y151.709 Z1.279 F270
G1 X181.124 Y151.561 Z1.274 F270
G1 X181.181 Y151.417 Z1.269 F270
G1 X181.246 Y151.276 Z1.263 F270
G1 X181.318 Y151.139 Z1.258 F270
G1 X181.397 Y151.005 Z1.252 F270
G1 X181.483 Y150.875 Z1.247 F270
G1 X181.576 Y150.751 Z1.241 F270
G1 X181.674 Y150.631 Z1.236 F270
G1 X181.779 Y150.516 Z1.231 F270
G1 X181.89 Y150.407 Z1.225 F270
G1 X182.006 Y150.304 Z1.22 F270
G1 X182.127 Y150.206 Z1.214 F270
G1 X182.253 Y150.116 Z1.209 F270
G1 X182.383 Y150.031 Z1.204 F270
G1 X182.518 Y149.954 Z1.198 F270
G1 X182.656 Y149.884 Z1.193 F270
G1 X182.798 Y149.821 Z1.187 F270
G1 X182.943 Y149.765 Z1.182 F270
G1 X183.091 Y149.717 Z1.176 F270
G1 X183.241 Y149.676 Z1.171 F270
G1 X183.393 Y149.643 Z1.166 F270
G1 X183.546 Y149.618 Z1.16 F270
G1 X183.701 Y149.601 Z1.155 F270
G1 X183.856 Y149.592 Z1.149 F270
G1 X184.011 Y149.591 Z1.144 F270
G1 X184.166 Y149.598 Z1.138 F270
G1 X184.321 Y149.613 Z1.133 F270
G1 X184.474 Y149.636 Z1.128 F270
G1 X184.627 Y149.667 Z1.122 F270
G1 X184.777 Y149.706 Z1.117 F270
G1 X184.925 Y149.752 Z1.111 F270
G1 X185.071 Y149.806 Z1.106 F270
G1 X185.214 Y149.867 Z1.1 F270
G1 X185.353 Y149.936 Z1.095 F270
G1 X185.489 Y150.011 Z1.09 F270
G1 X185.62 Y150.094 Z1.084 F270
G1 X185.748 Y150.183 Z1.079 F270
G1 X185.87 Y150.279 Z1.073 F270
G1 X185.987 Y150.38 Z1.068 F270
G1 X186.099 Y150.488 Z1.062 F270
G1 X186.205 Y150.601 Z1.057 F270
G1 X186.306 Y150.72 Z1.052 F270
G1 X186.4 Y150.844 Z1.046 F270
G1 X186.487 Y150.972 Z1.041 F270
G1 X186.568 Y151.105 Z1.035 F270
G1 X186.642 Y151.241 Z1.03 F270
G1 X186.709 Y151.381 Z1.024 F270
G1 X186.768 Y151.525 Z1.019 F270
G1 X186.82 Y151.671 Z1.014 F270
G1 X186.865 Y151.82 Z1.008 F270
G1 X186.901 Y151.971 Z1.003 F270
G1 X186.93 Y152.124 Z0.997 F270
G1 X186.951 Y152.278 Z0.992 F270
G1 X186.964 Y152.432 Z0.987 F270
G1 X186.969 Y152.588 Z0.981 F270
G1 X186.966 Y152.743 Z0.976 F270
G1 X186.955 Y152.898 Z0.97 F270
G1 X186.936 Y153.052 Z0.965 F270
G1 X186.909 Y153.205 Z0.959 F270
G1 X186.874 Y153.356 Z0.954 F270
G1 X186.832 Y153.506 Z0.949 F270
G1 X186.782 Y153.653 Z0.943 F270
G1 X186.724 Y153.797 Z0.938 F270
G1 X186.659 Y153.938 Z0.932 F270
G1 X186.587 Y154.076 Z0.927 F270
G1 X186.508 Y154.209 Z0.921 F270
G1 X186.422 Y154.339 Z0.916 F270
G1 X186.33 Y154.464 Z0.911 F270
G1 X186.231 Y154.584 Z0.905 F270
G1 X186.126 Y154.698 Z0.9 F270
G1 X186.016 Y154.807 Z0.894 F270
G1 X185.9 Y154.911 Z0.889 F270
G1 X185.779 Y155.008 Z0.883 F270
G1 X185.653 Y155.099 Z0.878 F270
G1 X185.522 Y155.183 Z0.873 F270
G1 X185.388 Y155.26 Z0.867 F270
G1 X185.249 Y155.331 Z0.862 F270
G1 X185.107 Y155.394 Z0.856 F270
G1 X184.962 Y155.45 Z0.851 F270
G1 X184.814 Y155.498 Z0.845 F270
G1 X184.665 Y155.538 Z0.84 F270
G1 X184.513 Y155.571 Z0.835 F270
G1 X184.359 Y155.596 Z0.829 F270
G1 X184.205 Y155.613 Z0.824 F270
G1 X184.05 Y155.622 Z0.818 F270
G1 X183.895 Y155.623 Z0.813 F270
G1 X183.739 Y155.616 Z0.808 F270
G1 X183.585 Y155.601 Z0.802 F270
G1 X183.431 Y155.578 Z0.797 F270
G1 X183.279 Y155.547 Z0.791 F270
G1 X183.129 Y155.509 Z0.786 F270
G1 X182.98 Y155.462 Z0.78 F270
G1 X182.835 Y155.408 Z0.775 F270
G1 X182.692 Y155.347 Z0.77 F270
G1 X182.552 Y155.279 Z0.764 F270
G1 X182.417 Y155.203 Z0.759 F270
G1 X182.285 Y155.121 Z0.753 F270
G1 X182.158 Y155.031 Z0.748 F270
G1 X182.036 Y154.936 Z0.742 F270
G1 X181.918 Y154.834 Z0.737 F270
G1 X181.806 Y154.726 Z0.732 F270
G1 X181.7 Y154.613 Z0.726 F270
G1 X181.6 Y154.494 Z0.721 F270
G1 X181.506 Y154.371 Z0.715 F270
G1 X181.418 Y154.242 Z0.71 F270
G1 X181.337 Y154.11 Z0.704 F270
G1 X181.264 Y153.973 Z0.699 F270
G1 X181.197 Y153.833 Z0.694 F270
G1 X181.137 Y153.689 Z0.688 F270
G1 X181.085 Y153.543 Z0.683 F270
G1 X181.041 Y153.394 Z0.677 F270
G1 X181.004 Y153.243 Z0.672 F270
G1 X180.976 Y153.091 Z0.666 F270
G1 X180.955 Y152.937 Z0.661 F270
G1 X180.942 Y152.782 Z0.656 F270
G1 X180.937 Y152.627 Z0.65 F270
G1 X180.94 Y152.471 Z0.645 F270
G1 X180.951 Y152.316 Z0.639 F270
G1 X180.97 Y152.162 Z0.634 F270
G1 X180.996 Y152.009 Z0.628 F270
G1 X181.031 Y151.858 Z0.623 F270
G1 X181.074 Y151.708 Z0.618 F270
G1 X181.124 Y151.561 Z0.612 F270
G1 X181.181 Y151.417 Z0.607 F270
G1 X181.246 Y151.276 Z0.601 F270
G1 X181.318 Y151.139 Z0.596 F270
G1 X181.397 Y151.005 Z0.591 F270
G1 X181.483 Y150.875 Z0.585 F270
G1 X181.576 Y150.751 Z0.58 F270
G1 X181.674 Y150.631 Z0.574 F270
G1 X181.779 Y150.516 Z0.569 F270
G1 X181.89 Y150.407 Z0.563 F270
G1 X182.006 Y150.304 Z0.558 F270
G1 X182.127 Y150.206 Z0.553 F270
G1 X182.253 Y150.116 Z0.547 F270
G1 X182.383 Y150.031 Z0.542 F270
G1 X182.518 Y149.954 Z0.536 F270
G1 X182.657 Y149.884 Z0.531 F270
G1 X182.798 Y149.821 Z0.525 F270
G1 X182.943 Y149.765 Z0.52 F270
G1 X183.091 Y149.717 Z0.515 F270
G1 X183.241 Y149.676 Z0.509 F270
G1 X183.393 Y149.643 Z0.504 F270
G1 X183.546 Y149.618 Z0.498 F270
G1 X183.701 Y149.601 Z0.493 F270
G1 X183.856 Y149.592 Z0.487 F270
G1 X184.011 Y149.591 Z0.482 F270
G1 X184.166 Y149.598 Z0.477 F270
G1 X184.321 Y149.613 Z0.471 F270
G1 X184.474 Y149.636 Z0.466 F270
G1 X184.627 Y149.667 Z0.46 F270
G1 X184.777 Y149.706 Z0.455 F270
G1 X184.925 Y149.752 Z0.449 F270
G1 X185.071 Y149.806 Z0.444 F270
G1 X185.214 Y149.867 Z0.439 F270
G1 X185.353 Y149.936 Z0.433 F270
G1 X185.489 Y150.011 Z0.428 F270
G1 X185.62 Y150.094 Z0.422 F270
G1 X185.748 Y150.183 Z0.417 F270
G1 X185.87 Y150.279 Z0.412 F270
G1 X185.987 Y150.38 Z0.406 F270
G1 X186.099 Y150.488 Z0.401 F270
G1 X186.205 Y150.601 Z0.395 F270
G1 X186.306 Y150.72 Z0.39 F270
G1 X186.4 Y150.844 Z0.384 F270
G1 X186.487 Y150.972 Z0.379 F270
G1 X186.568 Y151.105 Z0.374 F270
G1 X186.642 Y151.241 Z0.368 F270
G1 X186.709 Y151.381 Z0.363 F270
G1 X186.768 Y151.525 Z0.357 F270
G1 X186.82 Y151.671 Z0.352 F270
G1 X186.865 Y151.82 Z0.346 F270
G1 X186.901 Y151.971 Z0.341 F270
G1 X186.93 Y152.124 Z0.336 F270
G1 X186.951 Y152.278 Z0.33 F270
G1 X186.964 Y152.432 Z0.325 F270
G1 X186.969 Y152.588 Z0.319 F270
G1 X186.966 Y152.743 Z0.314 F270
G1 X186.955 Y152.898 Z0.308 F270
G1 X186.936 Y153.052 Z0.303 F270
G1 X186.909 Y153.205 Z0.298 F270
G1 X186.874 Y153.356 Z0.292 F270
G1 X186.832 Y153.506 Z0.287 F270
G1 X186.782 Y153.653 Z0.281 F270
G1 X186.724 Y153.797 Z0.276 F270
G1 X186.659 Y153.938 Z0.27 F270
G1 X186.587 Y154.076 Z0.265 F270
G1 X186.508 Y154.21 Z0.26 F270
G1 X186.422 Y154.339 Z0.254 F270
G1 X186.33 Y154.464 Z0.249 F270
G1 X186.231 Y154.584 Z0.243 F270
G1 X186.126 Y154.698 Z0.238 F270
G1 X186.016 Y154.807 Z0.232 F270
G1 X185.9 Y154.911 Z0.227 F270
G1 X185.779 Y155.008 Z0.222 F270
G1 X185.653 Y155.099 Z0.216 F270
G1 X185.522 Y155.183 Z0.211 F270
G1 X185.387 Y155.26 Z0.205 F270
G1 X185.249 Y155.331 Z0.2 F270
G1 X185.107 Y155.394 Z0.195 F270
G1 X184.962 Y155.45 Z0.189 F270
G1 X184.814 Y155.498 Z0.184 F270
G1 X184.664 Y155.538 Z0.178 F270
G1 X184.513 Y155.571 Z0.173 F270
G1 X184.359 Y155.596 Z0.167 F270
G1 X184.205 Y155.613 Z0.162 F270
G1 X184.05 Y155.622 Z0.157 F270
G1 X183.895 Y155.623 Z0.151 F270
G1 X183.739 Y155.616 Z0.146 F270
G1 X183.585 Y155.601 Z0.14 F270
G1 X183.431 Y155.578 Z0.135 F270
G1 X183.279 Y155.547 Z0.129 F270
G1 X183.128 Y155.509 Z0.124 F270
G1 X182.98 Y155.462 Z0.119 F270
G1 X182.835 Y155.408 Z0.113 F270
G1 X182.692 Y155.347 Z0.108 F270
G1 X182.552 Y155.279 Z0.102 F270
G1 X182.417 Y155.203 Z0.097 F270
G1 X182.285 Y155.12 Z0.091 F270
G1 X182.158 Y155.031 Z0.086 F270
G1 X182.036 Y154.936 Z0.081 F270
G1 X181.918 Y154.834 Z0.075 F270
G1 X181.806 Y154.726 Z0.07 F270
G1 X181.7 Y154.613 Z0.064 F270
G1 X181.6 Y154.494 Z0.059 F270
G1 X181.506 Y154.371 Z0.053 F270
G1 X181.418 Y154.242 Z0.048 F270
G1 X181.337 Y154.11 Z0.043 F270
G1 X181.264 Y153.973 Z0.037 F270
G1 X181.197 Y153.833 Z0.032 F270
G1 X181.137 Y153.689 Z0.026 F270
G1 X181.085 Y153.543 Z0.021 F270
G1 X181.041 Y153.394 Z0.016 F270
G1 X181.004 Y153.243 Z0.01 F270
G1 X180.976 Y153.091 Z0.005 F270
G1 X180.955 Y152.937 Z-0.001 F270
G1 X180.942 Y152.782 Z-0.006 F270
G1 X180.937 Y152.627 Z-0.012 F270
G1 X180.94 Y152.471 Z-0.017 F270
G1 X180.951 Y152.316 Z-0.022 F270
G1 X180.97 Y152.162 Z-0.028 F270
G1 X180.996 Y152.009 Z-0.033 F270
G1 X181.031 Y151.858 Z-0.039 F270
G1 X181.074 Y151.708 Z-0.044 F270
G1 X181.124 Y151.561 Z-0.05 F270
G1 X181.181 Y151.417 Z-0.055 F270
G1 X181.246 Y151.276 Z-0.06 F270
G1 X181.318 Y151.138 Z-0.066 F270
G1 X181.397 Y151.005 Z-0.071 F270
G1 X181.483 Y150.875 Z-0.077 F270
G1 X181.576 Y150.751 Z-0.082 F270
G1 X181.674 Y150.631 Z-0.088 F270
G1 X181.779 Y150.516 Z-0.093 F270
G1 X181.89 Y150.407 Z-0.098 F270
G1 X182.006 Y150.304 Z-0.104 F270
G1 X182.127 Y150.206 Z-0.109 F270
G1 X182.253 Y150.116 Z-0.115 F270
G1 X182.383 Y150.031 Z-0.12 F270
G1 X182.518 Y149.954 Z-0.126 F270
G1 X182.657 Y149.884 Z-0.131 F270
G1 X182.798 Y149.821 Z-0.136 F270
G1 X182.943 Y149.765 Z-0.142 F270
G1 X183.091 Y149.717 Z-0.147 F270
G1 X183.241 Y149.676 Z-0.153 F270
G1 X183.393 Y149.643 Z-0.158 F270
G1 X183.546 Y149.618 Z-0.164 F270
G1 X183.701 Y149.601 Z-0.169 F270
G1 X183.856 Y149.592 Z-0.174 F270
G1 X184.011 Y149.591 Z-0.18 F270
G1 X184.166 Y149.598 Z-0.185 F270
G1 X184.321 Y149.613 Z-0.191 F270
G1 X184.474 Y149.636 Z-0.196 F270
G1 X184.627 Y149.667 Z-0.201 F270
G1 X184.777 Y149.706 Z-0.207 F270
G1 X184.925 Y149.752 Z-0.212 F270
G1 X185.071 Y149.806 Z-0.218 F270
G1 X185.214 Y149.867 Z-0.223 F270
G1 X185.353 Y149.936 Z-0.229 F270
G1 X185.489 Y150.011 Z-0.234 F270
G1 X185.62 Y150.094 Z-0.239 F270
G1 X185.748 Y150.183 Z-0.245 F270
G1 X185.87 Y150.279 Z-0.25 F270
G1 X185.987 Y150.38 Z-0.256 F270
G1 X186.099 Y150.488 Z-0.261 F270
G1 X186.206 Y150.601 Z-0.267 F270
G1 X186.306 Y150.72 Z-0.272 F270
G1 X186.4 Y150.844 Z-0.277 F270
G1 X186.487 Y150.972 Z-0.283 F270
G1 X186.568 Y151.105 Z-0.288 F270
G1 X186.642 Y151.241 Z-0.294 F270
G1 X186.709 Y151.382 Z-0.299 F270
G1 X186.768 Y151.525 Z-0.305 F270
G1 X186.82 Y151.671 Z-0.31 F270
G1 X186.865 Y151.82 Z-0.315 F270
G1 X186.901 Y151.971 Z-0.321 F270
G1 X186.93 Y152.124 Z-0.326 F270
G1 X186.951 Y152.278 Z-0.332 F270
G1 X186.964 Y152.433 Z-0.337 F270
G1 X186.969 Y152.588 Z-0.343 F270
G1 X186.966 Y152.743 Z-0.348 F270
G1 X186.955 Y152.898 Z-0.353 F270
G1 X186.936 Y153.052 Z-0.359 F270
G1 X186.909 Y153.205 Z-0.364 F270
G1 X186.874 Y153.357 Z-0.37 F270
G1 X186.832 Y153.506 Z-0.375 F270
G1 X186.782 Y153.653 Z-0.38 F270
G1 X186.724 Y153.797 Z-0.386 F270
G1 X186.659 Y153.938 Z-0.391 F270
G1 X186.587 Y154.076 Z-0.397 F270
G1 X186.508 Y154.21 Z-0.402 F270
G1 X186.422 Y154.339 Z-0.408 F270
G1 X186.33 Y154.464 Z-0.413 F270
G1 X186.231 Y154.584 Z-0.418 F270
G1 X186.126 Y154.698 Z-0.424 F270
G1 X186.016 Y154.808 Z-0.429 F270
G1 X185.9 Y154.911 Z-0.435 F270
G1 X185.779 Y155.008 Z-0.44 F270
G1 X185.653 Y155.099 Z-0.446 F270
G1 X185.522 Y155.183 Z-0.451 F270
G1 X185.387 Y155.26 Z-0.456 F270
G1 X185.249 Y155.331 Z-0.462 F270
G1 X185.107 Y155.394 Z-0.467 F270
G1 X184.962 Y155.45 Z-0.473 F270
G1 X184.814 Y155.498 Z-0.478 F270
G1 X184.664 Y155.538 Z-0.484 F270
G1 X184.513 Y155.571 Z-0.489 F270
G1 X184.359 Y155.596 Z-0.494 F270
G1 X184.205 Y155.613 Z-0.5 F270
G1 X184.05 Y155.622 Z-0.505 F270
G1 X183.895 Y155.623 Z-0.511 F270
G1 X183.739 Y155.616 Z-0.516 F270
G1 X183.585 Y155.601 Z-0.522 F270
G1 X183.431 Y155.578 Z-0.527 F270
G1 X183.279 Y155.547 Z-0.532 F270
G1 X183.128 Y155.509 Z-0.538 F270
G1 X182.98 Y155.462 Z-0.543 F270
G1 X182.834 Y155.408 Z-0.549 F270
G1 X182.692 Y155.347 Z-0.554 F270
G1 X182.552 Y155.279 Z-0.56 F270
G1 X182.417 Y155.203 Z-0.565 F270
G1 X182.285 Y155.12 Z-0.57 F270
G1 X182.158 Y155.031 Z-0.576 F270
G1 X182.036 Y154.936 Z-0.581 F270
G1 X181.918 Y154.834 Z-0.587 F270
G1 X181.806 Y154.726 Z-0.592 F270
G1 X181.7 Y154.613 Z-0.597 F270
G1 X181.6 Y154.494 Z-0.603 F270
G1 X181.506 Y154.371 Z-0.608 F270
G1 X181.418 Y154.242 Z-0.614 F270
G1 X181.337 Y154.11 Z-0.619 F270
G1 X181.264 Y153.973 Z-0.625 F270
G1 X181.197 Y153.833 Z-0.63 F270
G1 X181.137 Y153.689 Z-0.635 F270
G1 X181.085 Y153.543 Z-0.641 F270
G1 X181.041 Y153.394 Z-0.646 F270
G1 X181.004 Y153.243 Z-0.652 F270
G1 X180.976 Y153.091 Z-0.657 F270
G1 X180.955 Y152.937 Z-0.663 F270
G1 X180.942 Y152.782 Z-0.668 F270
G1 X180.937 Y152.627 Z-0.673 F270
G1 X180.94 Y152.471 Z-0.679 F270
G1 X180.951 Y152.316 Z-0.684 F270
G1 X180.97 Y152.162 Z-0.69 F270
G1 X180.996 Y152.009 Z-0.695 F270
G1 X181.031 Y151.858 Z-0.701 F270
G1 X181.074 Y151.708 Z-0.706 F270
G1 X181.124 Y151.561 Z-0.711 F270
G1 X181.181 Y151.417 Z-0.717 F270
G1 X181.246 Y151.276 Z-0.722 F270
G1 X181.318 Y151.138 Z-0.728 F270
G1 X181.397 Y151.005 Z-0.733 F270
G1 X181.483 Y150.875 Z-0.739 F270
G1 X181.576 Y150.751 Z-0.744 F270
G1 X181.674 Y150.631 Z-0.749 F270
G1 X181.779 Y150.516 Z-0.755 F270
G1 X181.89 Y150.407 Z-0.76 F270
G1 X182.006 Y150.304 Z-0.766 F270
G1 X182.127 Y150.206 Z-0.771 F270
G1 X182.253 Y150.116 Z-0.776 F270
G1 X182.383 Y150.031 Z-0.782 F270
G1 X182.518 Y149.954 Z-0.787 F270
G1 X182.657 Y149.884 Z-0.793 F270
G1 X182.799 Y149.821 Z-0.798 F270
G1 X182.944 Y149.765 Z-0.804 F270
G1 X183.091 Y149.717 Z-0.809 F270
G1 X183.241 Y149.676 Z-0.814 F270
G1 X183.393 Y149.643 Z-0.82 F270
G1 X183.546 Y149.618 Z-0.825 F270
G1 X183.701 Y149.601 Z-0.831 F270
G1 X183.856 Y149.592 Z-0.836 F270
G1 X184.011 Y149.591 Z-0.842 F270
G1 X184.166 Y149.598 Z-0.847 F270
G1 X184.321 Y149.613 Z-0.852 F270
G1 X184.474 Y149.636 Z-0.858 F270
G1 X184.627 Y149.667 Z-0.863 F270
G1 X184.777 Y149.706 Z-0.869 F270
G1 X184.925 Y149.752 Z-0.874 F270
G1 X185.071 Y149.806 Z-0.88 F270
G1 X185.214 Y149.867 Z-0.885 F270
G1 X185.353 Y149.936 Z-0.89 F270
G1 X185.489 Y150.011 Z-0.896 F270
G1 X185.62 Y150.094 Z-0.901 F270
G1 X185.748 Y150.183 Z-0.907 F270
G1 X185.87 Y150.279 Z-0.912 F270
G1 X185.987 Y150.38 Z-0.918 F270
G1 X186.099 Y150.488 Z-0.923 F270
G1 X186.206 Y150.601 Z-0.928 F270
G1 X186.306 Y150.72 Z-0.934 F270
G1 X186.4 Y150.844 Z-0.939 F270
G1 X186.487 Y150.972 Z-0.945 F270
G1 X186.568 Y151.105 Z-0.95 F270
G1 X186.642 Y151.241 Z-0.956 F270
G1 X186.709 Y151.382 Z-0.961 F270
G1 X186.768 Y151.525 Z-0.966 F270
G1 X186.82 Y151.671 Z-0.972 F270
G1 X186.865 Y151.82 Z-0.977 F270
G1 X186.901 Y151.971 Z-0.983 F270
G1 X186.93 Y152.124 Z-0.988 F270
G1 X186.951 Y152.278 Z-0.993 F270
G1 X186.964 Y152.433 Z-0.999 F270
G1 X186.969 Y152.588 Z-1.004 F270
G1 X186.966 Y152.743 Z-1.01 F270
G1 X186.955 Y152.898 Z-1.015 F270
G1 X186.936 Y153.052 Z-1.021 F270
G1 X186.909 Y153.205 Z-1.026 F270
G1 X186.874 Y153.357 Z-1.031 F270
G1 X186.832 Y153.506 Z-1.037 F270
G1 X186.782 Y153.653 Z-1.042 F270
G1 X186.724 Y153.797 Z-1.048 F270
G1 X186.659 Y153.938 Z-1.053 F270
G1 X186.587 Y154.076 Z-1.059 F270
G1 X186.508 Y154.21 Z-1.064 F270
G1 X186.422 Y154.339 Z-1.069 F270
G1 X186.33 Y154.464 Z-1.075 F270
G1 X186.231 Y154.584 Z-1.08 F270
G1 X186.126 Y154.698 Z-1.086 F270
G1 X186.016 Y154.808 Z-1.091 F270
G1 X185.9 Y154.911 Z-1.097 F270
G1 X185.779 Y155.008 Z-1.102 F270
G1 X185.653 Y155.099 Z-1.107 F270
G1 X185.522 Y155.183 Z-1.113 F270
G1 X185.387 Y155.26 Z-1.118 F270
G1 X185.249 Y155.331 Z-1.124 F270
G1 X185.107 Y155.394 Z-1.129 F270
G1 X184.962 Y155.45 Z-1.135 F270
G1 X184.814 Y155.498 Z-1.14 F270
G1 X184.664 Y155.538 Z-1.145 F270
G1 X184.513 Y155.571 Z-1.151 F270
G1 X184.359 Y155.596 Z-1.156 F270
G1 X184.205 Y155.613 Z-1.162 F270
G1 X184.05 Y155.622 Z-1.167 F270
G1 X183.894 Y155.623 Z-1.172 F270
G1 X183.739 Y155.616 Z-1.178 F270
G1 X183.585 Y155.601 Z-1.183 F270
G1 X183.431 Y155.578 Z-1.189 F270
G1 X183.279 Y155.547 Z-1.194 F270
G1 X183.128 Y155.509 Z-1.2 F270
G1 X182.98 Y155.462 Z-1.205 F270
G1 X182.834 Y155.408 Z-1.21 F270
G1 X182.692 Y155.347 Z-1.216 F270
G1 X182.552 Y155.279 Z-1.221 F270
G1 X182.417 Y155.203 Z-1.227 F270
G1 X182.285 Y155.12 Z-1.232 F270
G1 X182.158 Y155.031 Z-1.238 F270
G1 X182.035 Y154.936 Z-1.243 F270
G1 X181.918 Y154.834 Z-1.248 F270
G1 X181.806 Y154.726 Z-1.254 F270
G1 X181.7 Y154.613 Z-1.259 F270
G1 X181.6 Y154.494 Z-1.265 F270
G1 X181.506 Y154.371 Z-1.27 F270
G1 X181.418 Y154.242 Z-1.276 F270
G1 X181.337 Y154.11 Z-1.281 F270
G1 X181.263 Y153.973 Z-1.286 F270
G1 X181.197 Y153.833 Z-1.292 F270
G1 X181.137 Y153.689 Z-1.297 F270
G1 X181.085 Y153.543 Z-1.303 F270
G1 X181.041 Y153.394 Z-1.308 F270
G1 X181.004 Y153.243 Z-1.314 F270
G1 X180.975 Y153.09 Z-1.319 F270
G1 X180.955 Y152.937 Z-1.324 F270
G1 X180.942 Y152.782 Z-1.33 F270
G1 X180.937 Y152.627 Z-1.335 F270
G1 X180.94 Y152.471 Z-1.341 F270
G1 X180.951 Y152.316 Z-1.346 F270
G1 X180.97 Y152.162 Z-1.352 F270
G1 X180.996 Y152.009 Z-1.357 F270
G1 X181.031 Y151.858 Z-1.362 F270
G1 X181.074 Y151.708 Z-1.368 F270
G1 X181.124 Y151.561 Z-1.373 F270
G1 X181.181 Y151.417 Z-1.379 F270
G1 X181.246 Y151.276 Z-1.384 F270
G1 X181.318 Y151.138 Z-1.389 F270
G1 X181.397 Y151.005 Z-1.395 F270
G1 X181.483 Y150.875 Z-1.4 F270
G1 X181.576 Y150.75 Z-1.406 F270
G1 X181.674 Y150.631 Z-1.411 F270
G1 X181.779 Y150.516 Z-1.417 F270
G1 X181.89 Y150.407 Z-1.422 F270
G1 X182.006 Y150.303 Z-1.427 F270
G1 X182.127 Y150.206 Z-1.433 F270
