;Fusion CAM 2.0.20508
; Posts processor: MPCNC.cps
; Gcode generated: Monday, November 4, 2024 9:20:24 PM GMT
; Document: Main v2 v25
; Setup: Main Distro Front Contour
;When using Fusion for Personal Use, the feedrate of rapid
;moves is reduced to match the feedrate of cutting moves,
;which can increase machining time. Unrestricted rapid moves
;are available with a Fusion Subscription.
; 
; Ranges Table:
;   X: Min=15.675 Max=381.23 Size=365.555
;   Y: Min=5.675 Max=294.325 Size=288.65
;   Z: Min=-12.7 Max=10 Size=22.7
; 
; Tools Table:
;  T5 D=6.35 CR=0 - ZMIN=-12.7 - flat end mill 
; 
; Feedrate and Scaling Properties:
;   Feed: Travel speed X/Y = 2500
;   Feed: Travel Speed Z = 300
;   Feed: Enforce Feedrate = true
;   Feed: Scale Feedrate = false
;   Feed: Max XY Cut Speed = 930
;   Feed: Max Z Cut Speed = 270
;   Feed: Max Toolpath Speed = 930
; 
; G1->G0 Mapping Properties:
;   Map: First G1 -> G0 Rapid = false
;   Map: G1s -> G0 Rapids = false
;   Map: SafeZ Mode = Retract : default = 15
;   Map: Allow Rapid Z = false
; 
; *** START begin ***
;   Set Absolute Positioning
;   Units = mm
;   Disable stepper timeout
G90
G21
M84 S0
; *** START end ***
; 
; *** SECTION begin ***
;   X Min: 15.675 - X Max: 381.23
;   Y Min: 5.675 - Y Max: 294.325
;   Z Min: -12.7 - Z Max: 10
; 2D Contour8 - Milling - Tool: 5 -  flat end mill
; COMMAND_START_SPINDLE
; COMMAND_SPINDLE_CLOCKWISE
; >>> Spindle Speed: Manual
M0 Turn ON 10000RPM
; COMMAND_COOLANT_ON
M117  2D Contour8
; MOVEMENT_CUTTING
G1 X381.23 Y150.635 Z10 F930
G1 Z5 F930
; MOVEMENT_PLUNGE
G1 Z1 F254
G1 Z-0.365 F254
; MOVEMENT_LEAD_IN
G1 X381.226 Z-0.436 F930
G1 X381.214 Z-0.506 F930
G1 X381.194 Z-0.575 F930
G1 X381.167 Z-0.641 F930
G1 X381.133 Z-0.703 F930
G1 X381.091 Z-0.761 F930
G1 X381.044 Z-0.814 F930
G1 X380.991 Z-0.861 F930
G1 X380.933 Z-0.903 F930
G1 X380.871 Z-0.937 F930
G1 X380.805 Z-0.964 F930
G1 X380.736 Z-0.984 F930
G1 X380.666 Z-0.996 F930
G1 X380.595 Z-1 F930
G1 X379.96 F930
G3 X379.325 Y150 J-0.635 F930
; MOVEMENT_CUTTING
G1 Y24.071 F930
G2 X376.595 Y17.478 I-9.326 F930
G1 X367.522 Y8.406 F930
G2 X360.929 Y5.675 I-6.594 J6.594 F930
G1 X34.071 F930
G2 X27.477 Y8.406 J9.325 F930
G1 X17.777 Y18.173 F930
G2 X15.675 Y24.071 I7.223 J5.898 F930
G1 Y275.929 F930
G2 X18.406 Y282.522 I9.325 J-0.001 F930
G1 X27.478 Y291.595 F930
G2 X34.071 Y294.325 I6.593 J-6.595 F930
G1 X360.929 F930
G2 X367.522 Y291.594 J-9.325 F930
G1 X377.223 Y281.827 F930
G2 X379.325 Y275.929 I-7.223 J-5.898 F930
G1 Y150 F930
; MOVEMENT_LINK_TRANSITION
G2 X378.85 Y149.288 I-0.772 F930
G3 X378.375 Y148.575 I0.297 J-0.713 F930
; MOVEMENT_CUTTING
G1 Y24.071 F930
G2 X375.923 Y18.149 I-8.375 J-0.001 F930
G1 X366.85 Y9.078 F930
G2 X360.929 Y6.625 I-5.922 J5.922 F930
G1 X34.071 F930
G2 X28.149 Y9.078 J8.375 F930
G1 X19.078 Y18.149 F930
G2 X16.625 Y24.071 I5.922 J5.922 F930
G1 Y275.929 F930
G2 X19.078 Y281.85 I8.375 F930
G1 X28.149 Y290.922 F930
G2 X34.071 Y293.375 I5.922 J-5.923 F930
G1 X360.929 F930
G2 X366.85 Y290.923 J-8.375 F930
G1 X375.922 Y281.85 F930
G2 X378.375 Y275.929 I-5.922 J-5.922 F930
G1 Y148.575 F930
; MOVEMENT_LINK_TRANSITION
G2 X378.275 Y148.425 I-0.163 F930
G3 X378.175 Y148.275 I0.063 J-0.15 F930
; MOVEMENT_FINISH_CUTTING
G1 Y24.071 F930
G2 X375.781 Y18.291 I-8.175 J-0.001 F930
G1 X366.709 Y9.219 F930
G2 X360.929 Y6.825 I-5.78 J5.78 F930
G1 X34.071 F930
G2 X28.29 Y9.219 J8.175 F930
G1 X19.219 Y18.29 F930
G2 X16.825 Y24.071 I5.781 J5.781 F930
G1 Y275.929 F930
G2 X19.219 Y281.709 I8.175 F930
G1 X28.29 Y290.781 F930
G2 X34.071 Y293.175 I5.78 J-5.781 F930
G1 X360.929 F930
G2 X366.709 Y290.781 J-8.175 F930
G1 X375.781 Y281.709 F930
G2 X378.175 Y275.929 I-5.781 J-5.78 F930
G1 Y148.275 F930
; MOVEMENT_LEAD_OUT
G3 X378.81 Y147.64 I0.635 F930
G1 X379.445 F930
G1 X379.516 Z-0.996 F930
G1 X379.586 Z-0.984 F930
G1 X379.655 Z-0.964 F930
G1 X379.721 Z-0.937 F930
G1 X379.783 Z-0.903 F930
G1 X379.841 Z-0.861 F930
G1 X379.894 Z-0.814 F930
G1 X379.941 Z-0.761 F930
G1 X379.983 Z-0.703 F930
G1 X380.017 Z-0.641 F930
G1 X380.044 Z-0.575 F930
G1 X380.064 Z-0.506 F930
G1 X380.076 Z-0.436 F930
G1 X380.08 Z-0.365 F930
; MOVEMENT_CUTTING
G1 Z5 F930
G1 X381.23 Y150.635 F930
; MOVEMENT_PLUNGE
G1 Z0 F254
G1 Z-1.365 F254
; MOVEMENT_LEAD_IN
G1 X381.226 Z-1.436 F930
G1 X381.214 Z-1.506 F930
G1 X381.194 Z-1.575 F930
G1 X381.167 Z-1.641 F930
G1 X381.133 Z-1.703 F930
G1 X381.091 Z-1.761 F930
G1 X381.044 Z-1.814 F930
G1 X380.991 Z-1.861 F930
G1 X380.933 Z-1.903 F930
G1 X380.871 Z-1.937 F930
G1 X380.805 Z-1.964 F930
G1 X380.736 Z-1.984 F930
G1 X380.666 Z-1.996 F930
G1 X380.595 Z-2 F930
G1 X379.96 F930
G3 X379.325 Y150 J-0.635 F930
; MOVEMENT_CUTTING
G1 Y24.071 F930
G2 X376.595 Y17.478 I-9.326 F930
G1 X367.522 Y8.406 F930
G2 X360.929 Y5.675 I-6.594 J6.594 F930
G1 X34.071 F930
G2 X27.477 Y8.406 J9.325 F930
G1 X17.777 Y18.173 F930
G2 X15.675 Y24.071 I7.223 J5.898 F930
G1 Y275.929 F930
G2 X18.406 Y282.522 I9.325 J-0.001 F930
G1 X27.478 Y291.595 F930
G2 X34.071 Y294.325 I6.593 J-6.595 F930
G1 X360.929 F930
G2 X367.522 Y291.594 J-9.325 F930
G1 X377.223 Y281.827 F930
G2 X379.325 Y275.929 I-7.223 J-5.898 F930
G1 Y150 F930
; MOVEMENT_LINK_TRANSITION
G2 X378.85 Y149.288 I-0.772 F930
G3 X378.375 Y148.575 I0.297 J-0.713 F930
; MOVEMENT_CUTTING
G1 Y24.071 F930
G2 X375.923 Y18.149 I-8.375 J-0.001 F930
G1 X366.85 Y9.078 F930
G2 X360.929 Y6.625 I-5.922 J5.922 F930
G1 X34.071 F930
G2 X28.149 Y9.078 J8.375 F930
G1 X19.078 Y18.149 F930
G2 X16.625 Y24.071 I5.922 J5.922 F930
G1 Y275.929 F930
G2 X19.078 Y281.85 I8.375 F930
G1 X28.149 Y290.922 F930
G2 X34.071 Y293.375 I5.922 J-5.923 F930
G1 X360.929 F930
G2 X366.85 Y290.923 J-8.375 F930
G1 X375.922 Y281.85 F930
G2 X378.375 Y275.929 I-5.922 J-5.922 F930
G1 Y148.575 F930
; MOVEMENT_LINK_TRANSITION
G2 X378.275 Y148.425 I-0.163 F930
G3 X378.175 Y148.275 I0.063 J-0.15 F930
; MOVEMENT_FINISH_CUTTING
G1 Y24.071 F930
G2 X375.781 Y18.291 I-8.175 J-0.001 F930
G1 X366.709 Y9.219 F930
G2 X360.929 Y6.825 I-5.78 J5.78 F930
G1 X34.071 F930
G2 X28.29 Y9.219 J8.175 F930
G1 X19.219 Y18.29 F930
G2 X16.825 Y24.071 I5.781 J5.781 F930
G1 Y275.929 F930
G2 X19.219 Y281.709 I8.175 F930
G1 X28.29 Y290.781 F930
G2 X34.071 Y293.175 I5.78 J-5.781 F930
G1 X360.929 F930
G2 X366.709 Y290.781 J-8.175 F930
G1 X375.781 Y281.709 F930
G2 X378.175 Y275.929 I-5.781 J-5.78 F930
G1 Y148.275 F930
; MOVEMENT_LEAD_OUT
G3 X378.81 Y147.64 I0.635 F930
G1 X379.445 F930
G1 X379.516 Z-1.996 F930
G1 X379.586 Z-1.984 F930
G1 X379.655 Z-1.964 F930
G1 X379.721 Z-1.937 F930
G1 X379.783 Z-1.903 F930
G1 X379.841 Z-1.861 F930
G1 X379.894 Z-1.814 F930
G1 X379.941 Z-1.761 F930
G1 X379.983 Z-1.703 F930
G1 X380.017 Z-1.641 F930
G1 X380.044 Z-1.575 F930
G1 X380.064 Z-1.506 F930
G1 X380.076 Z-1.436 F930
G1 X380.08 Z-1.365 F930
; MOVEMENT_CUTTING
G1 Z5 F930
G1 X381.23 Y150.635 F930
; MOVEMENT_PLUNGE
G1 Z-1 F254
G1 Z-2.365 F254
; MOVEMENT_LEAD_IN
G1 X381.226 Z-2.436 F930
G1 X381.214 Z-2.506 F930
G1 X381.194 Z-2.575 F930
G1 X381.167 Z-2.641 F930
G1 X381.133 Z-2.703 F930
G1 X381.091 Z-2.761 F930
G1 X381.044 Z-2.814 F930
G1 X380.991 Z-2.861 F930
G1 X380.933 Z-2.903 F930
G1 X380.871 Z-2.937 F930
G1 X380.805 Z-2.964 F930
G1 X380.736 Z-2.984 F930
G1 X380.666 Z-2.996 F930
G1 X380.595 Z-3 F930
G1 X379.96 F930
G3 X379.325 Y150 J-0.635 F930
; MOVEMENT_CUTTING
G1 Y24.071 F930
G2 X376.595 Y17.478 I-9.326 F930
G1 X367.522 Y8.406 F930
G2 X360.929 Y5.675 I-6.594 J6.594 F930
G1 X34.071 F930
G2 X27.477 Y8.406 J9.325 F930
G1 X17.777 Y18.173 F930
G2 X15.675 Y24.071 I7.223 J5.898 F930
G1 Y275.929 F930
G2 X18.406 Y282.522 I9.325 J-0.001 F930
G1 X27.478 Y291.595 F930
G2 X34.071 Y294.325 I6.593 J-6.595 F930
G1 X360.929 F930
G2 X367.522 Y291.594 J-9.325 F930
G1 X377.223 Y281.827 F930
G2 X379.325 Y275.929 I-7.223 J-5.898 F930
G1 Y150 F930
; MOVEMENT_LINK_TRANSITION
G2 X378.85 Y149.288 I-0.772 F930
G3 X378.375 Y148.575 I0.297 J-0.713 F930
; MOVEMENT_CUTTING
G1 Y24.071 F930
G2 X375.923 Y18.149 I-8.375 J-0.001 F930
G1 X366.85 Y9.078 F930
G2 X360.929 Y6.625 I-5.922 J5.922 F930
G1 X34.071 F930
G2 X28.149 Y9.078 J8.375 F930
G1 X19.078 Y18.149 F930
G2 X16.625 Y24.071 I5.922 J5.922 F930
G1 Y275.929 F930
G2 X19.078 Y281.85 I8.375 F930
G1 X28.149 Y290.922 F930
G2 X34.071 Y293.375 I5.922 J-5.923 F930
G1 X360.929 F930
G2 X366.85 Y290.923 J-8.375 F930
G1 X375.922 Y281.85 F930
G2 X378.375 Y275.929 I-5.922 J-5.922 F930
G1 Y148.575 F930
; MOVEMENT_LINK_TRANSITION
G2 X378.275 Y148.425 I-0.163 F930
G3 X378.175 Y148.275 I0.063 J-0.15 F930
; MOVEMENT_FINISH_CUTTING
G1 Y24.071 F930
G2 X375.781 Y18.291 I-8.175 J-0.001 F930
G1 X366.709 Y9.219 F930
G2 X360.929 Y6.825 I-5.78 J5.78 F930
G1 X34.071 F930
G2 X28.29 Y9.219 J8.175 F930
G1 X19.219 Y18.29 F930
G2 X16.825 Y24.071 I5.781 J5.781 F930
G1 Y275.929 F930
G2 X19.219 Y281.709 I8.175 F930
G1 X28.29 Y290.781 F930
G2 X34.071 Y293.175 I5.78 J-5.781 F930
G1 X360.929 F930
G2 X366.709 Y290.781 J-8.175 F930
G1 X375.781 Y281.709 F930
G2 X378.175 Y275.929 I-5.781 J-5.78 F930
G1 Y148.275 F930
; MOVEMENT_LEAD_OUT
G3 X378.81 Y147.64 I0.635 F930
G1 X379.445 F930
G1 X379.516 Z-2.996 F930
G1 X379.586 Z-2.984 F930
G1 X379.655 Z-2.964 F930
G1 X379.721 Z-2.937 F930
G1 X379.783 Z-2.903 F930
G1 X379.841 Z-2.861 F930
G1 X379.894 Z-2.814 F930
G1 X379.941 Z-2.761 F930
G1 X379.983 Z-2.703 F930
G1 X380.017 Z-2.641 F930
G1 X380.044 Z-2.575 F930
G1 X380.064 Z-2.506 F930
G1 X380.076 Z-2.436 F930
G1 X380.08 Z-2.365 F930
; MOVEMENT_CUTTING
G1 Z5 F930
G1 X381.23 Y150.635 F930
; MOVEMENT_PLUNGE
G1 Z-2 F254
G1 Z-3.365 F254
; MOVEMENT_LEAD_IN
G1 X381.226 Z-3.436 F930
G1 X381.214 Z-3.506 F930
G1 X381.194 Z-3.575 F930
G1 X381.167 Z-3.641 F930
G1 X381.133 Z-3.703 F930
G1 X381.091 Z-3.761 F930
G1 X381.044 Z-3.814 F930
G1 X380.991 Z-3.861 F930
G1 X380.933 Z-3.903 F930
G1 X380.871 Z-3.937 F930
G1 X380.805 Z-3.964 F930
G1 X380.736 Z-3.984 F930
G1 X380.666 Z-3.996 F930
G1 X380.595 Z-4 F930
G1 X379.96 F930
G3 X379.325 Y150 J-0.635 F930
; MOVEMENT_CUTTING
G1 Y24.071 F930
G2 X376.595 Y17.478 I-9.326 F930
G1 X367.522 Y8.406 F930
G2 X360.929 Y5.675 I-6.594 J6.594 F930
G1 X34.071 F930
G2 X27.477 Y8.406 J9.325 F930
G1 X17.777 Y18.173 F930
G2 X15.675 Y24.071 I7.223 J5.898 F930
G1 Y275.929 F930
G2 X18.406 Y282.522 I9.325 J-0.001 F930
G1 X27.478 Y291.595 F930
G2 X34.071 Y294.325 I6.593 J-6.595 F930
G1 X360.929 F930
G2 X367.522 Y291.594 J-9.325 F930
G1 X377.223 Y281.827 F930
G2 X379.325 Y275.929 I-7.223 J-5.898 F930
G1 Y150 F930
; MOVEMENT_LINK_TRANSITION
G2 X378.85 Y149.288 I-0.772 F930
G3 X378.375 Y148.575 I0.297 J-0.713 F930
; MOVEMENT_CUTTING
G1 Y24.071 F930
G2 X375.923 Y18.149 I-8.375 J-0.001 F930
G1 X366.85 Y9.078 F930
G2 X360.929 Y6.625 I-5.922 J5.922 F930
G1 X34.071 F930
G2 X28.149 Y9.078 J8.375 F930
G1 X19.078 Y18.149 F930
G2 X16.625 Y24.071 I5.922 J5.922 F930
G1 Y275.929 F930
G2 X19.078 Y281.85 I8.375 F930
G1 X28.149 Y290.922 F930
G2 X34.071 Y293.375 I5.922 J-5.923 F930
G1 X360.929 F930
G2 X366.85 Y290.923 J-8.375 F930
G1 X375.922 Y281.85 F930
G2 X378.375 Y275.929 I-5.922 J-5.922 F930
G1 Y148.575 F930
; MOVEMENT_LINK_TRANSITION
G2 X378.275 Y148.425 I-0.163 F930
G3 X378.175 Y148.275 I0.063 J-0.15 F930
; MOVEMENT_FINISH_CUTTING
G1 Y24.071 F930
G2 X375.781 Y18.291 I-8.175 J-0.001 F930
G1 X366.709 Y9.219 F930
G2 X360.929 Y6.825 I-5.78 J5.78 F930
G1 X34.071 F930
G2 X28.29 Y9.219 J8.175 F930
G1 X19.219 Y18.29 F930
G2 X16.825 Y24.071 I5.781 J5.781 F930
G1 Y275.929 F930
G2 X19.219 Y281.709 I8.175 F930
G1 X28.29 Y290.781 F930
G2 X34.071 Y293.175 I5.78 J-5.781 F930
G1 X360.929 F930
G2 X366.709 Y290.781 J-8.175 F930
G1 X375.781 Y281.709 F930
G2 X378.175 Y275.929 I-5.781 J-5.78 F930
G1 Y148.275 F930
; MOVEMENT_LEAD_OUT
G3 X378.81 Y147.64 I0.635 F930
G1 X379.445 F930
G1 X379.516 Z-3.996 F930
G1 X379.586 Z-3.984 F930
G1 X379.655 Z-3.964 F930
G1 X379.721 Z-3.937 F930
G1 X379.783 Z-3.903 F930
G1 X379.841 Z-3.861 F930
G1 X379.894 Z-3.814 F930
G1 X379.941 Z-3.761 F930
G1 X379.983 Z-3.703 F930
G1 X380.017 Z-3.641 F930
G1 X380.044 Z-3.575 F930
G1 X380.064 Z-3.506 F930
G1 X380.076 Z-3.436 F930
G1 X380.08 Z-3.365 F930
; MOVEMENT_CUTTING
G1 Z5 F930
G1 X381.23 Y150.635 F930
; MOVEMENT_PLUNGE
G1 Z-3 F254
G1 Z-4.365 F254
; MOVEMENT_LEAD_IN
G1 X381.226 Z-4.436 F930
G1 X381.214 Z-4.506 F930
G1 X381.194 Z-4.575 F930
G1 X381.167 Z-4.641 F930
G1 X381.133 Z-4.703 F930
G1 X381.091 Z-4.761 F930
G1 X381.044 Z-4.814 F930
G1 X380.991 Z-4.861 F930
G1 X380.933 Z-4.903 F930
G1 X380.871 Z-4.937 F930
G1 X380.805 Z-4.964 F930
G1 X380.736 Z-4.984 F930
G1 X380.666 Z-4.996 F930
G1 X380.595 Z-5 F930
G1 X379.96 F930
G3 X379.325 Y150 J-0.635 F930
; MOVEMENT_CUTTING
G1 Y24.071 F930
G2 X376.595 Y17.478 I-9.326 F930
G1 X367.522 Y8.406 F930
G2 X360.929 Y5.675 I-6.594 J6.594 F930
G1 X34.071 F930
G2 X27.477 Y8.406 J9.325 F930
G1 X17.777 Y18.173 F930
G2 X15.675 Y24.071 I7.223 J5.898 F930
G1 Y275.929 F930
G2 X18.406 Y282.522 I9.325 J-0.001 F930
G1 X27.478 Y291.595 F930
G2 X34.071 Y294.325 I6.593 J-6.595 F930
G1 X360.929 F930
G2 X367.522 Y291.594 J-9.325 F930
G1 X377.223 Y281.827 F930
G2 X379.325 Y275.929 I-7.223 J-5.898 F930
G1 Y150 F930
; MOVEMENT_LINK_TRANSITION
G2 X378.85 Y149.288 I-0.772 F930
G3 X378.375 Y148.575 I0.297 J-0.713 F930
; MOVEMENT_CUTTING
G1 Y24.071 F930
G2 X375.923 Y18.149 I-8.375 J-0.001 F930
G1 X366.85 Y9.078 F930
G2 X360.929 Y6.625 I-5.922 J5.922 F930
G1 X34.071 F930
G2 X28.149 Y9.078 J8.375 F930
G1 X19.078 Y18.149 F930
G2 X16.625 Y24.071 I5.922 J5.922 F930
G1 Y275.929 F930
G2 X19.078 Y281.85 I8.375 F930
G1 X28.149 Y290.922 F930
G2 X34.071 Y293.375 I5.922 J-5.923 F930
G1 X360.929 F930
G2 X366.85 Y290.923 J-8.375 F930
G1 X375.922 Y281.85 F930
G2 X378.375 Y275.929 I-5.922 J-5.922 F930
G1 Y148.575 F930
; MOVEMENT_LINK_TRANSITION
G2 X378.275 Y148.425 I-0.163 F930
G3 X378.175 Y148.275 I0.063 J-0.15 F930
; MOVEMENT_FINISH_CUTTING
G1 Y24.071 F930
G2 X375.781 Y18.291 I-8.175 J-0.001 F930
G1 X366.709 Y9.219 F930
G2 X360.929 Y6.825 I-5.78 J5.78 F930
G1 X34.071 F930
G2 X28.29 Y9.219 J8.175 F930
G1 X19.219 Y18.29 F930
G2 X16.825 Y24.071 I5.781 J5.781 F930
G1 Y275.929 F930
G2 X19.219 Y281.709 I8.175 F930
G1 X28.29 Y290.781 F930
G2 X34.071 Y293.175 I5.78 J-5.781 F930
G1 X360.929 F930
G2 X366.709 Y290.781 J-8.175 F930
G1 X375.781 Y281.709 F930
G2 X378.175 Y275.929 I-5.781 J-5.78 F930
G1 Y148.275 F930
; MOVEMENT_LEAD_OUT
G3 X378.81 Y147.64 I0.635 F930
G1 X379.445 F930
G1 X379.516 Z-4.996 F930
G1 X379.586 Z-4.984 F930
G1 X379.655 Z-4.964 F930
G1 X379.721 Z-4.937 F930
G1 X379.783 Z-4.903 F930
G1 X379.841 Z-4.861 F930
G1 X379.894 Z-4.814 F930
G1 X379.941 Z-4.761 F930
G1 X379.983 Z-4.703 F930
G1 X380.017 Z-4.641 F930
G1 X380.044 Z-4.575 F930
G1 X380.064 Z-4.506 F930
G1 X380.076 Z-4.436 F930
G1 X380.08 Z-4.365 F930
; MOVEMENT_CUTTING
G1 Z5 F930
G1 X381.23 Y150.635 F930
; MOVEMENT_PLUNGE
G1 Z-4 F254
G1 Z-5.365 F254
; MOVEMENT_LEAD_IN
G1 X381.226 Z-5.436 F930
G1 X381.214 Z-5.506 F930
G1 X381.194 Z-5.575 F930
G1 X381.167 Z-5.641 F930
G1 X381.133 Z-5.703 F930
G1 X381.091 Z-5.761 F930
G1 X381.044 Z-5.814 F930
G1 X380.991 Z-5.861 F930
G1 X380.933 Z-5.903 F930
G1 X380.871 Z-5.937 F930
G1 X380.805 Z-5.964 F930
G1 X380.736 Z-5.984 F930
G1 X380.666 Z-5.996 F930
G1 X380.595 Z-6 F930
G1 X379.96 F930
G3 X379.325 Y150 J-0.635 F930
; MOVEMENT_CUTTING
G1 Y24.071 F930
G2 X376.595 Y17.478 I-9.326 F930
G1 X367.522 Y8.406 F930
G2 X360.929 Y5.675 I-6.594 J6.594 F930
G1 X34.071 F930
G2 X27.477 Y8.406 J9.325 F930
G1 X17.777 Y18.173 F930
G2 X15.675 Y24.071 I7.223 J5.898 F930
G1 Y275.929 F930
G2 X18.406 Y282.522 I9.325 J-0.001 F930
G1 X27.478 Y291.595 F930
G2 X34.071 Y294.325 I6.593 J-6.595 F930
G1 X360.929 F930
G2 X367.522 Y291.594 J-9.325 F930
G1 X377.223 Y281.827 F930
G2 X379.325 Y275.929 I-7.223 J-5.898 F930
G1 Y150 F930
; MOVEMENT_LINK_TRANSITION
G2 X378.85 Y149.288 I-0.772 F930
G3 X378.375 Y148.575 I0.297 J-0.713 F930
; MOVEMENT_CUTTING
G1 Y24.071 F930
G2 X375.923 Y18.149 I-8.375 J-0.001 F930
G1 X366.85 Y9.078 F930
G2 X360.929 Y6.625 I-5.922 J5.922 F930
G1 X34.071 F930
G2 X28.149 Y9.078 J8.375 F930
G1 X19.078 Y18.149 F930
G2 X16.625 Y24.071 I5.922 J5.922 F930
G1 Y275.929 F930
G2 X19.078 Y281.85 I8.375 F930
G1 X28.149 Y290.922 F930
G2 X34.071 Y293.375 I5.922 J-5.923 F930
G1 X360.929 F930
G2 X366.85 Y290.923 J-8.375 F930
G1 X375.922 Y281.85 F930
G2 X378.375 Y275.929 I-5.922 J-5.922 F930
G1 Y148.575 F930
; MOVEMENT_LINK_TRANSITION
G2 X378.275 Y148.425 I-0.163 F930
G3 X378.175 Y148.275 I0.063 J-0.15 F930
; MOVEMENT_FINISH_CUTTING
G1 Y24.071 F930
G2 X375.781 Y18.291 I-8.175 J-0.001 F930
G1 X366.709 Y9.219 F930
G2 X360.929 Y6.825 I-5.78 J5.78 F930
G1 X34.071 F930
G2 X28.29 Y9.219 J8.175 F930
G1 X19.219 Y18.29 F930
G2 X16.825 Y24.071 I5.781 J5.781 F930
G1 Y275.929 F930
G2 X19.219 Y281.709 I8.175 F930
G1 X28.29 Y290.781 F930
G2 X34.071 Y293.175 I5.78 J-5.781 F930
G1 X360.929 F930
G2 X366.709 Y290.781 J-8.175 F930
G1 X375.781 Y281.709 F930
G2 X378.175 Y275.929 I-5.781 J-5.78 F930
G1 Y148.275 F930
; MOVEMENT_LEAD_OUT
G3 X378.81 Y147.64 I0.635 F930
G1 X379.445 F930
G1 X379.516 Z-5.996 F930
G1 X379.586 Z-5.984 F930
G1 X379.655 Z-5.964 F930
G1 X379.721 Z-5.937 F930
G1 X379.783 Z-5.903 F930
G1 X379.841 Z-5.861 F930
G1 X379.894 Z-5.814 F930
G1 X379.941 Z-5.761 F930
G1 X379.983 Z-5.703 F930
G1 X380.017 Z-5.641 F930
G1 X380.044 Z-5.575 F930
G1 X380.064 Z-5.506 F930
G1 X380.076 Z-5.436 F930
G1 X380.08 Z-5.365 F930
; MOVEMENT_CUTTING
G1 Z5 F930
G1 X381.23 Y150.635 F930
; MOVEMENT_PLUNGE
G1 Z-5 F254
G1 Z-6.365 F254
; MOVEMENT_LEAD_IN
G1 X381.226 Z-6.436 F930
G1 X381.214 Z-6.506 F930
G1 X381.194 Z-6.575 F930
G1 X381.167 Z-6.641 F930
G1 X381.133 Z-6.703 F930
G1 X381.091 Z-6.761 F930
G1 X381.044 Z-6.814 F930
G1 X380.991 Z-6.861 F930
G1 X380.933 Z-6.903 F930
G1 X380.871 Z-6.937 F930
G1 X380.805 Z-6.964 F930
G1 X380.736 Z-6.984 F930
G1 X380.666 Z-6.996 F930
G1 X380.595 Z-7 F930
G1 X379.96 F930
G3 X379.325 Y150 J-0.635 F930
; MOVEMENT_CUTTING
G1 Y24.071 F930
G2 X376.595 Y17.478 I-9.326 F930
G1 X367.522 Y8.406 F930
G2 X360.929 Y5.675 I-6.594 J6.594 F930
G1 X34.071 F930
G2 X27.477 Y8.406 J9.325 F930
G1 X17.777 Y18.173 F930
G2 X15.675 Y24.071 I7.223 J5.898 F930
G1 Y275.929 F930
G2 X18.406 Y282.522 I9.325 J-0.001 F930
G1 X27.478 Y291.595 F930
G2 X34.071 Y294.325 I6.593 J-6.595 F930
G1 X360.929 F930
G2 X367.522 Y291.594 J-9.325 F930
G1 X377.223 Y281.827 F930
G2 X379.325 Y275.929 I-7.223 J-5.898 F930
G1 Y150 F930
; MOVEMENT_LINK_TRANSITION
G2 X378.85 Y149.288 I-0.772 F930
G3 X378.375 Y148.575 I0.297 J-0.713 F930
; MOVEMENT_CUTTING
G1 Y24.071 F930
G2 X375.923 Y18.149 I-8.375 J-0.001 F930
G1 X366.85 Y9.078 F930
G2 X360.929 Y6.625 I-5.922 J5.922 F930
G1 X34.071 F930
G2 X28.149 Y9.078 J8.375 F930
G1 X19.078 Y18.149 F930
G2 X16.625 Y24.071 I5.922 J5.922 F930
G1 Y275.929 F930
G2 X19.078 Y281.85 I8.375 F930
G1 X28.149 Y290.922 F930
G2 X34.071 Y293.375 I5.922 J-5.923 F930
G1 X360.929 F930
G2 X366.85 Y290.923 J-8.375 F930
G1 X375.922 Y281.85 F930
G2 X378.375 Y275.929 I-5.922 J-5.922 F930
G1 Y148.575 F930
; MOVEMENT_LINK_TRANSITION
G2 X378.275 Y148.425 I-0.163 F930
G3 X378.175 Y148.275 I0.063 J-0.15 F930
; MOVEMENT_FINISH_CUTTING
G1 Y24.071 F930
G2 X375.781 Y18.291 I-8.175 J-0.001 F930
G1 X366.709 Y9.219 F930
G2 X360.929 Y6.825 I-5.78 J5.78 F930
G1 X34.071 F930
G2 X28.29 Y9.219 J8.175 F930
G1 X19.219 Y18.29 F930
G2 X16.825 Y24.071 I5.781 J5.781 F930
G1 Y275.929 F930
G2 X19.219 Y281.709 I8.175 F930
G1 X28.29 Y290.781 F930
G2 X34.071 Y293.175 I5.78 J-5.781 F930
G1 X360.929 F930
G2 X366.709 Y290.781 J-8.175 F930
G1 X375.781 Y281.709 F930
G2 X378.175 Y275.929 I-5.781 J-5.78 F930
G1 Y148.275 F930
; MOVEMENT_LEAD_OUT
G3 X378.81 Y147.64 I0.635 F930
G1 X379.445 F930
G1 X379.516 Z-6.996 F930
G1 X379.586 Z-6.984 F930
G1 X379.655 Z-6.964 F930
G1 X379.721 Z-6.937 F930
G1 X379.783 Z-6.903 F930
G1 X379.841 Z-6.861 F930
G1 X379.894 Z-6.814 F930
G1 X379.941 Z-6.761 F930
G1 X379.983 Z-6.703 F930
G1 X380.017 Z-6.641 F930
G1 X380.044 Z-6.575 F930
G1 X380.064 Z-6.506 F930
G1 X380.076 Z-6.436 F930
G1 X380.08 Z-6.365 F930
; MOVEMENT_CUTTING
G1 Z5 F930
G1 X381.23 Y150.635 F930
; MOVEMENT_PLUNGE
G1 Z-6 F254
G1 Z-7.365 F254
; MOVEMENT_LEAD_IN
G1 X381.226 Z-7.436 F930
G1 X381.214 Z-7.506 F930
G1 X381.194 Z-7.575 F930
G1 X381.167 Z-7.641 F930
G1 X381.133 Z-7.703 F930
G1 X381.091 Z-7.761 F930
G1 X381.044 Z-7.814 F930
G1 X380.991 Z-7.861 F930
G1 X380.933 Z-7.903 F930
G1 X380.871 Z-7.937 F930
G1 X380.805 Z-7.964 F930
G1 X380.736 Z-7.984 F930
G1 X380.666 Z-7.996 F930
G1 X380.595 Z-8 F930
G1 X379.96 F930
G3 X379.325 Y150 J-0.635 F930
; MOVEMENT_CUTTING
G1 Y24.071 F930
G2 X376.595 Y17.478 I-9.326 F930
G1 X367.522 Y8.406 F930
G2 X360.929 Y5.675 I-6.594 J6.594 F930
G1 X34.071 F930
G2 X27.477 Y8.406 J9.325 F930
G1 X17.777 Y18.173 F930
G2 X15.675 Y24.071 I7.223 J5.898 F930
G1 Y275.929 F930
G2 X18.406 Y282.522 I9.325 J-0.001 F930
G1 X27.478 Y291.595 F930
G2 X34.071 Y294.325 I6.593 J-6.595 F930
G1 X360.929 F930
G2 X367.522 Y291.594 J-9.325 F930
G1 X377.223 Y281.827 F930
G2 X379.325 Y275.929 I-7.223 J-5.898 F930
G1 Y150 F930
; MOVEMENT_LINK_TRANSITION
G2 X378.85 Y149.288 I-0.772 F930
G3 X378.375 Y148.575 I0.297 J-0.713 F930
; MOVEMENT_CUTTING
G1 Y24.071 F930
G2 X375.923 Y18.149 I-8.375 J-0.001 F930
G1 X366.85 Y9.078 F930
G2 X360.929 Y6.625 I-5.922 J5.922 F930
G1 X34.071 F930
G2 X28.149 Y9.078 J8.375 F930
G1 X19.078 Y18.149 F930
G2 X16.625 Y24.071 I5.922 J5.922 F930
G1 Y275.929 F930
G2 X19.078 Y281.85 I8.375 F930
G1 X28.149 Y290.922 F930
G2 X34.071 Y293.375 I5.922 J-5.923 F930
G1 X360.929 F930
G2 X366.85 Y290.923 J-8.375 F930
G1 X375.922 Y281.85 F930
G2 X378.375 Y275.929 I-5.922 J-5.922 F930
G1 Y148.575 F930
; MOVEMENT_LINK_TRANSITION
G2 X378.275 Y148.425 I-0.163 F930
G3 X378.175 Y148.275 I0.063 J-0.15 F930
; MOVEMENT_FINISH_CUTTING
G1 Y24.071 F930
G2 X375.781 Y18.291 I-8.175 J-0.001 F930
G1 X366.709 Y9.219 F930
G2 X360.929 Y6.825 I-5.78 J5.78 F930
G1 X34.071 F930
G2 X28.29 Y9.219 J8.175 F930
G1 X19.219 Y18.29 F930
G2 X16.825 Y24.071 I5.781 J5.781 F930
G1 Y275.929 F930
G2 X19.219 Y281.709 I8.175 F930
G1 X28.29 Y290.781 F930
G2 X34.071 Y293.175 I5.78 J-5.781 F930
G1 X360.929 F930
G2 X366.709 Y290.781 J-8.175 F930
G1 X375.781 Y281.709 F930
G2 X378.175 Y275.929 I-5.781 J-5.78 F930
G1 Y148.275 F930
; MOVEMENT_LEAD_OUT
G3 X378.81 Y147.64 I0.635 F930
G1 X379.445 F930
G1 X379.516 Z-7.996 F930
G1 X379.586 Z-7.984 F930
G1 X379.655 Z-7.964 F930
G1 X379.721 Z-7.937 F930
G1 X379.783 Z-7.903 F930
G1 X379.841 Z-7.861 F930
G1 X379.894 Z-7.814 F930
G1 X379.941 Z-7.761 F930
G1 X379.983 Z-7.703 F930
G1 X380.017 Z-7.641 F930
G1 X380.044 Z-7.575 F930
G1 X380.064 Z-7.506 F930
G1 X380.076 Z-7.436 F930
G1 X380.08 Z-7.365 F930
; MOVEMENT_CUTTING
G1 Z5 F930
G1 X381.23 Y150.635 F930
; MOVEMENT_PLUNGE
G1 Z-7 F254
G1 Z-8.365 F254
; MOVEMENT_LEAD_IN
G1 X381.226 Z-8.436 F930
G1 X381.214 Z-8.506 F930
G1 X381.194 Z-8.575 F930
G1 X381.167 Z-8.641 F930
G1 X381.133 Z-8.703 F930
G1 X381.091 Z-8.761 F930
G1 X381.044 Z-8.814 F930
G1 X380.991 Z-8.861 F930
G1 X380.933 Z-8.903 F930
G1 X380.871 Z-8.937 F930
G1 X380.805 Z-8.964 F930
G1 X380.736 Z-8.984 F930
G1 X380.666 Z-8.996 F930
G1 X380.595 Z-9 F930
G1 X379.96 F930
G3 X379.325 Y150 J-0.635 F930
; MOVEMENT_CUTTING
G1 Y24.071 F930
G2 X376.595 Y17.478 I-9.326 F930
G1 X367.522 Y8.406 F930
G2 X360.929 Y5.675 I-6.594 J6.594 F930
G1 X34.071 F930
G2 X27.477 Y8.406 J9.325 F930
G1 X17.777 Y18.173 F930
G2 X15.675 Y24.071 I7.223 J5.898 F930
G1 Y275.929 F930
G2 X18.406 Y282.522 I9.325 J-0.001 F930
G1 X27.478 Y291.595 F930
G2 X34.071 Y294.325 I6.593 J-6.595 F930
G1 X360.929 F930
G2 X367.522 Y291.594 J-9.325 F930
G1 X377.223 Y281.827 F930
G2 X379.325 Y275.929 I-7.223 J-5.898 F930
G1 Y150 F930
; MOVEMENT_LINK_TRANSITION
G2 X378.85 Y149.288 I-0.772 F930
G3 X378.375 Y148.575 I0.297 J-0.713 F930
; MOVEMENT_CUTTING
G1 Y24.071 F930
G2 X375.923 Y18.149 I-8.375 J-0.001 F930
G1 X366.85 Y9.078 F930
G2 X360.929 Y6.625 I-5.922 J5.922 F930
G1 X34.071 F930
G2 X28.149 Y9.078 J8.375 F930
G1 X19.078 Y18.149 F930
G2 X16.625 Y24.071 I5.922 J5.922 F930
G1 Y275.929 F930
G2 X19.078 Y281.85 I8.375 F930
G1 X28.149 Y290.922 F930
G2 X34.071 Y293.375 I5.922 J-5.923 F930
G1 X360.929 F930
G2 X366.85 Y290.923 J-8.375 F930
G1 X375.922 Y281.85 F930
G2 X378.375 Y275.929 I-5.922 J-5.922 F930
G1 Y148.575 F930
; MOVEMENT_LINK_TRANSITION
G2 X378.275 Y148.425 I-0.163 F930
G3 X378.175 Y148.275 I0.063 J-0.15 F930
; MOVEMENT_FINISH_CUTTING
G1 Y24.071 F930
G2 X375.781 Y18.291 I-8.175 J-0.001 F930
G1 X366.709 Y9.219 F930
G2 X360.929 Y6.825 I-5.78 J5.78 F930
G1 X34.071 F930
G2 X28.29 Y9.219 J8.175 F930
G1 X19.219 Y18.29 F930
G2 X16.825 Y24.071 I5.781 J5.781 F930
G1 Y275.929 F930
G2 X19.219 Y281.709 I8.175 F930
G1 X28.29 Y290.781 F930
G2 X34.071 Y293.175 I5.78 J-5.781 F930
G1 X360.929 F930
G2 X366.709 Y290.781 J-8.175 F930
G1 X375.781 Y281.709 F930
G2 X378.175 Y275.929 I-5.781 J-5.78 F930
G1 Y148.275 F930
; MOVEMENT_LEAD_OUT
G3 X378.81 Y147.64 I0.635 F930
G1 X379.445 F930
G1 X379.516 Z-8.996 F930
G1 X379.586 Z-8.984 F930
G1 X379.655 Z-8.964 F930
G1 X379.721 Z-8.937 F930
G1 X379.783 Z-8.903 F930
G1 X379.841 Z-8.861 F930
G1 X379.894 Z-8.814 F930
G1 X379.941 Z-8.761 F930
G1 X379.983 Z-8.703 F930
G1 X380.017 Z-8.641 F930
G1 X380.044 Z-8.575 F930
G1 X380.064 Z-8.506 F930
G1 X380.076 Z-8.436 F930
G1 X380.08 Z-8.365 F930
; MOVEMENT_CUTTING
G1 Z5 F930
G1 X381.23 Y150.635 F930
; MOVEMENT_PLUNGE
G1 Z-8 F254
G1 Z-9.365 F254
; MOVEMENT_LEAD_IN
G1 X381.226 Z-9.436 F930
G1 X381.214 Z-9.506 F930
G1 X381.194 Z-9.575 F930
G1 X381.167 Z-9.641 F930
G1 X381.133 Z-9.703 F930
G1 X381.091 Z-9.761 F930
G1 X381.044 Z-9.814 F930
G1 X380.991 Z-9.861 F930
G1 X380.933 Z-9.903 F930
G1 X380.871 Z-9.937 F930
G1 X380.805 Z-9.964 F930
G1 X380.736 Z-9.984 F930
G1 X380.666 Z-9.996 F930
G1 X380.595 Z-10 F930
G1 X379.96 F930
G3 X379.325 Y150 J-0.635 F930
; MOVEMENT_CUTTING
G1 Y24.071 F930
G2 X376.595 Y17.478 I-9.326 F930
G1 X367.522 Y8.406 F930
G2 X360.929 Y5.675 I-6.594 J6.594 F930
G1 X34.071 F930
G2 X27.477 Y8.406 J9.325 F930
G1 X17.777 Y18.173 F930
G2 X15.675 Y24.071 I7.223 J5.898 F930
G1 Y275.929 F930
G2 X18.406 Y282.522 I9.325 J-0.001 F930
G1 X27.478 Y291.595 F930
G2 X34.071 Y294.325 I6.593 J-6.595 F930
G1 X360.929 F930
G2 X367.522 Y291.594 J-9.325 F930
G1 X377.223 Y281.827 F930
G2 X379.325 Y275.929 I-7.223 J-5.898 F930
G1 Y150 F930
; MOVEMENT_LINK_TRANSITION
G2 X378.85 Y149.288 I-0.772 F930
G3 X378.375 Y148.575 I0.297 J-0.713 F930
; MOVEMENT_CUTTING
G1 Y24.071 F930
G2 X375.923 Y18.149 I-8.375 J-0.001 F930
G1 X366.85 Y9.078 F930
G2 X360.929 Y6.625 I-5.922 J5.922 F930
G1 X34.071 F930
G2 X28.149 Y9.078 J8.375 F930
G1 X19.078 Y18.149 F930
G2 X16.625 Y24.071 I5.922 J5.922 F930
G1 Y275.929 F930
G2 X19.078 Y281.85 I8.375 F930
G1 X28.149 Y290.922 F930
G2 X34.071 Y293.375 I5.922 J-5.923 F930
G1 X360.929 F930
G2 X366.85 Y290.923 J-8.375 F930
G1 X375.922 Y281.85 F930
G2 X378.375 Y275.929 I-5.922 J-5.922 F930
G1 Y148.575 F930
; MOVEMENT_LINK_TRANSITION
G2 X378.275 Y148.425 I-0.163 F930
G3 X378.175 Y148.275 I0.063 J-0.15 F930
; MOVEMENT_FINISH_CUTTING
G1 Y24.071 F930
G2 X375.781 Y18.291 I-8.175 J-0.001 F930
G1 X366.709 Y9.219 F930
G2 X360.929 Y6.825 I-5.78 J5.78 F930
G1 X34.071 F930
G2 X28.29 Y9.219 J8.175 F930
G1 X19.219 Y18.29 F930
G2 X16.825 Y24.071 I5.781 J5.781 F930
G1 Y275.929 F930
G2 X19.219 Y281.709 I8.175 F930
G1 X28.29 Y290.781 F930
G2 X34.071 Y293.175 I5.78 J-5.781 F930
G1 X360.929 F930
G2 X366.709 Y290.781 J-8.175 F930
G1 X375.781 Y281.709 F930
G2 X378.175 Y275.929 I-5.781 J-5.78 F930
G1 Y148.275 F930
; MOVEMENT_LEAD_OUT
G3 X378.81 Y147.64 I0.635 F930
G1 X379.445 F930
G1 X379.516 Z-9.996 F930
G1 X379.586 Z-9.984 F930
G1 X379.655 Z-9.964 F930
G1 X379.721 Z-9.937 F930
G1 X379.783 Z-9.903 F930
G1 X379.841 Z-9.861 F930
G1 X379.894 Z-9.814 F930
G1 X379.941 Z-9.761 F930
G1 X379.983 Z-9.703 F930
G1 X380.017 Z-9.641 F930
G1 X380.044 Z-9.575 F930
G1 X380.064 Z-9.506 F930
G1 X380.076 Z-9.436 F930
G1 X380.08 Z-9.365 F930
; MOVEMENT_CUTTING
G1 Z5 F930
G1 X381.23 Y150.635 F930
; MOVEMENT_PLUNGE
G1 Z-9 F254
G1 Z-10.365 F254
; MOVEMENT_LEAD_IN
G1 X381.226 Z-10.436 F930
G1 X381.214 Z-10.506 F930
G1 X381.194 Z-10.575 F930
G1 X381.167 Z-10.641 F930
G1 X381.133 Z-10.703 F930
G1 X381.091 Z-10.761 F930
G1 X381.044 Z-10.814 F930
G1 X380.991 Z-10.861 F930
G1 X380.933 Z-10.903 F930
G1 X380.871 Z-10.937 F930
G1 X380.805 Z-10.964 F930
G1 X380.736 Z-10.984 F930
G1 X380.666 Z-10.996 F930
G1 X380.595 Z-11 F930
G1 X379.96 F930
G3 X379.325 Y150 J-0.635 F930
; MOVEMENT_CUTTING
G1 Y24.071 F930
G2 X376.595 Y17.478 I-9.326 F930
G1 X367.522 Y8.406 F930
G2 X360.929 Y5.675 I-6.594 J6.594 F930
G1 X34.071 F930
G2 X27.477 Y8.406 J9.325 F930
G1 X17.777 Y18.173 F930
G2 X15.675 Y24.071 I7.223 J5.898 F930
G1 Y275.929 F930
G2 X18.406 Y282.522 I9.325 J-0.001 F930
G1 X27.478 Y291.595 F930
G2 X34.071 Y294.325 I6.593 J-6.595 F930
G1 X360.929 F930
G2 X367.522 Y291.594 J-9.325 F930
G1 X377.223 Y281.827 F930
G2 X379.325 Y275.929 I-7.223 J-5.898 F930
G1 Y150 F930
; MOVEMENT_LINK_TRANSITION
G2 X378.85 Y149.288 I-0.772 F930
G3 X378.375 Y148.575 I0.297 J-0.713 F930
; MOVEMENT_CUTTING
G1 Y24.071 F930
G2 X375.923 Y18.149 I-8.375 J-0.001 F930
G1 X366.85 Y9.078 F930
G2 X360.929 Y6.625 I-5.922 J5.922 F930
G1 X34.071 F930
G2 X28.149 Y9.078 J8.375 F930
G1 X19.078 Y18.149 F930
G2 X16.625 Y24.071 I5.922 J5.922 F930
G1 Y275.929 F930
G2 X19.078 Y281.85 I8.375 F930
G1 X28.149 Y290.922 F930
G2 X34.071 Y293.375 I5.922 J-5.923 F930
G1 X360.929 F930
G2 X366.85 Y290.923 J-8.375 F930
G1 X375.922 Y281.85 F930
G2 X378.375 Y275.929 I-5.922 J-5.922 F930
G1 Y148.575 F930
; MOVEMENT_LINK_TRANSITION
G2 X378.275 Y148.425 I-0.163 F930
G3 X378.175 Y148.275 I0.063 J-0.15 F930
; MOVEMENT_FINISH_CUTTING
G1 Y24.071 F930
G2 X375.781 Y18.291 I-8.175 J-0.001 F930
G1 X366.709 Y9.219 F930
G2 X360.929 Y6.825 I-5.78 J5.78 F930
G1 X34.071 F930
G2 X28.29 Y9.219 J8.175 F930
G1 X19.219 Y18.29 F930
G2 X16.825 Y24.071 I5.781 J5.781 F930
G1 Y275.929 F930
G2 X19.219 Y281.709 I8.175 F930
G1 X28.29 Y290.781 F930
G2 X34.071 Y293.175 I5.78 J-5.781 F930
G1 X360.929 F930
G2 X366.709 Y290.781 J-8.175 F930
G1 X375.781 Y281.709 F930
G2 X378.175 Y275.929 I-5.781 J-5.78 F930
G1 Y148.275 F930
; MOVEMENT_LEAD_OUT
G3 X378.81 Y147.64 I0.635 F930
G1 X379.445 F930
G1 X379.516 Z-10.996 F930
G1 X379.586 Z-10.984 F930
G1 X379.655 Z-10.964 F930
G1 X379.721 Z-10.937 F930
G1 X379.783 Z-10.903 F930
G1 X379.841 Z-10.861 F930
G1 X379.894 Z-10.814 F930
G1 X379.941 Z-10.761 F930
G1 X379.983 Z-10.703 F930
G1 X380.017 Z-10.641 F930
G1 X380.044 Z-10.575 F930
G1 X380.064 Z-10.506 F930
G1 X380.076 Z-10.436 F930
G1 X380.08 Z-10.365 F930
; MOVEMENT_CUTTING
G1 Z5 F930
G1 X381.23 Y150.635 F930
; MOVEMENT_PLUNGE
G1 Z-10 F254
G1 Z-11.365 F254
; MOVEMENT_LEAD_IN
G1 X381.226 Z-11.436 F930
G1 X381.214 Z-11.506 F930
G1 X381.194 Z-11.575 F930
G1 X381.167 Z-11.641 F930
G1 X381.133 Z-11.703 F930
G1 X381.091 Z-11.761 F930
G1 X381.044 Z-11.814 F930
G1 X380.991 Z-11.861 F930
G1 X380.933 Z-11.903 F930
G1 X380.871 Z-11.937 F930
G1 X380.805 Z-11.964 F930
G1 X380.736 Z-11.984 F930
G1 X380.666 Z-11.996 F930
G1 X380.595 Z-12 F930
G1 X379.96 F930
G3 X379.325 Y150 J-0.635 F930
; MOVEMENT_CUTTING
G1 Y24.071 F930
G2 X376.595 Y17.478 I-9.326 F930
G1 X367.522 Y8.406 F930
G2 X360.929 Y5.675 I-6.594 J6.594 F930
G1 X34.071 F930
G2 X27.477 Y8.406 J9.325 F930
G1 X17.777 Y18.173 F930
G2 X15.675 Y24.071 I7.223 J5.898 F930
G1 Y275.929 F930
G2 X18.406 Y282.522 I9.325 J-0.001 F930
G1 X27.478 Y291.595 F930
G2 X34.071 Y294.325 I6.593 J-6.595 F930
G1 X360.929 F930
G2 X367.522 Y291.594 J-9.325 F930
G1 X377.223 Y281.827 F930
G2 X379.325 Y275.929 I-7.223 J-5.898 F930
G1 Y150 F930
; MOVEMENT_LINK_TRANSITION
G2 X378.85 Y149.288 I-0.772 F930
G3 X378.375 Y148.575 I0.297 J-0.713 F930
; MOVEMENT_CUTTING
G1 Y24.071 F930
G2 X375.923 Y18.149 I-8.375 J-0.001 F930
G1 X366.85 Y9.078 F930
G2 X360.929 Y6.625 I-5.922 J5.922 F930
G1 X34.071 F930
G2 X28.149 Y9.078 J8.375 F930
G1 X19.078 Y18.149 F930
G2 X16.625 Y24.071 I5.922 J5.922 F930
G1 Y275.929 F930
G2 X19.078 Y281.85 I8.375 F930
G1 X28.149 Y290.922 F930
G2 X34.071 Y293.375 I5.922 J-5.923 F930
G1 X360.929 F930
G2 X366.85 Y290.923 J-8.375 F930
G1 X375.922 Y281.85 F930
G2 X378.375 Y275.929 I-5.922 J-5.922 F930
G1 Y148.575 F930
; MOVEMENT_LINK_TRANSITION
G2 X378.275 Y148.425 I-0.163 F930
G3 X378.175 Y148.275 I0.063 J-0.15 F930
; MOVEMENT_FINISH_CUTTING
G1 Y24.071 F930
G2 X375.781 Y18.291 I-8.175 J-0.001 F930
G1 X366.709 Y9.219 F930
G2 X360.929 Y6.825 I-5.78 J5.78 F930
G1 X34.071 F930
G2 X28.29 Y9.219 J8.175 F930
G1 X19.219 Y18.29 F930
G2 X16.825 Y24.071 I5.781 J5.781 F930
G1 Y275.929 F930
G2 X19.219 Y281.709 I8.175 F930
G1 X28.29 Y290.781 F930
G2 X34.071 Y293.175 I5.78 J-5.781 F930
G1 X360.929 F930
G2 X366.709 Y290.781 J-8.175 F930
G1 X375.781 Y281.709 F930
G2 X378.175 Y275.929 I-5.781 J-5.78 F930
G1 Y148.275 F930
; MOVEMENT_LEAD_OUT
G3 X378.81 Y147.64 I0.635 F930
G1 X379.445 F930
G1 X379.516 Z-11.996 F930
G1 X379.586 Z-11.984 F930
G1 X379.655 Z-11.964 F930
G1 X379.721 Z-11.937 F930
G1 X379.783 Z-11.903 F930
G1 X379.841 Z-11.861 F930
G1 X379.894 Z-11.814 F930
G1 X379.941 Z-11.761 F930
G1 X379.983 Z-11.703 F930
G1 X380.017 Z-11.641 F930
G1 X380.044 Z-11.575 F930
G1 X380.064 Z-11.506 F930
G1 X380.076 Z-11.436 F930
G1 X380.08 Z-11.365 F930
; MOVEMENT_CUTTING
G1 Z5 F930
G1 X381.23 Y150.635 F930
; MOVEMENT_PLUNGE
G1 Z-11 F254
G1 Z-12.065 F254
; MOVEMENT_LEAD_IN
G1 X381.226 Z-12.136 F930
G1 X381.214 Z-12.206 F930
G1 X381.194 Z-12.275 F930
G1 X381.167 Z-12.341 F930
G1 X381.133 Z-12.403 F930
G1 X381.091 Z-12.461 F930
G1 X381.044 Z-12.514 F930
G1 X380.991 Z-12.561 F930
G1 X380.933 Z-12.603 F930
G1 X380.871 Z-12.637 F930
G1 X380.805 Z-12.664 F930
G1 X380.736 Z-12.684 F930
G1 X380.666 Z-12.696 F930
G1 X380.595 Z-12.7 F930
G1 X379.96 F930
G3 X379.325 Y150 J-0.635 F930
; MOVEMENT_CUTTING
G1 Y24.071 F930
G2 X376.595 Y17.478 I-9.326 F930
G1 X367.522 Y8.406 F930
G2 X360.929 Y5.675 I-6.594 J6.594 F930
G1 X34.071 F930
G2 X27.477 Y8.406 J9.325 F930
G1 X17.777 Y18.173 F930
G2 X15.675 Y24.071 I7.223 J5.898 F930
G1 Y275.929 F930
G2 X18.406 Y282.522 I9.325 J-0.001 F930
G1 X27.478 Y291.595 F930
G2 X34.071 Y294.325 I6.593 J-6.595 F930
G1 X360.929 F930
G2 X367.522 Y291.594 J-9.325 F930
G1 X377.223 Y281.827 F930
G2 X379.325 Y275.929 I-7.223 J-5.898 F930
G1 Y150 F930
; MOVEMENT_LINK_TRANSITION
G2 X378.85 Y149.288 I-0.772 F930
G3 X378.375 Y148.575 I0.297 J-0.713 F930
; MOVEMENT_CUTTING
G1 Y24.071 F930
G2 X375.923 Y18.149 I-8.375 J-0.001 F930
G1 X366.85 Y9.078 F930
G2 X360.929 Y6.625 I-5.922 J5.922 F930
G1 X34.071 F930
G2 X28.149 Y9.078 J8.375 F930
G1 X19.078 Y18.149 F930
G2 X16.625 Y24.071 I5.922 J5.922 F930
G1 Y275.929 F930
G2 X19.078 Y281.85 I8.375 F930
G1 X28.149 Y290.922 F930
G2 X34.071 Y293.375 I5.922 J-5.923 F930
G1 X360.929 F930
G2 X366.85 Y290.923 J-8.375 F930
G1 X375.922 Y281.85 F930
G2 X378.375 Y275.929 I-5.922 J-5.922 F930
G1 Y148.575 F930
; MOVEMENT_LINK_TRANSITION
G2 X378.275 Y148.425 I-0.163 F930
G3 X378.175 Y148.275 I0.063 J-0.15 F930
; MOVEMENT_FINISH_CUTTING
G1 Y24.071 F930
G2 X375.781 Y18.291 I-8.175 J-0.001 F930
G1 X366.709 Y9.219 F930
G2 X360.929 Y6.825 I-5.78 J5.78 F930
G1 X34.071 F930
G2 X28.29 Y9.219 J8.175 F930
G1 X19.219 Y18.29 F930
G2 X16.825 Y24.071 I5.781 J5.781 F930
G1 Y275.929 F930
G2 X19.219 Y281.709 I8.175 F930
G1 X28.29 Y290.781 F930
G2 X34.071 Y293.175 I5.78 J-5.781 F930
G1 X360.929 F930
G2 X366.709 Y290.781 J-8.175 F930
G1 X375.781 Y281.709 F930
G2 X378.175 Y275.929 I-5.781 J-5.78 F930
G1 Y148.275 F930
; MOVEMENT_LEAD_OUT
G3 X378.81 Y147.64 I0.635 F930
G1 X379.445 F930
G1 X379.516 Z-12.696 F930
G1 X379.586 Z-12.684 F930
G1 X379.655 Z-12.664 F930
G1 X379.721 Z-12.637 F930
G1 X379.783 Z-12.603 F930
G1 X379.841 Z-12.561 F930
G1 X379.894 Z-12.514 F930
G1 X379.941 Z-12.461 F930
G1 X379.983 Z-12.403 F930
G1 X380.017 Z-12.341 F930
G1 X380.044 Z-12.275 F930
G1 X380.064 Z-12.206 F930
G1 X380.076 Z-12.136 F930
G1 X380.08 Z-12.065 F930
; MOVEMENT_CUTTING
G1 Z10 F930
; *** SECTION end ***
;
; *** STOP begin ***
M400
; COMMAND_COOLANT_OFF
G0 X0 Y0 F2500
; COMMAND_STOP_SPINDLE
M300 S300 P3000
M0 Turn OFF spindle
M117 Job end
; *** STOP end ***
